(.../pcb-gcode-3_6_0_4/pcb-gcode.ulp)
(Copyright 2005 - 2012 by John Johnson)
(See readme.txt for licensing terms.)
(This file generated from the board:)
(.../projects/Piezo adapter/MainMCU.brd)
(Current profile is .../pcb-gcode-3_6_0_4/profiles/mach.pp  )
(This file generated 12/11/2024 05:02 p. m.)
(Settings from pcb-machine.h)
(  Tool Size)
(0.0070  )
(Z Axis Settings)
(  High     Up        Down     Drill)
(0.5000  	0.1000  	-0.0070 	-0.0320 )
(spindle on time = 3.0000)
(milling depth = -0.0100)
(text depth = -0.0050)
(tool change at 0.5000  0.6000  1.0000  )
(feed rate xy = F20    )
(feed rate z  = F10    )
(Settings from pcb-defaults.h)
(isolate min = 0.0010)
(isolate max = 0.0200)
(isolate step = 0.0050)
(Generated bottom outlines, bottom drill, )
(Unit of measure: inch)
(Inch Mode)
G20
(Absolute Coordinates)
G90
G00 X0.0000  Y0.0000  
M03
G04 P3.000000
G00 Z0.1000  
G00 X-3.1315 Y1.5870  
G01 Z-0.0070 F10    
G01 X-3.1130 Y1.5685  F20    
G01 X-3.1105 Y1.5685  
G01 X-3.1105 Y1.5695  
G01 X-3.1126 Y1.5695  
G01 X-3.1305 Y1.5874  
G01 X-3.1305 Y1.5895  
G01 X-3.1315 Y1.5895  
G01 X-3.1315 Y1.5870  
G00 Z0.1000  
G00 X-3.0685 Y1.6130  
G01 Z-0.0070 F10    
G01 X-3.0870 Y1.6315  F20    
G01 X-3.0895 Y1.6315  
G01 X-3.0895 Y1.6305  
G01 X-3.0874 Y1.6305  
G01 X-3.0695 Y1.6126  
G01 X-3.0695 Y1.6105  
G01 X-3.0685 Y1.6105  
G01 X-3.0685 Y1.6130  
G00 Z0.1000  
G00 X-3.0685 Y1.5895  
G01 Z-0.0070 F10    
G01 X-3.0695 Y1.5895  F20    
G01 X-3.0695 Y1.5874  
G01 X-3.0874 Y1.5695  
G01 X-3.0895 Y1.5695  
G01 X-3.0895 Y1.5685  
G01 X-3.0870 Y1.5685  
G01 X-3.0685 Y1.5870  
G01 X-3.0685 Y1.5895  
G00 Z0.1000  
G00 X-3.1130 Y1.6315  
G01 Z-0.0070 F10    
G01 X-3.1315 Y1.6130  F20    
G01 X-3.1315 Y1.6105  
G01 X-3.1305 Y1.6105  
G01 X-3.1305 Y1.6126  
G01 X-3.1126 Y1.6305  
G01 X-3.1105 Y1.6305  
G01 X-3.1105 Y1.6315  
G01 X-3.1130 Y1.6315  
G00 Z0.1000  
G00 X-1.2791 Y0.7815  
G01 Z-0.0070 F10    
G01 X-1.2852 Y0.7803  F20    
G01 X-1.2909 Y0.7779  
G01 X-1.2961 Y0.7745  
G01 X-1.3005 Y0.7701  
G01 X-1.3039 Y0.7649  
G01 X-1.3057 Y0.7605  
G01 X-1.3047 Y0.7605  
G01 X-1.3030 Y0.7644  
G01 X-1.2997 Y0.7694  
G01 X-1.2954 Y0.7737  
G01 X-1.2904 Y0.7770  
G01 X-1.2849 Y0.7793  
G01 X-1.2790 Y0.7805  
G01 X-1.2605 Y0.7805  
G01 X-1.2605 Y0.7815  
G01 X-1.2791 Y0.7815  
G00 Z0.1000  
G00 X-1.2209 Y0.7185  
G01 Z-0.0070 F10    
G01 X-1.2148 Y0.7197  F20    
G01 X-1.2091 Y0.7221  
G01 X-1.2039 Y0.7255  
G01 X-1.1995 Y0.7299  
G01 X-1.1961 Y0.7351  
G01 X-1.1943 Y0.7395  
G01 X-1.1953 Y0.7395  
G01 X-1.1970 Y0.7356  
G01 X-1.2003 Y0.7306  
G01 X-1.2046 Y0.7263  
G01 X-1.2096 Y0.7230  
G01 X-1.2151 Y0.7207  
G01 X-1.2210 Y0.7195  
G01 X-1.2395 Y0.7195  
G01 X-1.2395 Y0.7185  
G01 X-1.2209 Y0.7185  
G00 Z0.1000  
G00 X-1.3005 Y0.7299  
G01 Z-0.0070 F10    
G01 X-1.2961 Y0.7255  F20    
G01 X-1.2909 Y0.7221  
G01 X-1.2852 Y0.7197  
G01 X-1.2791 Y0.7185  
G01 X-1.2605 Y0.7185  
G01 X-1.2605 Y0.7195  
G01 X-1.2790 Y0.7195  
G01 X-1.2849 Y0.7207  
G01 X-1.2904 Y0.7230  
G01 X-1.2954 Y0.7263  
G01 X-1.2997 Y0.7306  
G01 X-1.3030 Y0.7356  
G01 X-1.3047 Y0.7395  
G01 X-1.3057 Y0.7395  
G01 X-1.3039 Y0.7351  
G01 X-1.3005 Y0.7299  
G00 Z0.1000  
G00 X-1.1961 Y0.7649  
G01 Z-0.0070 F10    
G01 X-1.1995 Y0.7701  F20    
G01 X-1.2039 Y0.7745  
G01 X-1.2091 Y0.7779  
G01 X-1.2148 Y0.7803  
G01 X-1.2209 Y0.7815  
G01 X-1.2395 Y0.7815  
G01 X-1.2395 Y0.7805  
G01 X-1.2210 Y0.7805  
G01 X-1.2151 Y0.7793  
G01 X-1.2096 Y0.7770  
G01 X-1.2046 Y0.7737  
G01 X-1.2003 Y0.7694  
G01 X-1.1970 Y0.7644  
G01 X-1.1953 Y0.7605  
G01 X-1.1943 Y0.7605  
G01 X-1.1961 Y0.7649  
G00 Z0.1000  
G00 X-0.3177 Y2.0235  
G01 Z-0.0070 F10    
G01 X-0.3062 Y2.0188  F20    
G01 X-0.2938 Y2.0188  
G01 X-0.2823 Y2.0235  
G01 X-0.2793 Y2.0265  
G01 X-0.2773 Y2.0285  
G01 X-0.2772 Y2.0286  
G01 X-0.2756 Y2.0293  
G01 X-0.2744 Y2.0298  
G01 X-0.2714 Y2.0298  
G01 X-0.2703 Y2.0293  
G01 X-0.2687 Y2.0286  
G01 X-0.2666 Y2.0265  
G01 X-0.2657 Y2.0244  
G01 X-0.2654 Y2.0238  
G01 X-0.2598 Y2.0101  
G01 X-0.2399 Y1.9902  
G01 X-0.2140 Y1.9795  
G01 X-0.1860 Y1.9795  
G01 X-0.1601 Y1.9902  
G01 X-0.1402 Y2.0101  
G01 X-0.1295 Y2.0360  
G01 X-0.1295 Y2.0640  
G01 X-0.1402 Y2.0899  
G01 X-0.1601 Y2.1098  
G01 X-0.1860 Y2.1205  
G01 X-0.2140 Y2.1205  
G01 X-0.2399 Y2.1098  
G01 X-0.2598 Y2.0899  
G01 X-0.2654 Y2.0762  
G01 X-0.2657 Y2.0757  
G01 X-0.2666 Y2.0735  
G01 X-0.2687 Y2.0714  
G01 X-0.2703 Y2.0707  
G01 X-0.2714 Y2.0702  
G01 X-0.2744 Y2.0702  
G01 X-0.2755 Y2.0707  
G01 X-0.2772 Y2.0714  
G01 X-0.2793 Y2.0735  
G01 X-0.2823 Y2.0765  
G01 X-0.2938 Y2.0812  
G01 X-0.3062 Y2.0812  
G01 X-0.3177 Y2.0765  
G01 X-0.3265 Y2.0677  
G01 X-0.3312 Y2.0562  
G01 X-0.3312 Y2.0438  
G01 X-0.3265 Y2.0323  
G01 X-0.3177 Y2.0235  
G00 Z0.1000  
G00 X-0.3302 Y2.0470  
G01 Z-0.0070 F10    
G01 X-0.3302 Y2.0530  F20    
G01 X-0.3291 Y2.0588  
G01 X-0.3268 Y2.0643  
G01 X-0.3235 Y2.0693  
G01 X-0.3193 Y2.0735  
G01 X-0.3143 Y2.0768  
G01 X-0.3088 Y2.0791  
G01 X-0.3030 Y2.0802  
G01 X-0.2970 Y2.0802  
G01 X-0.2912 Y2.0791  
G01 X-0.2857 Y2.0768  
G01 X-0.2807 Y2.0735  
G01 X-0.2765 Y2.0693  
G01 X-0.2732 Y2.0643  
G01 X-0.2709 Y2.0588  
G01 X-0.2698 Y2.0530  
G01 X-0.2698 Y2.0470  
G01 X-0.2709 Y2.0412  
G01 X-0.2732 Y2.0357  
G01 X-0.2765 Y2.0307  
G01 X-0.2807 Y2.0265  
G01 X-0.2857 Y2.0232  
G01 X-0.2912 Y2.0209  
G01 X-0.2970 Y2.0198  
G01 X-0.3030 Y2.0198  
G01 X-0.3088 Y2.0209  
G01 X-0.3143 Y2.0232  
G01 X-0.3193 Y2.0265  
G01 X-0.3235 Y2.0307  
G01 X-0.3268 Y2.0357  
G01 X-0.3291 Y2.0412  
G01 X-0.3302 Y2.0470  
G00 Z0.1000  
G00 X-0.5177 Y2.0235  
G01 Z-0.0070 F10    
G01 X-0.5062 Y2.0188  F20    
G01 X-0.4938 Y2.0188  
G01 X-0.4823 Y2.0235  
G01 X-0.4735 Y2.0323  
G01 X-0.4688 Y2.0438  
G01 X-0.4688 Y2.0562  
G01 X-0.4735 Y2.0677  
G01 X-0.4823 Y2.0765  
G01 X-0.4938 Y2.0812  
G01 X-0.5062 Y2.0812  
G01 X-0.5177 Y2.0765  
G01 X-0.5265 Y2.0677  
G01 X-0.5312 Y2.0562  
G01 X-0.5312 Y2.0438  
G01 X-0.5265 Y2.0323  
G01 X-0.5177 Y2.0235  
G00 Z0.1000  
G00 X-0.5302 Y2.0470  
G01 Z-0.0070 F10    
G01 X-0.5302 Y2.0530  F20    
G01 X-0.5291 Y2.0588  
G01 X-0.5268 Y2.0643  
G01 X-0.5235 Y2.0693  
G01 X-0.5193 Y2.0735  
G01 X-0.5143 Y2.0768  
G01 X-0.5088 Y2.0791  
G01 X-0.5030 Y2.0802  
G01 X-0.4970 Y2.0802  
G01 X-0.4912 Y2.0791  
G01 X-0.4857 Y2.0768  
G01 X-0.4807 Y2.0735  
G01 X-0.4765 Y2.0693  
G01 X-0.4732 Y2.0643  
G01 X-0.4709 Y2.0588  
G01 X-0.4698 Y2.0530  
G01 X-0.4698 Y2.0470  
G01 X-0.4709 Y2.0412  
G01 X-0.4732 Y2.0357  
G01 X-0.4765 Y2.0307  
G01 X-0.4807 Y2.0265  
G01 X-0.4857 Y2.0232  
G01 X-0.4912 Y2.0209  
G01 X-0.4970 Y2.0198  
G01 X-0.5030 Y2.0198  
G01 X-0.5088 Y2.0209  
G01 X-0.5143 Y2.0232  
G01 X-0.5193 Y2.0265  
G01 X-0.5235 Y2.0307  
G01 X-0.5268 Y2.0357  
G01 X-0.5291 Y2.0412  
G01 X-0.5302 Y2.0470  
G00 Z0.1000  
G00 X-0.7177 Y2.0235  
G01 Z-0.0070 F10    
G01 X-0.7062 Y2.0188  F20    
G01 X-0.6938 Y2.0188  
G01 X-0.6823 Y2.0235  
G01 X-0.6735 Y2.0323  
G01 X-0.6688 Y2.0438  
G01 X-0.6688 Y2.0562  
G01 X-0.6735 Y2.0677  
G01 X-0.6823 Y2.0765  
G01 X-0.6938 Y2.0812  
G01 X-0.7062 Y2.0812  
G01 X-0.7177 Y2.0765  
G01 X-0.7265 Y2.0677  
G01 X-0.7312 Y2.0562  
G01 X-0.7312 Y2.0438  
G01 X-0.7265 Y2.0323  
G01 X-0.7177 Y2.0235  
G00 Z0.1000  
G00 X-0.7302 Y2.0470  
G01 Z-0.0070 F10    
G01 X-0.7302 Y2.0530  F20    
G01 X-0.7291 Y2.0588  
G01 X-0.7268 Y2.0643  
G01 X-0.7235 Y2.0693  
G01 X-0.7193 Y2.0735  
G01 X-0.7143 Y2.0768  
G01 X-0.7088 Y2.0791  
G01 X-0.7030 Y2.0802  
G01 X-0.6970 Y2.0802  
G01 X-0.6912 Y2.0791  
G01 X-0.6857 Y2.0768  
G01 X-0.6807 Y2.0735  
G01 X-0.6765 Y2.0693  
G01 X-0.6732 Y2.0643  
G01 X-0.6709 Y2.0588  
G01 X-0.6698 Y2.0530  
G01 X-0.6698 Y2.0470  
G01 X-0.6709 Y2.0412  
G01 X-0.6732 Y2.0357  
G01 X-0.6765 Y2.0307  
G01 X-0.6807 Y2.0265  
G01 X-0.6857 Y2.0232  
G01 X-0.6912 Y2.0209  
G01 X-0.6970 Y2.0198  
G01 X-0.7030 Y2.0198  
G01 X-0.7088 Y2.0209  
G01 X-0.7143 Y2.0232  
G01 X-0.7193 Y2.0265  
G01 X-0.7235 Y2.0307  
G01 X-0.7268 Y2.0357  
G01 X-0.7291 Y2.0412  
G01 X-0.7302 Y2.0470  
G00 Z0.1000  
G00 X-0.9177 Y2.0235  
G01 Z-0.0070 F10    
G01 X-0.9062 Y2.0188  F20    
G01 X-0.8938 Y2.0188  
G01 X-0.8823 Y2.0235  
G01 X-0.8735 Y2.0323  
G01 X-0.8688 Y2.0438  
G01 X-0.8688 Y2.0562  
G01 X-0.8735 Y2.0677  
G01 X-0.8823 Y2.0765  
G01 X-0.8938 Y2.0812  
G01 X-0.9062 Y2.0812  
G01 X-0.9177 Y2.0765  
G01 X-0.9265 Y2.0677  
G01 X-0.9312 Y2.0562  
G01 X-0.9312 Y2.0438  
G01 X-0.9265 Y2.0323  
G01 X-0.9177 Y2.0235  
G00 Z0.1000  
G00 X-0.9302 Y2.0470  
G01 Z-0.0070 F10    
G01 X-0.9302 Y2.0530  F20    
G01 X-0.9291 Y2.0588  
G01 X-0.9268 Y2.0643  
G01 X-0.9235 Y2.0693  
G01 X-0.9193 Y2.0735  
G01 X-0.9143 Y2.0768  
G01 X-0.9088 Y2.0791  
G01 X-0.9030 Y2.0802  
G01 X-0.8970 Y2.0802  
G01 X-0.8912 Y2.0791  
G01 X-0.8857 Y2.0768  
G01 X-0.8807 Y2.0735  
G01 X-0.8765 Y2.0693  
G01 X-0.8732 Y2.0643  
G01 X-0.8709 Y2.0588  
G01 X-0.8698 Y2.0530  
G01 X-0.8698 Y2.0470  
G01 X-0.8709 Y2.0412  
G01 X-0.8732 Y2.0357  
G01 X-0.8765 Y2.0307  
G01 X-0.8807 Y2.0265  
G01 X-0.8857 Y2.0232  
G01 X-0.8912 Y2.0209  
G01 X-0.8970 Y2.0198  
G01 X-0.9030 Y2.0198  
G01 X-0.9088 Y2.0209  
G01 X-0.9143 Y2.0232  
G01 X-0.9193 Y2.0265  
G01 X-0.9235 Y2.0307  
G01 X-0.9268 Y2.0357  
G01 X-0.9291 Y2.0412  
G01 X-0.9302 Y2.0470  
G00 Z0.1000  
G00 X-1.1177 Y2.0235  
G01 Z-0.0070 F10    
G01 X-1.1062 Y2.0188  F20    
G01 X-1.0938 Y2.0188  
G01 X-1.0823 Y2.0235  
G01 X-1.0735 Y2.0323  
G01 X-1.0688 Y2.0438  
G01 X-1.0688 Y2.0562  
G01 X-1.0735 Y2.0677  
G01 X-1.0823 Y2.0765  
G01 X-1.0938 Y2.0812  
G01 X-1.1062 Y2.0812  
G01 X-1.1177 Y2.0765  
G01 X-1.1265 Y2.0677  
G01 X-1.1312 Y2.0562  
G01 X-1.1312 Y2.0438  
G01 X-1.1265 Y2.0323  
G01 X-1.1177 Y2.0235  
G00 Z0.1000  
G00 X-1.1302 Y2.0470  
G01 Z-0.0070 F10    
G01 X-1.1302 Y2.0530  F20    
G01 X-1.1291 Y2.0588  
G01 X-1.1268 Y2.0643  
G01 X-1.1235 Y2.0693  
G01 X-1.1193 Y2.0735  
G01 X-1.1143 Y2.0768  
G01 X-1.1088 Y2.0791  
G01 X-1.1030 Y2.0802  
G01 X-1.0970 Y2.0802  
G01 X-1.0912 Y2.0791  
G01 X-1.0857 Y2.0768  
G01 X-1.0807 Y2.0735  
G01 X-1.0765 Y2.0693  
G01 X-1.0732 Y2.0643  
G01 X-1.0709 Y2.0588  
G01 X-1.0698 Y2.0530  
G01 X-1.0698 Y2.0470  
G01 X-1.0709 Y2.0412  
G01 X-1.0732 Y2.0357  
G01 X-1.0765 Y2.0307  
G01 X-1.0807 Y2.0265  
G01 X-1.0857 Y2.0232  
G01 X-1.0912 Y2.0209  
G01 X-1.0970 Y2.0198  
G01 X-1.1030 Y2.0198  
G01 X-1.1088 Y2.0209  
G01 X-1.1143 Y2.0232  
G01 X-1.1193 Y2.0265  
G01 X-1.1235 Y2.0307  
G01 X-1.1268 Y2.0357  
G01 X-1.1291 Y2.0412  
G01 X-1.1302 Y2.0470  
G00 Z0.1000  
G00 X-1.3177 Y2.0235  
G01 Z-0.0070 F10    
G01 X-1.3062 Y2.0188  F20    
G01 X-1.2938 Y2.0188  
G01 X-1.2823 Y2.0235  
G01 X-1.2735 Y2.0323  
G01 X-1.2688 Y2.0438  
G01 X-1.2688 Y2.0562  
G01 X-1.2735 Y2.0677  
G01 X-1.2823 Y2.0765  
G01 X-1.2938 Y2.0812  
G01 X-1.3062 Y2.0812  
G01 X-1.3177 Y2.0765  
G01 X-1.3265 Y2.0677  
G01 X-1.3312 Y2.0562  
G01 X-1.3312 Y2.0438  
G01 X-1.3265 Y2.0323  
G01 X-1.3177 Y2.0235  
G00 Z0.1000  
G00 X-1.3302 Y2.0470  
G01 Z-0.0070 F10    
G01 X-1.3302 Y2.0530  F20    
G01 X-1.3291 Y2.0588  
G01 X-1.3268 Y2.0643  
G01 X-1.3235 Y2.0693  
G01 X-1.3193 Y2.0735  
G01 X-1.3143 Y2.0768  
G01 X-1.3088 Y2.0791  
G01 X-1.3030 Y2.0802  
G01 X-1.2970 Y2.0802  
G01 X-1.2912 Y2.0791  
G01 X-1.2857 Y2.0768  
G01 X-1.2807 Y2.0735  
G01 X-1.2765 Y2.0693  
G01 X-1.2732 Y2.0643  
G01 X-1.2709 Y2.0588  
G01 X-1.2698 Y2.0530  
G01 X-1.2698 Y2.0470  
G01 X-1.2709 Y2.0412  
G01 X-1.2732 Y2.0357  
G01 X-1.2765 Y2.0307  
G01 X-1.2807 Y2.0265  
G01 X-1.2857 Y2.0232  
G01 X-1.2912 Y2.0209  
G01 X-1.2970 Y2.0198  
G01 X-1.3030 Y2.0198  
G01 X-1.3088 Y2.0209  
G01 X-1.3143 Y2.0232  
G01 X-1.3193 Y2.0265  
G01 X-1.3235 Y2.0307  
G01 X-1.3268 Y2.0357  
G01 X-1.3291 Y2.0412  
G01 X-1.3302 Y2.0470  
G00 Z0.1000  
G00 X-1.4177 Y1.4235  
G01 Z-0.0070 F10    
G01 X-1.4062 Y1.4188  F20    
G01 X-1.3938 Y1.4188  
G01 X-1.3823 Y1.4235  
G01 X-1.3735 Y1.4323  
G01 X-1.3688 Y1.4438  
G01 X-1.3688 Y1.4562  
G01 X-1.3735 Y1.4677  
G01 X-1.3823 Y1.4765  
G01 X-1.3938 Y1.4812  
G01 X-1.4062 Y1.4812  
G01 X-1.4177 Y1.4765  
G01 X-1.4265 Y1.4677  
G01 X-1.4312 Y1.4562  
G01 X-1.4312 Y1.4438  
G01 X-1.4265 Y1.4323  
G01 X-1.4177 Y1.4235  
G00 Z0.1000  
G00 X-1.4302 Y1.4470  
G01 Z-0.0070 F10    
G01 X-1.4302 Y1.4530  F20    
G01 X-1.4291 Y1.4588  
G01 X-1.4268 Y1.4643  
G01 X-1.4235 Y1.4693  
G01 X-1.4193 Y1.4735  
G01 X-1.4143 Y1.4768  
G01 X-1.4088 Y1.4791  
G01 X-1.4030 Y1.4802  
G01 X-1.3970 Y1.4802  
G01 X-1.3912 Y1.4791  
G01 X-1.3857 Y1.4768  
G01 X-1.3807 Y1.4735  
G01 X-1.3765 Y1.4693  
G01 X-1.3732 Y1.4643  
G01 X-1.3709 Y1.4588  
G01 X-1.3698 Y1.4530  
G01 X-1.3698 Y1.4470  
G01 X-1.3709 Y1.4412  
G01 X-1.3732 Y1.4357  
G01 X-1.3765 Y1.4307  
G01 X-1.3807 Y1.4265  
G01 X-1.3857 Y1.4232  
G01 X-1.3912 Y1.4209  
G01 X-1.3970 Y1.4198  
G01 X-1.4030 Y1.4198  
G01 X-1.4088 Y1.4209  
G01 X-1.4143 Y1.4232  
G01 X-1.4193 Y1.4265  
G01 X-1.4235 Y1.4307  
G01 X-1.4268 Y1.4357  
G01 X-1.4291 Y1.4412  
G01 X-1.4302 Y1.4470  
G00 Z0.1000  
G00 X-0.5177 Y1.4235  
G01 Z-0.0070 F10    
G01 X-0.5062 Y1.4188  F20    
G01 X-0.4938 Y1.4188  
G01 X-0.4823 Y1.4235  
G01 X-0.4735 Y1.4323  
G01 X-0.4688 Y1.4438  
G01 X-0.4688 Y1.4562  
G01 X-0.4735 Y1.4677  
G01 X-0.4823 Y1.4765  
G01 X-0.4938 Y1.4812  
G01 X-0.5062 Y1.4812  
G01 X-0.5177 Y1.4765  
G01 X-0.5265 Y1.4677  
G01 X-0.5312 Y1.4562  
G01 X-0.5312 Y1.4438  
G01 X-0.5265 Y1.4323  
G01 X-0.5177 Y1.4235  
G00 Z0.1000  
G00 X-0.5302 Y1.4470  
G01 Z-0.0070 F10    
G01 X-0.5302 Y1.4530  F20    
G01 X-0.5291 Y1.4588  
G01 X-0.5268 Y1.4643  
G01 X-0.5235 Y1.4693  
G01 X-0.5193 Y1.4735  
G01 X-0.5143 Y1.4768  
G01 X-0.5088 Y1.4791  
G01 X-0.5030 Y1.4802  
G01 X-0.4970 Y1.4802  
G01 X-0.4912 Y1.4791  
G01 X-0.4857 Y1.4768  
G01 X-0.4807 Y1.4735  
G01 X-0.4765 Y1.4693  
G01 X-0.4732 Y1.4643  
G01 X-0.4709 Y1.4588  
G01 X-0.4698 Y1.4530  
G01 X-0.4698 Y1.4470  
G01 X-0.4709 Y1.4412  
G01 X-0.4732 Y1.4357  
G01 X-0.4765 Y1.4307  
G01 X-0.4807 Y1.4265  
G01 X-0.4857 Y1.4232  
G01 X-0.4912 Y1.4209  
G01 X-0.4970 Y1.4198  
G01 X-0.5030 Y1.4198  
G01 X-0.5088 Y1.4209  
G01 X-0.5143 Y1.4232  
G01 X-0.5193 Y1.4265  
G01 X-0.5235 Y1.4307  
G01 X-0.5268 Y1.4357  
G01 X-0.5291 Y1.4412  
G01 X-0.5302 Y1.4470  
G00 Z0.1000  
G00 X-0.3312 Y1.4780  
G01 Z-0.0070 F10    
G01 X-0.3312 Y1.4220  F20    
G01 X-0.3280 Y1.4188  
G01 X-0.2708 Y1.4188  
G01 X-0.2700 Y1.4191  
G01 X-0.2670 Y1.4191  
G01 X-0.2654 Y1.4184  
G01 X-0.2643 Y1.4180  
G01 X-0.2622 Y1.4158  
G01 X-0.2610 Y1.4131  
G01 X-0.2598 Y1.4101  
G01 X-0.2399 Y1.3902  
G01 X-0.2140 Y1.3795  
G01 X-0.1860 Y1.3795  
G01 X-0.1601 Y1.3902  
G01 X-0.1402 Y1.4101  
G01 X-0.1295 Y1.4360  
G01 X-0.1295 Y1.4640  
G01 X-0.1402 Y1.4899  
G01 X-0.1601 Y1.5098  
G01 X-0.1860 Y1.5205  
G01 X-0.2140 Y1.5205  
G01 X-0.2399 Y1.5098  
G01 X-0.2598 Y1.4899  
G01 X-0.2610 Y1.4869  
G01 X-0.2621 Y1.4844  
G01 X-0.2622 Y1.4842  
G01 X-0.2643 Y1.4820  
G01 X-0.2654 Y1.4816  
G01 X-0.2670 Y1.4809  
G01 X-0.2700 Y1.4809  
G01 X-0.2708 Y1.4812  
G01 X-0.3280 Y1.4812  
G01 X-0.3312 Y1.4780  
G00 Z0.1000  
G00 X-0.3302 Y1.4234  
G01 Z-0.0070 F10    
G01 X-0.3302 Y1.4766  F20    
G01 X-0.3296 Y1.4783  
G01 X-0.3283 Y1.4796  
G01 X-0.3266 Y1.4802  
G01 X-0.2734 Y1.4802  
G01 X-0.2717 Y1.4796  
G01 X-0.2704 Y1.4783  
G01 X-0.2698 Y1.4766  
G01 X-0.2698 Y1.4234  
G01 X-0.2704 Y1.4217  
G01 X-0.2717 Y1.4204  
G01 X-0.2734 Y1.4198  
G01 X-0.3266 Y1.4198  
G01 X-0.3283 Y1.4204  
G01 X-0.3296 Y1.4217  
G01 X-0.3302 Y1.4234  
G00 Z0.1000  
G00 X-1.5177 Y2.0235  
G01 Z-0.0070 F10    
G01 X-1.5062 Y2.0188  F20    
G01 X-1.4938 Y2.0188  
G01 X-1.4823 Y2.0235  
G01 X-1.4735 Y2.0323  
G01 X-1.4688 Y2.0438  
G01 X-1.4688 Y2.0562  
G01 X-1.4735 Y2.0677  
G01 X-1.4823 Y2.0765  
G01 X-1.4938 Y2.0812  
G01 X-1.5062 Y2.0812  
G01 X-1.5177 Y2.0765  
G01 X-1.5265 Y2.0677  
G01 X-1.5312 Y2.0562  
G01 X-1.5312 Y2.0438  
G01 X-1.5265 Y2.0323  
G01 X-1.5177 Y2.0235  
G00 Z0.1000  
G00 X-1.5302 Y2.0470  
G01 Z-0.0070 F10    
G01 X-1.5302 Y2.0530  F20    
G01 X-1.5291 Y2.0588  
G01 X-1.5268 Y2.0643  
G01 X-1.5235 Y2.0693  
G01 X-1.5193 Y2.0735  
G01 X-1.5143 Y2.0768  
G01 X-1.5088 Y2.0791  
G01 X-1.5030 Y2.0802  
G01 X-1.4970 Y2.0802  
G01 X-1.4912 Y2.0791  
G01 X-1.4857 Y2.0768  
G01 X-1.4807 Y2.0735  
G01 X-1.4765 Y2.0693  
G01 X-1.4732 Y2.0643  
G01 X-1.4709 Y2.0588  
G01 X-1.4698 Y2.0530  
G01 X-1.4698 Y2.0470  
G01 X-1.4709 Y2.0412  
G01 X-1.4732 Y2.0357  
G01 X-1.4765 Y2.0307  
G01 X-1.4807 Y2.0265  
G01 X-1.4857 Y2.0232  
G01 X-1.4912 Y2.0209  
G01 X-1.4970 Y2.0198  
G01 X-1.5030 Y2.0198  
G01 X-1.5088 Y2.0209  
G01 X-1.5143 Y2.0232  
G01 X-1.5193 Y2.0265  
G01 X-1.5235 Y2.0307  
G01 X-1.5268 Y2.0357  
G01 X-1.5291 Y2.0412  
G01 X-1.5302 Y2.0470  
G00 Z0.1000  
G00 X-1.8791 Y0.7815  
G01 Z-0.0070 F10    
G01 X-1.8852 Y0.7803  F20    
G01 X-1.8909 Y0.7779  
G01 X-1.8961 Y0.7745  
G01 X-1.9005 Y0.7701  
G01 X-1.9039 Y0.7649  
G01 X-1.9057 Y0.7605  
G01 X-1.9047 Y0.7605  
G01 X-1.9030 Y0.7644  
G01 X-1.8997 Y0.7694  
G01 X-1.8954 Y0.7737  
G01 X-1.8904 Y0.7770  
G01 X-1.8849 Y0.7793  
G01 X-1.8790 Y0.7805  
G01 X-1.8605 Y0.7805  
G01 X-1.8605 Y0.7815  
G01 X-1.8791 Y0.7815  
G00 Z0.1000  
G00 X-1.8209 Y0.7185  
G01 Z-0.0070 F10    
G01 X-1.8148 Y0.7197  F20    
G01 X-1.8091 Y0.7221  
G01 X-1.8039 Y0.7255  
G01 X-1.7995 Y0.7299  
G01 X-1.7961 Y0.7351  
G01 X-1.7943 Y0.7395  
G01 X-1.7953 Y0.7395  
G01 X-1.7970 Y0.7356  
G01 X-1.8003 Y0.7306  
G01 X-1.8046 Y0.7263  
G01 X-1.8096 Y0.7230  
G01 X-1.8151 Y0.7207  
G01 X-1.8210 Y0.7195  
G01 X-1.8395 Y0.7195  
G01 X-1.8395 Y0.7185  
G01 X-1.8209 Y0.7185  
G00 Z0.1000  
G00 X-1.9005 Y0.7299  
G01 Z-0.0070 F10    
G01 X-1.8961 Y0.7255  F20    
G01 X-1.8909 Y0.7221  
G01 X-1.8852 Y0.7197  
G01 X-1.8791 Y0.7185  
G01 X-1.8605 Y0.7185  
G01 X-1.8605 Y0.7195  
G01 X-1.8790 Y0.7195  
G01 X-1.8849 Y0.7207  
G01 X-1.8904 Y0.7230  
G01 X-1.8954 Y0.7263  
G01 X-1.8997 Y0.7306  
G01 X-1.9030 Y0.7356  
G01 X-1.9047 Y0.7395  
G01 X-1.9057 Y0.7395  
G01 X-1.9039 Y0.7351  
G01 X-1.9005 Y0.7299  
G00 Z0.1000  
G00 X-1.7961 Y0.7649  
G01 Z-0.0070 F10    
G01 X-1.7995 Y0.7701  F20    
G01 X-1.8039 Y0.7745  
G01 X-1.8091 Y0.7779  
G01 X-1.8148 Y0.7803  
G01 X-1.8209 Y0.7815  
G01 X-1.8395 Y0.7815  
G01 X-1.8395 Y0.7805  
G01 X-1.8210 Y0.7805  
G01 X-1.8151 Y0.7793  
G01 X-1.8096 Y0.7770  
G01 X-1.8046 Y0.7737  
G01 X-1.8003 Y0.7694  
G01 X-1.7970 Y0.7644  
G01 X-1.7953 Y0.7605  
G01 X-1.7943 Y0.7605  
G01 X-1.7961 Y0.7649  
G00 Z0.1000  
G00 X-3.1906 Y1.3734  
G01 Z-0.0070 F10    
G01 X-3.1878 Y1.3745  F20    
G01 X-3.1207 Y1.3745  
G01 X-3.1196 Y1.3740  
G01 X-3.1179 Y1.3734  
G01 X-3.1158 Y1.3712  
G01 X-3.1130 Y1.3685  
G01 X-3.0870 Y1.3685  
G01 X-3.0821 Y1.3734  
G01 X-3.0793 Y1.3745  
G01 X-2.8949 Y1.3745  
G01 X-2.8856 Y1.3784  
G01 X-2.8763 Y1.3877  
G01 X-2.6906 Y1.5734  
G01 X-2.6878 Y1.5745  
G01 X-1.3972 Y1.5745  
G01 X-1.3944 Y1.5734  
G01 X-1.3266 Y1.5056  
G01 X-1.3255 Y1.5028  
G01 X-1.3255 Y1.4701  
G01 X-1.3312 Y1.4562  
G01 X-1.3312 Y1.4438  
G01 X-1.3265 Y1.4323  
G01 X-1.3177 Y1.4235  
G01 X-1.3062 Y1.4188  
G01 X-1.2938 Y1.4188  
G01 X-1.2823 Y1.4235  
G01 X-1.2735 Y1.4323  
G01 X-1.2688 Y1.4438  
G01 X-1.2688 Y1.4562  
G01 X-1.2745 Y1.4701  
G01 X-1.2745 Y1.5201  
G01 X-1.2784 Y1.5294  
G01 X-1.2862 Y1.5372  
G01 X-1.3634 Y1.6144  
G01 X-1.3706 Y1.6216  
G01 X-1.3799 Y1.6255  
G01 X-2.7051 Y1.6255  
G01 X-2.7144 Y1.6216  
G01 X-2.7216 Y1.6144  
G01 X-2.9094 Y1.4266  
G01 X-2.9122 Y1.4255  
G01 X-3.0793 Y1.4255  
G01 X-3.0821 Y1.4266  
G01 X-3.0842 Y1.4288  
G01 X-3.0870 Y1.4315  
G01 X-3.1130 Y1.4315  
G01 X-3.1158 Y1.4288  
G01 X-3.1178 Y1.4268  
G01 X-3.1179 Y1.4266  
G01 X-3.1195 Y1.4260  
G01 X-3.1207 Y1.4255  
G01 X-3.2051 Y1.4255  
G01 X-3.2144 Y1.4216  
G01 X-3.2284 Y1.4077  
G01 X-3.2302 Y1.4058  
G01 X-3.2305 Y1.4055  
G01 X-3.2321 Y1.4049  
G01 X-3.2333 Y1.4044  
G01 X-3.2363 Y1.4044  
G01 X-3.2379 Y1.4051  
G01 X-3.2390 Y1.4055  
G01 X-3.2437 Y1.4075  
G01 X-3.2563 Y1.4075  
G01 X-3.2678 Y1.4027  
G01 X-3.2767 Y1.3938  
G01 X-3.2815 Y1.3823  
G01 X-3.2815 Y1.3562  
G01 X-3.2826 Y1.3534  
G01 X-3.2848 Y1.3513  
G01 X-3.3594 Y1.2766  
G01 X-3.3622 Y1.2755  
G01 X-3.5348 Y1.2755  
G01 X-3.5376 Y1.2766  
G01 X-3.5383 Y1.2774  
G01 X-3.6351 Y1.3742  
G01 X-3.6362 Y1.3769  
G01 X-3.6362 Y1.4096  
G01 X-3.6654 Y1.4387  
G01 X-3.7066 Y1.4387  
G01 X-3.7357 Y1.4096  
G01 X-3.7357 Y1.3684  
G01 X-3.7066 Y1.3392  
G01 X-3.6739 Y1.3392  
G01 X-3.6712 Y1.3381  
G01 X-3.5614 Y1.2284  
G01 X-3.5521 Y1.2245  
G01 X-3.3449 Y1.2245  
G01 X-3.3356 Y1.2284  
G01 X-3.3279 Y1.2360  
G01 X-3.2695 Y1.2945  
G01 X-3.2667 Y1.2956  
G01 X-3.2637 Y1.2956  
G01 X-3.2621 Y1.2949  
G01 X-3.2610 Y1.2945  
G01 X-3.2563 Y1.2925  
G01 X-3.2437 Y1.2925  
G01 X-3.2322 Y1.2973  
G01 X-3.2233 Y1.3062  
G01 X-3.2185 Y1.3177  
G01 X-3.2185 Y1.3438  
G01 X-3.2174 Y1.3466  
G01 X-3.2152 Y1.3487  
G01 X-3.1906 Y1.3734  
G00 Z0.1000  
G00 X-2.7156 Y1.6190  
G01 Z-0.0070 F10    
G01 X-2.7116 Y1.6217  F20    
G01 X-2.7071 Y1.6236  
G01 X-2.7024 Y1.6245  
G01 X-1.3826 Y1.6245  
G01 X-1.3779 Y1.6236  
G01 X-1.3734 Y1.6217  
G01 X-1.3694 Y1.6190  
G01 X-1.2844 Y1.5340  
G01 X-1.2810 Y1.5306  
G01 X-1.2783 Y1.5266  
G01 X-1.2764 Y1.5221  
G01 X-1.2755 Y1.5174  
G01 X-1.2755 Y1.4678  
G01 X-1.2732 Y1.4643  
G01 X-1.2709 Y1.4588  
G01 X-1.2698 Y1.4530  
G01 X-1.2698 Y1.4470  
G01 X-1.2709 Y1.4412  
G01 X-1.2732 Y1.4357  
G01 X-1.2765 Y1.4307  
G01 X-1.2807 Y1.4265  
G01 X-1.2857 Y1.4232  
G01 X-1.2912 Y1.4209  
G01 X-1.2970 Y1.4198  
G01 X-1.3030 Y1.4198  
G01 X-1.3088 Y1.4209  
G01 X-1.3143 Y1.4232  
G01 X-1.3193 Y1.4265  
G01 X-1.3235 Y1.4307  
G01 X-1.3268 Y1.4357  
G01 X-1.3291 Y1.4412  
G01 X-1.3302 Y1.4470  
G01 X-1.3302 Y1.4530  
G01 X-1.3291 Y1.4588  
G01 X-1.3268 Y1.4643  
G01 X-1.3245 Y1.4678  
G01 X-1.3245 Y1.5049  
G01 X-1.3951 Y1.5755  
G01 X-2.6899 Y1.5755  
G01 X-2.8810 Y1.3844  
G01 X-2.8844 Y1.3810  
G01 X-2.8884 Y1.3783  
G01 X-2.8929 Y1.3764  
G01 X-2.8976 Y1.3755  
G01 X-3.0814 Y1.3755  
G01 X-3.0874 Y1.3695  
G01 X-3.1126 Y1.3695  
G01 X-3.1186 Y1.3755  
G01 X-3.1899 Y1.3755  
G01 X-3.2195 Y1.3459  
G01 X-3.2195 Y1.3210  
G01 X-3.2207 Y1.3151  
G01 X-3.2230 Y1.3096  
G01 X-3.2263 Y1.3046  
G01 X-3.2306 Y1.3003  
G01 X-3.2356 Y1.2970  
G01 X-3.2411 Y1.2947  
G01 X-3.2470 Y1.2935  
G01 X-3.2530 Y1.2935  
G01 X-3.2589 Y1.2947  
G01 X-3.2644 Y1.2970  
G01 X-3.2668 Y1.2985  
G01 X-3.3310 Y1.2344  
G01 X-3.3344 Y1.2310  
G01 X-3.3384 Y1.2283  
G01 X-3.3429 Y1.2264  
G01 X-3.3476 Y1.2255  
G01 X-3.5494 Y1.2255  
G01 X-3.5541 Y1.2264  
G01 X-3.5586 Y1.2283  
G01 X-3.5626 Y1.2310  
G01 X-3.6719 Y1.3402  
G01 X-3.7062 Y1.3402  
G01 X-3.7347 Y1.3688  
G01 X-3.7347 Y1.4092  
G01 X-3.7062 Y1.4377  
G01 X-3.6658 Y1.4377  
G01 X-3.6372 Y1.4092  
G01 X-3.6372 Y1.3749  
G01 X-3.5369 Y1.2745  
G01 X-3.3601 Y1.2745  
G01 X-3.2805 Y1.3541  
G01 X-3.2805 Y1.3790  
G01 X-3.2793 Y1.3849  
G01 X-3.2770 Y1.3904  
G01 X-3.2737 Y1.3954  
G01 X-3.2694 Y1.3997  
G01 X-3.2644 Y1.4030  
G01 X-3.2589 Y1.4053  
G01 X-3.2530 Y1.4065  
G01 X-3.2470 Y1.4065  
G01 X-3.2411 Y1.4053  
G01 X-3.2356 Y1.4030  
G01 X-3.2332 Y1.4015  
G01 X-3.2156 Y1.4190  
G01 X-3.2116 Y1.4217  
G01 X-3.2071 Y1.4236  
G01 X-3.2024 Y1.4245  
G01 X-3.1186 Y1.4245  
G01 X-3.1126 Y1.4305  
G01 X-3.0874 Y1.4305  
G01 X-3.0814 Y1.4245  
G01 X-2.9101 Y1.4245  
G01 X-2.7156 Y1.6190  
G00 Z0.1000  
G00 X-3.2185 Y1.6791  
G01 Z-0.0070 F10    
G01 X-3.2197 Y1.6852  F20    
G01 X-3.2221 Y1.6909  
G01 X-3.2255 Y1.6961  
G01 X-3.2299 Y1.7005  
G01 X-3.2351 Y1.7039  
G01 X-3.2395 Y1.7057  
G01 X-3.2395 Y1.7047  
G01 X-3.2356 Y1.7030  
G01 X-3.2306 Y1.6997  
G01 X-3.2263 Y1.6954  
G01 X-3.2230 Y1.6904  
G01 X-3.2207 Y1.6849  
G01 X-3.2195 Y1.6790  
G01 X-3.2195 Y1.6605  
G01 X-3.2185 Y1.6605  
G01 X-3.2185 Y1.6791  
G00 Z0.1000  
G00 X-3.2815 Y1.6209  
G01 Z-0.0070 F10    
G01 X-3.2803 Y1.6148  F20    
G01 X-3.2779 Y1.6091  
G01 X-3.2745 Y1.6039  
G01 X-3.2701 Y1.5995  
G01 X-3.2649 Y1.5961  
G01 X-3.2605 Y1.5943  
G01 X-3.2605 Y1.5953  
G01 X-3.2644 Y1.5970  
G01 X-3.2694 Y1.6003  
G01 X-3.2737 Y1.6046  
G01 X-3.2770 Y1.6096  
G01 X-3.2793 Y1.6151  
G01 X-3.2805 Y1.6210  
G01 X-3.2805 Y1.6395  
G01 X-3.2815 Y1.6395  
G01 X-3.2815 Y1.6209  
G00 Z0.1000  
G00 X-3.2701 Y1.7005  
G01 Z-0.0070 F10    
G01 X-3.2745 Y1.6961  F20    
G01 X-3.2779 Y1.6909  
G01 X-3.2803 Y1.6852  
G01 X-3.2815 Y1.6791  
G01 X-3.2815 Y1.6605  
G01 X-3.2805 Y1.6605  
G01 X-3.2805 Y1.6790  
G01 X-3.2793 Y1.6849  
G01 X-3.2770 Y1.6904  
G01 X-3.2737 Y1.6954  
G01 X-3.2694 Y1.6997  
G01 X-3.2644 Y1.7030  
G01 X-3.2605 Y1.7047  
G01 X-3.2605 Y1.7057  
G01 X-3.2649 Y1.7039  
G01 X-3.2701 Y1.7005  
G00 Z0.1000  
G00 X-3.2351 Y1.5961  
G01 Z-0.0070 F10    
G01 X-3.2299 Y1.5995  F20    
G01 X-3.2255 Y1.6039  
G01 X-3.2221 Y1.6091  
G01 X-3.2197 Y1.6148  
G01 X-3.2185 Y1.6209  
G01 X-3.2185 Y1.6395  
G01 X-3.2195 Y1.6395  
G01 X-3.2195 Y1.6210  
G01 X-3.2207 Y1.6151  
G01 X-3.2230 Y1.6096  
G01 X-3.2263 Y1.6046  
G01 X-3.2306 Y1.6003  
G01 X-3.2356 Y1.5970  
G01 X-3.2395 Y1.5953  
G01 X-3.2395 Y1.5943  
G01 X-3.2351 Y1.5961  
G00 Z0.1000  
G00 X-3.4034 Y1.9222  
G01 Z-0.0070 F10    
G01 X-3.3742 Y1.9514  F20    
G01 X-3.3742 Y1.9926  
G01 X-3.4034 Y2.0217  
G01 X-3.4446 Y2.0217  
G01 X-3.4737 Y1.9926  
G01 X-3.4737 Y1.9514  
G01 X-3.4446 Y1.9222  
G01 X-3.4034 Y1.9222  
G00 Z0.1000  
G00 X-3.4727 Y1.9518  
G01 Z-0.0070 F10    
G01 X-3.4727 Y1.9922  F20    
G01 X-3.4442 Y2.0207  
G01 X-3.4038 Y2.0207  
G01 X-3.3752 Y1.9922  
G01 X-3.3752 Y1.9518  
G01 X-3.4038 Y1.9232  
G01 X-3.4442 Y1.9232  
G01 X-3.4727 Y1.9518  
G00 Z0.1000  
G00 X-3.4034 Y1.3222  
G01 Z-0.0070 F10    
G01 X-3.3742 Y1.3514  F20    
G01 X-3.3742 Y1.3926  
G01 X-3.4034 Y1.4217  
G01 X-3.4446 Y1.4217  
G01 X-3.4737 Y1.3926  
G01 X-3.4737 Y1.3514  
G01 X-3.4446 Y1.3222  
G01 X-3.4034 Y1.3222  
G00 Z0.1000  
G00 X-3.4727 Y1.3518  
G01 Z-0.0070 F10    
G01 X-3.4727 Y1.3922  F20    
G01 X-3.4442 Y1.4207  
G01 X-3.4038 Y1.4207  
G01 X-3.3752 Y1.3922  
G01 X-3.3752 Y1.3518  
G01 X-3.4038 Y1.3233  
G01 X-3.4442 Y1.3233  
G01 X-3.4727 Y1.3518  
G00 Z0.1000  
G00 X-0.7874 Y0.1532  
G01 Z-0.0070 F10    
G01 X-0.7582 Y0.1824  F20    
G01 X-0.7582 Y0.2236  
G01 X-0.7874 Y0.2527  
G01 X-0.8286 Y0.2527  
G01 X-0.8577 Y0.2236  
G01 X-0.8577 Y0.1824  
G01 X-0.8286 Y0.1532  
G01 X-0.7874 Y0.1532  
G00 Z0.1000  
G00 X-0.8567 Y0.1828  
G01 Z-0.0070 F10    
G01 X-0.8567 Y0.2232  F20    
G01 X-0.8282 Y0.2517  
G01 X-0.7878 Y0.2517  
G01 X-0.7592 Y0.2232  
G01 X-0.7592 Y0.1828  
G01 X-0.7878 Y0.1542  
G01 X-0.8282 Y0.1542  
G01 X-0.8567 Y0.1828  
G00 Z0.1000  
G00 X-1.5514 Y0.5762  
G01 Z-0.0070 F10    
G01 X-1.5222 Y0.6054  F20    
G01 X-1.5222 Y0.6466  
G01 X-1.5514 Y0.6757  
G01 X-1.5926 Y0.6757  
G01 X-1.6217 Y0.6466  
G01 X-1.6217 Y0.6054  
G01 X-1.5926 Y0.5762  
G01 X-1.5514 Y0.5762  
G00 Z0.1000  
G00 X-1.6207 Y0.6058  
G01 Z-0.0070 F10    
G01 X-1.6207 Y0.6462  F20    
G01 X-1.5922 Y0.6747  
G01 X-1.5518 Y0.6747  
G01 X-1.5232 Y0.6462  
G01 X-1.5232 Y0.6058  
G01 X-1.5518 Y0.5773  
G01 X-1.5922 Y0.5773  
G01 X-1.6207 Y0.6058  
G00 Z0.1000  
G00 X-1.5684 Y0.3142  
G01 Z-0.0070 F10    
G01 X-1.5392 Y0.3434  F20    
G01 X-1.5392 Y0.3761  
G01 X-1.5381 Y0.3788  
G01 X-1.5360 Y0.3809  
G01 X-1.4356 Y0.4814  
G01 X-1.4284 Y0.4886  
G01 X-1.4245 Y0.4979  
G01 X-1.4245 Y0.6551  
G01 X-1.4284 Y0.6644  
G01 X-1.4945 Y0.7305  
G01 X-1.4956 Y0.7333  
G01 X-1.4956 Y0.7363  
G01 X-1.4949 Y0.7379  
G01 X-1.4945 Y0.7390  
G01 X-1.4925 Y0.7437  
G01 X-1.4925 Y0.7563  
G01 X-1.4973 Y0.7678  
G01 X-1.5062 Y0.7767  
G01 X-1.5177 Y0.7815  
G01 X-1.5438 Y0.7815  
G01 X-1.5466 Y0.7826  
G01 X-1.5487 Y0.7848  
G01 X-1.5734 Y0.8094  
G01 X-1.5745 Y0.8122  
G01 X-1.5745 Y0.8793  
G01 X-1.5734 Y0.8821  
G01 X-1.5712 Y0.8842  
G01 X-1.5685 Y0.8870  
G01 X-1.5685 Y0.9130  
G01 X-1.5734 Y0.9179  
G01 X-1.5745 Y0.9207  
G01 X-1.5745 Y0.9878  
G01 X-1.5734 Y0.9906  
G01 X-1.5712 Y0.9927  
G01 X-1.5406 Y1.0234  
G01 X-1.5378 Y1.0245  
G01 X-1.0619 Y1.0245  
G01 X-1.0526 Y1.0284  
G01 X-1.0433 Y1.0377  
G01 X-0.7856 Y1.2954  
G01 X-0.7784 Y1.3026  
G01 X-0.7745 Y1.3119  
G01 X-0.7745 Y1.4299  
G01 X-0.7688 Y1.4438  
G01 X-0.7688 Y1.4562  
G01 X-0.7735 Y1.4677  
G01 X-0.7823 Y1.4765  
G01 X-0.7938 Y1.4812  
G01 X-0.8062 Y1.4812  
G01 X-0.8177 Y1.4765  
G01 X-0.8265 Y1.4677  
G01 X-0.8312 Y1.4562  
G01 X-0.8312 Y1.4438  
G01 X-0.8255 Y1.4299  
G01 X-0.8255 Y1.3292  
G01 X-0.8266 Y1.3264  
G01 X-0.8288 Y1.3243  
G01 X-1.0764 Y1.0766  
G01 X-1.0792 Y1.0755  
G01 X-1.5551 Y1.0755  
G01 X-1.5644 Y1.0716  
G01 X-1.5737 Y1.0623  
G01 X-1.6216 Y1.0144  
G01 X-1.6255 Y1.0051  
G01 X-1.6255 Y0.9207  
G01 X-1.6266 Y0.9179  
G01 X-1.6288 Y0.9158  
G01 X-1.6315 Y0.9130  
G01 X-1.6315 Y0.8870  
G01 X-1.6266 Y0.8821  
G01 X-1.6255 Y0.8793  
G01 X-1.6255 Y0.7949  
G01 X-1.6216 Y0.7856  
G01 X-1.6143 Y0.7782  
G01 X-1.6077 Y0.7716  
G01 X-1.6057 Y0.7696  
G01 X-1.6055 Y0.7695  
G01 X-1.6049 Y0.7679  
G01 X-1.6044 Y0.7667  
G01 X-1.6044 Y0.7637  
G01 X-1.6051 Y0.7621  
G01 X-1.6055 Y0.7610  
G01 X-1.6075 Y0.7563  
G01 X-1.6075 Y0.7437  
G01 X-1.6027 Y0.7322  
G01 X-1.5938 Y0.7233  
G01 X-1.5823 Y0.7185  
G01 X-1.5562 Y0.7185  
G01 X-1.5534 Y0.7174  
G01 X-1.5513 Y0.7152  
G01 X-1.4766 Y0.6406  
G01 X-1.4755 Y0.6378  
G01 X-1.4755 Y0.5152  
G01 X-1.4766 Y0.5124  
G01 X-1.4788 Y0.5103  
G01 X-1.5742 Y0.4149  
G01 X-1.5769 Y0.4137  
G01 X-1.6096 Y0.4137  
G01 X-1.6387 Y0.3846  
G01 X-1.6387 Y0.3434  
G01 X-1.6096 Y0.3142  
G01 X-1.5684 Y0.3142  
G00 Z0.1000  
G00 X-1.6305 Y0.8874  
G01 Z-0.0070 F10    
G01 X-1.6305 Y0.9126  F20    
G01 X-1.6245 Y0.9186  
G01 X-1.6245 Y1.0024  
G01 X-1.6236 Y1.0071  
G01 X-1.6217 Y1.0116  
G01 X-1.6190 Y1.0156  
G01 X-1.5690 Y1.0656  
G01 X-1.5656 Y1.0690  
G01 X-1.5616 Y1.0717  
G01 X-1.5571 Y1.0736  
G01 X-1.5524 Y1.0745  
G01 X-1.0771 Y1.0745  
G01 X-0.8245 Y1.3271  
G01 X-0.8245 Y1.4322  
G01 X-0.8268 Y1.4357  
G01 X-0.8291 Y1.4412  
G01 X-0.8302 Y1.4470  
G01 X-0.8302 Y1.4530  
G01 X-0.8291 Y1.4588  
G01 X-0.8268 Y1.4643  
G01 X-0.8235 Y1.4693  
G01 X-0.8193 Y1.4735  
G01 X-0.8143 Y1.4768  
G01 X-0.8088 Y1.4791  
G01 X-0.8030 Y1.4802  
G01 X-0.7970 Y1.4802  
G01 X-0.7912 Y1.4791  
G01 X-0.7857 Y1.4768  
G01 X-0.7807 Y1.4735  
G01 X-0.7765 Y1.4693  
G01 X-0.7732 Y1.4643  
G01 X-0.7709 Y1.4588  
G01 X-0.7698 Y1.4530  
G01 X-0.7698 Y1.4470  
G01 X-0.7709 Y1.4412  
G01 X-0.7732 Y1.4357  
G01 X-0.7755 Y1.4322  
G01 X-0.7755 Y1.3146  
G01 X-0.7764 Y1.3099  
G01 X-0.7783 Y1.3054  
G01 X-0.7810 Y1.3014  
G01 X-0.7844 Y1.2980  
G01 X-1.0480 Y1.0344  
G01 X-1.0514 Y1.0310  
G01 X-1.0554 Y1.0283  
G01 X-1.0599 Y1.0264  
G01 X-1.0646 Y1.0255  
G01 X-1.5399 Y1.0255  
G01 X-1.5755 Y0.9899  
G01 X-1.5755 Y0.9186  
G01 X-1.5695 Y0.9126  
G01 X-1.5695 Y0.8874  
G01 X-1.5755 Y0.8814  
G01 X-1.5755 Y0.8101  
G01 X-1.5459 Y0.7805  
G01 X-1.5210 Y0.7805  
G01 X-1.5151 Y0.7793  
G01 X-1.5096 Y0.7770  
G01 X-1.5046 Y0.7737  
G01 X-1.5003 Y0.7694  
G01 X-1.4970 Y0.7644  
G01 X-1.4947 Y0.7589  
G01 X-1.4935 Y0.7530  
G01 X-1.4935 Y0.7470  
G01 X-1.4947 Y0.7411  
G01 X-1.4970 Y0.7356  
G01 X-1.4985 Y0.7332  
G01 X-1.4310 Y0.6656  
G01 X-1.4283 Y0.6616  
G01 X-1.4264 Y0.6571  
G01 X-1.4255 Y0.6524  
G01 X-1.4255 Y0.5006  
G01 X-1.4264 Y0.4959  
G01 X-1.4283 Y0.4914  
G01 X-1.4310 Y0.4874  
G01 X-1.4344 Y0.4840  
G01 X-1.5402 Y0.3781  
G01 X-1.5402 Y0.3438  
G01 X-1.5688 Y0.3152  
G01 X-1.6092 Y0.3152  
G01 X-1.6377 Y0.3438  
G01 X-1.6377 Y0.3842  
G01 X-1.6092 Y0.4127  
G01 X-1.5749 Y0.4127  
G01 X-1.4745 Y0.5131  
G01 X-1.4745 Y0.6399  
G01 X-1.5541 Y0.7195  
G01 X-1.5790 Y0.7195  
G01 X-1.5849 Y0.7207  
G01 X-1.5904 Y0.7230  
G01 X-1.5954 Y0.7263  
G01 X-1.5997 Y0.7306  
G01 X-1.6030 Y0.7356  
G01 X-1.6053 Y0.7411  
G01 X-1.6065 Y0.7470  
G01 X-1.6065 Y0.7530  
G01 X-1.6053 Y0.7589  
G01 X-1.6030 Y0.7644  
G01 X-1.6015 Y0.7668  
G01 X-1.6156 Y0.7810  
G01 X-1.6190 Y0.7844  
G01 X-1.6217 Y0.7884  
G01 X-1.6236 Y0.7929  
G01 X-1.6245 Y0.7976  
G01 X-1.6245 Y0.8814  
G01 X-1.6305 Y0.8874  
G00 Z0.1000  
G00 X-0.9255 Y1.3442  
G01 Z-0.0070 F10    
G01 X-0.9266 Y1.3414  F20    
G01 X-0.9288 Y1.3393  
G01 X-1.1094 Y1.1586  
G01 X-1.1122 Y1.1575  
G01 X-2.0731 Y1.1575  
G01 X-2.0824 Y1.1536  
G01 X-2.2144 Y1.0216  
G01 X-2.2216 Y1.0144  
G01 X-2.2255 Y1.0051  
G01 X-2.2255 Y0.9207  
G01 X-2.2266 Y0.9179  
G01 X-2.2288 Y0.9158  
G01 X-2.2315 Y0.9130  
G01 X-2.2315 Y0.8870  
G01 X-2.2266 Y0.8821  
G01 X-2.2255 Y0.8793  
G01 X-2.2255 Y0.7949  
G01 X-2.2216 Y0.7856  
G01 X-2.2077 Y0.7716  
G01 X-2.2058 Y0.7698  
G01 X-2.2055 Y0.7695  
G01 X-2.2049 Y0.7679  
G01 X-2.2044 Y0.7667  
G01 X-2.2044 Y0.7637  
G01 X-2.2051 Y0.7621  
G01 X-2.2055 Y0.7610  
G01 X-2.2075 Y0.7563  
G01 X-2.2075 Y0.7437  
G01 X-2.2027 Y0.7322  
G01 X-2.1938 Y0.7233  
G01 X-2.1823 Y0.7185  
G01 X-2.1562 Y0.7185  
G01 X-2.1534 Y0.7174  
G01 X-2.0766 Y0.6406  
G01 X-2.0755 Y0.6378  
G01 X-2.0755 Y0.5152  
G01 X-2.0766 Y0.5124  
G01 X-2.0788 Y0.5103  
G01 X-2.1742 Y0.4149  
G01 X-2.1769 Y0.4137  
G01 X-2.2096 Y0.4137  
G01 X-2.2387 Y0.3846  
G01 X-2.2387 Y0.3434  
G01 X-2.2096 Y0.3142  
G01 X-2.1684 Y0.3142  
G01 X-2.1392 Y0.3434  
G01 X-2.1392 Y0.3761  
G01 X-2.1381 Y0.3788  
G01 X-2.1360 Y0.3809  
G01 X-2.0356 Y0.4814  
G01 X-2.0284 Y0.4886  
G01 X-2.0245 Y0.4979  
G01 X-2.0245 Y0.6551  
G01 X-2.0284 Y0.6644  
G01 X-2.0945 Y0.7305  
G01 X-2.0956 Y0.7333  
G01 X-2.0956 Y0.7363  
G01 X-2.0949 Y0.7379  
G01 X-2.0945 Y0.7390  
G01 X-2.0925 Y0.7437  
G01 X-2.0925 Y0.7563  
G01 X-2.0973 Y0.7678  
G01 X-2.1062 Y0.7767  
G01 X-2.1177 Y0.7815  
G01 X-2.1438 Y0.7815  
G01 X-2.1466 Y0.7826  
G01 X-2.1487 Y0.7848  
G01 X-2.1734 Y0.8094  
G01 X-2.1745 Y0.8122  
G01 X-2.1745 Y0.8793  
G01 X-2.1734 Y0.8821  
G01 X-2.1712 Y0.8842  
G01 X-2.1685 Y0.8870  
G01 X-2.1685 Y0.9130  
G01 X-2.1734 Y0.9179  
G01 X-2.1745 Y0.9207  
G01 X-2.1745 Y0.9878  
G01 X-2.1734 Y0.9906  
G01 X-2.1712 Y0.9927  
G01 X-2.0586 Y1.1054  
G01 X-2.0558 Y1.1065  
G01 X-1.0949 Y1.1065  
G01 X-1.0856 Y1.1104  
G01 X-0.8856 Y1.3104  
G01 X-0.8784 Y1.3176  
G01 X-0.8745 Y1.3269  
G01 X-0.8745 Y1.4299  
G01 X-0.8688 Y1.4438  
G01 X-0.8688 Y1.4562  
G01 X-0.8735 Y1.4677  
G01 X-0.8823 Y1.4765  
G01 X-0.8938 Y1.4812  
G01 X-0.9062 Y1.4812  
G01 X-0.9177 Y1.4765  
G01 X-0.9265 Y1.4677  
G01 X-0.9312 Y1.4562  
G01 X-0.9312 Y1.4438  
G01 X-0.9255 Y1.4299  
G01 X-0.9255 Y1.4269  
G01 X-0.9255 Y1.3442  
G00 Z0.1000  
G00 X-0.9302 Y1.4470  
G01 Z-0.0070 F10    
G01 X-0.9302 Y1.4530  F20    
G01 X-0.9291 Y1.4588  
G01 X-0.9268 Y1.4643  
G01 X-0.9235 Y1.4693  
G01 X-0.9193 Y1.4735  
G01 X-0.9143 Y1.4768  
G01 X-0.9088 Y1.4791  
G01 X-0.9030 Y1.4802  
G01 X-0.8970 Y1.4802  
G01 X-0.8912 Y1.4791  
G01 X-0.8857 Y1.4768  
G01 X-0.8807 Y1.4735  
G01 X-0.8765 Y1.4693  
G01 X-0.8732 Y1.4643  
G01 X-0.8709 Y1.4588  
G01 X-0.8698 Y1.4530  
G01 X-0.8698 Y1.4470  
G01 X-0.8709 Y1.4412  
G01 X-0.8732 Y1.4357  
G01 X-0.8755 Y1.4322  
G01 X-0.8755 Y1.3296  
G01 X-0.8764 Y1.3249  
G01 X-0.8783 Y1.3204  
G01 X-0.8810 Y1.3164  
G01 X-0.8844 Y1.3130  
G01 X-1.0844 Y1.1130  
G01 X-1.0884 Y1.1103  
G01 X-1.0929 Y1.1084  
G01 X-1.0976 Y1.1075  
G01 X-2.0579 Y1.1075  
G01 X-2.1755 Y0.9899  
G01 X-2.1755 Y0.9186  
G01 X-2.1695 Y0.9126  
G01 X-2.1695 Y0.8874  
G01 X-2.1755 Y0.8814  
G01 X-2.1755 Y0.8101  
G01 X-2.1459 Y0.7805  
G01 X-2.1210 Y0.7805  
G01 X-2.1151 Y0.7793  
G01 X-2.1096 Y0.7770  
G01 X-2.1046 Y0.7737  
G01 X-2.1003 Y0.7694  
G01 X-2.0970 Y0.7644  
G01 X-2.0947 Y0.7589  
G01 X-2.0935 Y0.7530  
G01 X-2.0935 Y0.7470  
G01 X-2.0947 Y0.7411  
G01 X-2.0970 Y0.7356  
G01 X-2.0985 Y0.7332  
G01 X-2.0310 Y0.6656  
G01 X-2.0283 Y0.6616  
G01 X-2.0264 Y0.6571  
G01 X-2.0255 Y0.6524  
G01 X-2.0255 Y0.5006  
G01 X-2.0264 Y0.4959  
G01 X-2.0283 Y0.4914  
G01 X-2.0310 Y0.4874  
G01 X-2.0344 Y0.4840  
G01 X-2.1402 Y0.3781  
G01 X-2.1402 Y0.3438  
G01 X-2.1688 Y0.3152  
G01 X-2.2092 Y0.3152  
G01 X-2.2377 Y0.3438  
G01 X-2.2377 Y0.3842  
G01 X-2.2092 Y0.4127  
G01 X-2.1749 Y0.4127  
G01 X-2.0745 Y0.5131  
G01 X-2.0745 Y0.6399  
G01 X-2.1541 Y0.7195  
G01 X-2.1790 Y0.7195  
G01 X-2.1849 Y0.7207  
G01 X-2.1904 Y0.7230  
G01 X-2.1954 Y0.7263  
G01 X-2.1997 Y0.7306  
G01 X-2.2030 Y0.7356  
G01 X-2.2053 Y0.7411  
G01 X-2.2065 Y0.7470  
G01 X-2.2065 Y0.7530  
G01 X-2.2053 Y0.7589  
G01 X-2.2030 Y0.7644  
G01 X-2.2015 Y0.7668  
G01 X-2.2156 Y0.7810  
G01 X-2.2190 Y0.7844  
G01 X-2.2217 Y0.7884  
G01 X-2.2236 Y0.7929  
G01 X-2.2245 Y0.7976  
G01 X-2.2245 Y0.8814  
G01 X-2.2305 Y0.8874  
G01 X-2.2305 Y0.9126  
G01 X-2.2245 Y0.9186  
G01 X-2.2245 Y1.0024  
G01 X-2.2236 Y1.0071  
G01 X-2.2217 Y1.0116  
G01 X-2.2190 Y1.0156  
G01 X-2.2156 Y1.0190  
G01 X-2.0836 Y1.1510  
G01 X-2.0796 Y1.1537  
G01 X-2.0751 Y1.1556  
G01 X-2.0704 Y1.1565  
G01 X-1.1101 Y1.1565  
G01 X-0.9245 Y1.3421  
G01 X-0.9245 Y1.4322  
G01 X-0.9268 Y1.4357  
G01 X-0.9291 Y1.4412  
G01 X-0.9302 Y1.4470  
G00 Z0.1000  
G00 X-2.1514 Y0.5762  
G01 Z-0.0070 F10    
G01 X-2.1222 Y0.6054  F20    
G01 X-2.1222 Y0.6466  
G01 X-2.1514 Y0.6757  
G01 X-2.1926 Y0.6757  
G01 X-2.2217 Y0.6466  
G01 X-2.2217 Y0.6054  
G01 X-2.1926 Y0.5762  
G01 X-2.1514 Y0.5762  
G00 Z0.1000  
G00 X-2.2207 Y0.6058  
G01 Z-0.0070 F10    
G01 X-2.2207 Y0.6462  F20    
G01 X-2.1922 Y0.6747  
G01 X-2.1518 Y0.6747  
G01 X-2.1233 Y0.6462  
G01 X-2.1233 Y0.6058  
G01 X-2.1518 Y0.5773  
G01 X-2.1922 Y0.5773  
G01 X-2.2207 Y0.6058  
G00 Z0.1000  
G00 X-2.8216 Y0.7856  
G01 Z-0.0070 F10    
G01 X-2.8143 Y0.7782  F20    
G01 X-2.8077 Y0.7716  
G01 X-2.8057 Y0.7696  
G01 X-2.8055 Y0.7695  
G01 X-2.8049 Y0.7679  
G01 X-2.8044 Y0.7667  
G01 X-2.8044 Y0.7637  
G01 X-2.8051 Y0.7621  
G01 X-2.8055 Y0.7610  
G01 X-2.8075 Y0.7563  
G01 X-2.8075 Y0.7437  
G01 X-2.8027 Y0.7322  
G01 X-2.7938 Y0.7233  
G01 X-2.7823 Y0.7185  
G01 X-2.7562 Y0.7185  
G01 X-2.7534 Y0.7174  
G01 X-2.6766 Y0.6406  
G01 X-2.6755 Y0.6378  
G01 X-2.6755 Y0.5152  
G01 X-2.6766 Y0.5124  
G01 X-2.6774 Y0.5117  
G01 X-2.7742 Y0.4149  
G01 X-2.7769 Y0.4137  
G01 X-2.8096 Y0.4137  
G01 X-2.8387 Y0.3846  
G01 X-2.8387 Y0.3434  
G01 X-2.8096 Y0.3142  
G01 X-2.7684 Y0.3142  
G01 X-2.7392 Y0.3434  
G01 X-2.7392 Y0.3761  
G01 X-2.7381 Y0.3788  
G01 X-2.6356 Y0.4814  
G01 X-2.6284 Y0.4886  
G01 X-2.6245 Y0.4979  
G01 X-2.6245 Y0.6551  
G01 X-2.6284 Y0.6644  
G01 X-2.6945 Y0.7305  
G01 X-2.6956 Y0.7333  
G01 X-2.6956 Y0.7363  
G01 X-2.6949 Y0.7379  
G01 X-2.6945 Y0.7390  
G01 X-2.6925 Y0.7437  
G01 X-2.6925 Y0.7563  
G01 X-2.6973 Y0.7678  
G01 X-2.7062 Y0.7767  
G01 X-2.7177 Y0.7815  
G01 X-2.7438 Y0.7815  
G01 X-2.7449 Y0.7820  
G01 X-2.7466 Y0.7826  
G01 X-2.7487 Y0.7848  
G01 X-2.7712 Y0.8073  
G01 X-2.7734 Y0.8094  
G01 X-2.7745 Y0.8122  
G01 X-2.7745 Y0.8793  
G01 X-2.7734 Y0.8821  
G01 X-2.7712 Y0.8842  
G01 X-2.7685 Y0.8870  
G01 X-2.7685 Y0.9130  
G01 X-2.7734 Y0.9179  
G01 X-2.7745 Y0.9207  
G01 X-2.7745 Y0.9878  
G01 X-2.7734 Y0.9906  
G01 X-2.7712 Y0.9927  
G01 X-2.5746 Y1.1894  
G01 X-2.5718 Y1.1905  
G01 X-1.1289 Y1.1905  
G01 X-1.1196 Y1.1944  
G01 X-1.1103 Y1.2037  
G01 X-0.9856 Y1.3284  
G01 X-0.9784 Y1.3356  
G01 X-0.9745 Y1.3449  
G01 X-0.9745 Y1.4299  
G01 X-0.9688 Y1.4438  
G01 X-0.9688 Y1.4562  
G01 X-0.9735 Y1.4677  
G01 X-0.9823 Y1.4765  
G01 X-0.9938 Y1.4812  
G01 X-1.0062 Y1.4812  
G01 X-1.0177 Y1.4765  
G01 X-1.0265 Y1.4677  
G01 X-1.0312 Y1.4562  
G01 X-1.0312 Y1.4438  
G01 X-1.0255 Y1.4299  
G01 X-1.0255 Y1.3622  
G01 X-1.0266 Y1.3594  
G01 X-1.0288 Y1.3573  
G01 X-1.1434 Y1.2426  
G01 X-1.1462 Y1.2415  
G01 X-2.5891 Y1.2415  
G01 X-2.5984 Y1.2376  
G01 X-2.6077 Y1.2283  
G01 X-2.8216 Y1.0144  
G01 X-2.8255 Y1.0051  
G01 X-2.8255 Y0.9207  
G01 X-2.8266 Y0.9179  
G01 X-2.8288 Y0.9158  
G01 X-2.8315 Y0.9130  
G01 X-2.8315 Y0.8870  
G01 X-2.8266 Y0.8821  
G01 X-2.8255 Y0.8793  
G01 X-2.8255 Y0.7949  
G01 X-2.8216 Y0.7856  
G00 Z0.1000  
G00 X-2.8305 Y0.8874  
G01 Z-0.0070 F10    
G01 X-2.8305 Y0.9126  F20    
G01 X-2.8245 Y0.9186  
G01 X-2.8245 Y1.0024  
G01 X-2.8236 Y1.0071  
G01 X-2.8217 Y1.0116  
G01 X-2.8190 Y1.0156  
G01 X-2.6030 Y1.2316  
G01 X-2.5996 Y1.2350  
G01 X-2.5956 Y1.2377  
G01 X-2.5911 Y1.2396  
G01 X-2.5864 Y1.2405  
G01 X-1.1441 Y1.2405  
G01 X-1.0245 Y1.3601  
G01 X-1.0245 Y1.4322  
G01 X-1.0268 Y1.4357  
G01 X-1.0291 Y1.4412  
G01 X-1.0302 Y1.4470  
G01 X-1.0302 Y1.4530  
G01 X-1.0291 Y1.4588  
G01 X-1.0268 Y1.4643  
G01 X-1.0235 Y1.4693  
G01 X-1.0193 Y1.4735  
G01 X-1.0143 Y1.4768  
G01 X-1.0088 Y1.4791  
G01 X-1.0030 Y1.4802  
G01 X-0.9970 Y1.4802  
G01 X-0.9912 Y1.4791  
G01 X-0.9857 Y1.4768  
G01 X-0.9807 Y1.4735  
G01 X-0.9765 Y1.4693  
G01 X-0.9732 Y1.4643  
G01 X-0.9709 Y1.4588  
G01 X-0.9698 Y1.4530  
G01 X-0.9698 Y1.4470  
G01 X-0.9709 Y1.4412  
G01 X-0.9732 Y1.4357  
G01 X-0.9755 Y1.4322  
G01 X-0.9755 Y1.3476  
G01 X-0.9764 Y1.3429  
G01 X-0.9783 Y1.3384  
G01 X-0.9810 Y1.3344  
G01 X-0.9844 Y1.3310  
G01 X-1.1150 Y1.2004  
G01 X-1.1184 Y1.1970  
G01 X-1.1224 Y1.1943  
G01 X-1.1269 Y1.1924  
G01 X-1.1316 Y1.1915  
G01 X-2.5739 Y1.1915  
G01 X-2.7755 Y0.9899  
G01 X-2.7755 Y0.9186  
G01 X-2.7695 Y0.9126  
G01 X-2.7695 Y0.8874  
G01 X-2.7755 Y0.8814  
G01 X-2.7755 Y0.8101  
G01 X-2.7459 Y0.7805  
G01 X-2.7210 Y0.7805  
G01 X-2.7151 Y0.7793  
G01 X-2.7096 Y0.7770  
G01 X-2.7046 Y0.7737  
G01 X-2.7003 Y0.7694  
G01 X-2.6970 Y0.7644  
G01 X-2.6947 Y0.7589  
G01 X-2.6935 Y0.7530  
G01 X-2.6935 Y0.7470  
G01 X-2.6947 Y0.7411  
G01 X-2.6970 Y0.7356  
G01 X-2.6985 Y0.7332  
G01 X-2.6310 Y0.6656  
G01 X-2.6283 Y0.6616  
G01 X-2.6264 Y0.6571  
G01 X-2.6255 Y0.6524  
G01 X-2.6255 Y0.5006  
G01 X-2.6264 Y0.4959  
G01 X-2.6283 Y0.4914  
G01 X-2.6310 Y0.4874  
G01 X-2.6344 Y0.4840  
G01 X-2.7403 Y0.3781  
G01 X-2.7403 Y0.3438  
G01 X-2.7688 Y0.3152  
G01 X-2.8092 Y0.3152  
G01 X-2.8377 Y0.3438  
G01 X-2.8377 Y0.3842  
G01 X-2.8092 Y0.4127  
G01 X-2.7749 Y0.4127  
G01 X-2.6745 Y0.5131  
G01 X-2.6745 Y0.6399  
G01 X-2.7541 Y0.7195  
G01 X-2.7790 Y0.7195  
G01 X-2.7849 Y0.7207  
G01 X-2.7904 Y0.7230  
G01 X-2.7954 Y0.7263  
G01 X-2.7997 Y0.7306  
G01 X-2.8030 Y0.7356  
G01 X-2.8053 Y0.7411  
G01 X-2.8065 Y0.7470  
G01 X-2.8065 Y0.7530  
G01 X-2.8053 Y0.7589  
G01 X-2.8030 Y0.7644  
G01 X-2.8015 Y0.7668  
G01 X-2.8156 Y0.7810  
G01 X-2.8190 Y0.7844  
G01 X-2.8217 Y0.7884  
G01 X-2.8236 Y0.7929  
G01 X-2.8245 Y0.7976  
G01 X-2.8245 Y0.8814  
G01 X-2.8305 Y0.8874  
G00 Z0.1000  
G00 X-2.7514 Y0.5762  
G01 Z-0.0070 F10    
G01 X-2.7222 Y0.6054  F20    
G01 X-2.7222 Y0.6466  
G01 X-2.7514 Y0.6757  
G01 X-2.7926 Y0.6757  
G01 X-2.8217 Y0.6466  
G01 X-2.8217 Y0.6054  
G01 X-2.7926 Y0.5762  
G01 X-2.7514 Y0.5762  
G00 Z0.1000  
G00 X-2.8207 Y0.6058  
G01 Z-0.0070 F10    
G01 X-2.8207 Y0.6462  F20    
G01 X-2.7922 Y0.6747  
G01 X-2.7518 Y0.6747  
G01 X-2.7233 Y0.6462  
G01 X-2.7233 Y0.6058  
G01 X-2.7518 Y0.5773  
G01 X-2.7922 Y0.5773  
G01 X-2.8207 Y0.6058  
G00 Z0.1000  
G00 X-3.3514 Y0.5762  
G01 Z-0.0070 F10    
G01 X-3.3222 Y0.6054  F20    
G01 X-3.3222 Y0.6466  
G01 X-3.3514 Y0.6757  
G01 X-3.3926 Y0.6757  
G01 X-3.4217 Y0.6466  
G01 X-3.4217 Y0.6054  
G01 X-3.3926 Y0.5762  
G01 X-3.3514 Y0.5762  
G00 Z0.1000  
G00 X-3.4207 Y0.6058  
G01 Z-0.0070 F10    
G01 X-3.4207 Y0.6462  F20    
G01 X-3.3922 Y0.6747  
G01 X-3.3518 Y0.6747  
G01 X-3.3232 Y0.6462  
G01 X-3.3232 Y0.6058  
G01 X-3.3518 Y0.5773  
G01 X-3.3922 Y0.5773  
G01 X-3.4207 Y0.6058  
G00 Z0.1000  
G00 X-3.4895 Y1.0186  
G01 Z-0.0070 F10    
G01 X-3.4919 Y1.0261  F20    
G01 X-3.4955 Y1.0331  
G01 X-3.5001 Y1.0394  
G01 X-3.5056 Y1.0449  
G01 X-3.5119 Y1.0495  
G01 X-3.5189 Y1.0531  
G01 X-3.5263 Y1.0555  
G01 X-3.5275 Y1.0557  
G01 X-3.5275 Y1.0547  
G01 X-3.5266 Y1.0545  
G01 X-3.5193 Y1.0522  
G01 X-3.5124 Y1.0487  
G01 X-3.5062 Y1.0442  
G01 X-3.5008 Y1.0388  
G01 X-3.4963 Y1.0326  
G01 X-3.4928 Y1.0257  
G01 X-3.4905 Y1.0184  
G01 X-3.4903 Y1.0175  
G01 X-3.4893 Y1.0175  
G01 X-3.4895 Y1.0186  
G00 Z0.1000  
G00 X-3.5865 Y0.9953  
G01 Z-0.0070 F10    
G01 X-3.5841 Y0.9879  F20    
G01 X-3.5805 Y0.9809  
G01 X-3.5759 Y0.9746  
G01 X-3.5704 Y0.9691  
G01 X-3.5641 Y0.9645  
G01 X-3.5571 Y0.9609  
G01 X-3.5496 Y0.9585  
G01 X-3.5485 Y0.9583  
G01 X-3.5485 Y0.9593  
G01 X-3.5494 Y0.9595  
G01 X-3.5567 Y0.9618  
G01 X-3.5636 Y0.9653  
G01 X-3.5698 Y0.9698  
G01 X-3.5752 Y0.9752  
G01 X-3.5797 Y0.9814  
G01 X-3.5832 Y0.9883  
G01 X-3.5855 Y0.9956  
G01 X-3.5857 Y0.9965  
G01 X-3.5867 Y0.9965  
G01 X-3.5865 Y0.9953  
G00 Z0.1000  
G00 X-3.5855 Y1.0184  
G01 Z-0.0070 F10    
G01 X-3.5832 Y1.0257  F20    
G01 X-3.5797 Y1.0326  
G01 X-3.5752 Y1.0388  
G01 X-3.5698 Y1.0442  
G01 X-3.5636 Y1.0487  
G01 X-3.5567 Y1.0522  
G01 X-3.5494 Y1.0545  
G01 X-3.5485 Y1.0547  
G01 X-3.5485 Y1.0557  
G01 X-3.5496 Y1.0555  
G01 X-3.5544 Y1.0540  
G01 X-3.5555 Y1.0535  
G01 X-3.5558 Y1.0535  
G01 X-3.5561 Y1.0534  
G01 X-3.5573 Y1.0535  
G01 X-3.5585 Y1.0535  
G01 X-3.5588 Y1.0536  
G01 X-3.5591 Y1.0537  
G01 X-3.5602 Y1.0542  
G01 X-3.5613 Y1.0547  
G01 X-3.5615 Y1.0549  
G01 X-3.5618 Y1.0550  
G01 X-3.5625 Y1.0559  
G01 X-3.5634 Y1.0568  
G01 X-3.5635 Y1.0570  
G01 X-3.5637 Y1.0573  
G01 X-3.5641 Y1.0584  
G01 X-3.5645 Y1.0595  
G01 X-3.5645 Y1.0598  
G01 X-3.5646 Y1.0601  
G01 X-3.5645 Y1.0613  
G01 X-3.5645 Y1.0625  
G01 X-3.5644 Y1.0628  
G01 X-3.5644 Y1.0631  
G01 X-3.5638 Y1.0642  
G01 X-3.5634 Y1.0653  
G01 X-3.5632 Y1.0655  
G01 X-3.5630 Y1.0657  
G01 X-3.5621 Y1.0665  
G01 X-3.5508 Y1.0778  
G01 X-3.5432 Y1.0961  
G01 X-3.5432 Y1.1159  
G01 X-3.5508 Y1.1342  
G01 X-3.5648 Y1.1482  
G01 X-3.5831 Y1.1557  
G01 X-3.6029 Y1.1557  
G01 X-3.6212 Y1.1482  
G01 X-3.6352 Y1.1342  
G01 X-3.6427 Y1.1159  
G01 X-3.6427 Y1.0961  
G01 X-3.6352 Y1.0778  
G01 X-3.6212 Y1.0638  
G01 X-3.6029 Y1.0562  
G01 X-3.5831 Y1.0562  
G01 X-3.5767 Y1.0589  
G01 X-3.5763 Y1.0592  
G01 X-3.5754 Y1.0594  
G01 X-3.5746 Y1.0598  
G01 X-3.5739 Y1.0598  
G01 X-3.5734 Y1.0599  
G01 X-3.5725 Y1.0598  
G01 X-3.5716 Y1.0598  
G01 X-3.5710 Y1.0596  
G01 X-3.5704 Y1.0595  
G01 X-3.5696 Y1.0590  
G01 X-3.5688 Y1.0587  
G01 X-3.5684 Y1.0582  
G01 X-3.5679 Y1.0579  
G01 X-3.5673 Y1.0572  
G01 X-3.5667 Y1.0565  
G01 X-3.5665 Y1.0560  
G01 X-3.5661 Y1.0555  
G01 X-3.5659 Y1.0546  
G01 X-3.5656 Y1.0538  
G01 X-3.5656 Y1.0532  
G01 X-3.5654 Y1.0526  
G01 X-3.5656 Y1.0517  
G01 X-3.5656 Y1.0508  
G01 X-3.5658 Y1.0502  
G01 X-3.5659 Y1.0496  
G01 X-3.5664 Y1.0489  
G01 X-3.5667 Y1.0480  
G01 X-3.5671 Y1.0476  
G01 X-3.5674 Y1.0471  
G01 X-3.5682 Y1.0466  
G01 X-3.5688 Y1.0459  
G01 X-3.5694 Y1.0457  
G01 X-3.5704 Y1.0449  
G01 X-3.5759 Y1.0394  
G01 X-3.5805 Y1.0331  
G01 X-3.5841 Y1.0261  
G01 X-3.5865 Y1.0186  
G01 X-3.5867 Y1.0175  
G01 X-3.5857 Y1.0175  
G01 X-3.5855 Y1.0184  
G00 Z0.1000  
G00 X-3.6417 Y1.1022  
G01 Z-0.0070 F10    
G01 X-3.6417 Y1.1098  F20    
G01 X-3.6405 Y1.1174  
G01 X-3.6382 Y1.1247  
G01 X-3.6347 Y1.1316  
G01 X-3.6302 Y1.1378  
G01 X-3.6248 Y1.1432  
G01 X-3.6186 Y1.1477  
G01 X-3.6117 Y1.1512  
G01 X-3.6044 Y1.1535  
G01 X-3.5968 Y1.1547  
G01 X-3.5892 Y1.1547  
G01 X-3.5816 Y1.1535  
G01 X-3.5743 Y1.1512  
G01 X-3.5674 Y1.1477  
G01 X-3.5612 Y1.1432  
G01 X-3.5558 Y1.1378  
G01 X-3.5513 Y1.1316  
G01 X-3.5478 Y1.1247  
G01 X-3.5455 Y1.1174  
G01 X-3.5442 Y1.1098  
G01 X-3.5442 Y1.1022  
G01 X-3.5455 Y1.0946  
G01 X-3.5478 Y1.0873  
G01 X-3.5513 Y1.0804  
G01 X-3.5558 Y1.0742  
G01 X-3.5612 Y1.0688  
G01 X-3.5674 Y1.0643  
G01 X-3.5743 Y1.0608  
G01 X-3.5816 Y1.0585  
G01 X-3.5892 Y1.0573  
G01 X-3.5968 Y1.0573  
G01 X-3.6044 Y1.0585  
G01 X-3.6117 Y1.0608  
G01 X-3.6186 Y1.0643  
G01 X-3.6248 Y1.0688  
G01 X-3.6302 Y1.0742  
G01 X-3.6347 Y1.0804  
G01 X-3.6382 Y1.0873  
G01 X-3.6405 Y1.0946  
G01 X-3.6417 Y1.1022  
G00 Z0.1000  
G00 X-3.5263 Y0.9585  
G01 Z-0.0070 F10    
G01 X-3.5189 Y0.9609  F20    
G01 X-3.5119 Y0.9645  
G01 X-3.5056 Y0.9691  
G01 X-3.5001 Y0.9746  
G01 X-3.4955 Y0.9809  
G01 X-3.4919 Y0.9879  
G01 X-3.4895 Y0.9953  
G01 X-3.4893 Y0.9965  
G01 X-3.4903 Y0.9965  
G01 X-3.4905 Y0.9956  
G01 X-3.4928 Y0.9883  
G01 X-3.4963 Y0.9814  
G01 X-3.5008 Y0.9752  
G01 X-3.5062 Y0.9698  
G01 X-3.5124 Y0.9653  
G01 X-3.5193 Y0.9618  
G01 X-3.5266 Y0.9595  
G01 X-3.5275 Y0.9593  
G01 X-3.5275 Y0.9583  
G01 X-3.5263 Y0.9585  
G00 Z0.1000  
G00 X-3.4895 Y1.6186  
G01 Z-0.0070 F10    
G01 X-3.4919 Y1.6261  F20    
G01 X-3.4955 Y1.6331  
G01 X-3.5001 Y1.6394  
G01 X-3.5056 Y1.6449  
G01 X-3.5119 Y1.6495  
G01 X-3.5189 Y1.6531  
G01 X-3.5263 Y1.6555  
G01 X-3.5275 Y1.6557  
G01 X-3.5275 Y1.6547  
G01 X-3.5266 Y1.6545  
G01 X-3.5193 Y1.6522  
G01 X-3.5124 Y1.6487  
G01 X-3.5062 Y1.6442  
G01 X-3.5008 Y1.6388  
G01 X-3.4963 Y1.6326  
G01 X-3.4928 Y1.6257  
G01 X-3.4905 Y1.6184  
G01 X-3.4903 Y1.6175  
G01 X-3.4893 Y1.6175  
G01 X-3.4895 Y1.6186  
G00 Z0.1000  
G00 X-3.5865 Y1.5953  
G01 Z-0.0070 F10    
G01 X-3.5841 Y1.5879  F20    
G01 X-3.5805 Y1.5809  
G01 X-3.5759 Y1.5746  
G01 X-3.5704 Y1.5691  
G01 X-3.5641 Y1.5645  
G01 X-3.5571 Y1.5609  
G01 X-3.5496 Y1.5585  
G01 X-3.5485 Y1.5583  
G01 X-3.5485 Y1.5593  
G01 X-3.5494 Y1.5595  
G01 X-3.5567 Y1.5618  
G01 X-3.5636 Y1.5653  
G01 X-3.5698 Y1.5698  
G01 X-3.5752 Y1.5752  
G01 X-3.5797 Y1.5814  
G01 X-3.5832 Y1.5883  
G01 X-3.5855 Y1.5956  
G01 X-3.5857 Y1.5965  
G01 X-3.5867 Y1.5965  
G01 X-3.5865 Y1.5953  
G00 Z0.1000  
G00 X-3.5855 Y1.6184  
G01 Z-0.0070 F10    
G01 X-3.5832 Y1.6257  F20    
G01 X-3.5797 Y1.6326  
G01 X-3.5752 Y1.6388  
G01 X-3.5698 Y1.6442  
G01 X-3.5636 Y1.6487  
G01 X-3.5567 Y1.6522  
G01 X-3.5494 Y1.6545  
G01 X-3.5485 Y1.6547  
G01 X-3.5485 Y1.6557  
G01 X-3.5496 Y1.6555  
G01 X-3.5544 Y1.6540  
G01 X-3.5555 Y1.6535  
G01 X-3.5558 Y1.6535  
G01 X-3.5561 Y1.6534  
G01 X-3.5573 Y1.6535  
G01 X-3.5585 Y1.6535  
G01 X-3.5588 Y1.6536  
G01 X-3.5591 Y1.6537  
G01 X-3.5602 Y1.6542  
G01 X-3.5613 Y1.6547  
G01 X-3.5615 Y1.6549  
G01 X-3.5618 Y1.6550  
G01 X-3.5625 Y1.6559  
G01 X-3.5634 Y1.6568  
G01 X-3.5635 Y1.6570  
G01 X-3.5637 Y1.6573  
G01 X-3.5641 Y1.6584  
G01 X-3.5645 Y1.6595  
G01 X-3.5645 Y1.6598  
G01 X-3.5646 Y1.6601  
G01 X-3.5645 Y1.6613  
G01 X-3.5645 Y1.6625  
G01 X-3.5644 Y1.6628  
G01 X-3.5644 Y1.6631  
G01 X-3.5638 Y1.6642  
G01 X-3.5634 Y1.6653  
G01 X-3.5632 Y1.6655  
G01 X-3.5630 Y1.6658  
G01 X-3.5621 Y1.6665  
G01 X-3.5508 Y1.6778  
G01 X-3.5432 Y1.6961  
G01 X-3.5432 Y1.7159  
G01 X-3.5508 Y1.7342  
G01 X-3.5648 Y1.7482  
G01 X-3.5831 Y1.7557  
G01 X-3.6029 Y1.7557  
G01 X-3.6212 Y1.7482  
G01 X-3.6352 Y1.7342  
G01 X-3.6427 Y1.7159  
G01 X-3.6427 Y1.6961  
G01 X-3.6352 Y1.6778  
G01 X-3.6212 Y1.6638  
G01 X-3.6029 Y1.6562  
G01 X-3.5831 Y1.6562  
G01 X-3.5767 Y1.6589  
G01 X-3.5763 Y1.6592  
G01 X-3.5754 Y1.6594  
G01 X-3.5746 Y1.6598  
G01 X-3.5739 Y1.6598  
G01 X-3.5734 Y1.6599  
G01 X-3.5725 Y1.6598  
G01 X-3.5716 Y1.6598  
G01 X-3.5710 Y1.6596  
G01 X-3.5704 Y1.6595  
G01 X-3.5696 Y1.6590  
G01 X-3.5688 Y1.6587  
G01 X-3.5684 Y1.6582  
G01 X-3.5679 Y1.6579  
G01 X-3.5673 Y1.6572  
G01 X-3.5667 Y1.6565  
G01 X-3.5665 Y1.6560  
G01 X-3.5661 Y1.6555  
G01 X-3.5659 Y1.6546  
G01 X-3.5656 Y1.6538  
G01 X-3.5656 Y1.6532  
G01 X-3.5654 Y1.6526  
G01 X-3.5656 Y1.6517  
G01 X-3.5656 Y1.6508  
G01 X-3.5658 Y1.6502  
G01 X-3.5659 Y1.6496  
G01 X-3.5664 Y1.6489  
G01 X-3.5667 Y1.6480  
G01 X-3.5671 Y1.6476  
G01 X-3.5674 Y1.6471  
G01 X-3.5682 Y1.6466  
G01 X-3.5688 Y1.6459  
G01 X-3.5694 Y1.6457  
G01 X-3.5704 Y1.6449  
G01 X-3.5759 Y1.6394  
G01 X-3.5805 Y1.6331  
G01 X-3.5841 Y1.6261  
G01 X-3.5865 Y1.6186  
G01 X-3.5867 Y1.6175  
G01 X-3.5857 Y1.6175  
G01 X-3.5855 Y1.6184  
G00 Z0.1000  
G00 X-3.6417 Y1.7022  
G01 Z-0.0070 F10    
G01 X-3.6417 Y1.7098  F20    
G01 X-3.6405 Y1.7174  
G01 X-3.6382 Y1.7247  
G01 X-3.6347 Y1.7316  
G01 X-3.6302 Y1.7378  
G01 X-3.6248 Y1.7432  
G01 X-3.6186 Y1.7477  
G01 X-3.6117 Y1.7512  
G01 X-3.6044 Y1.7535  
G01 X-3.5968 Y1.7547  
G01 X-3.5892 Y1.7547  
G01 X-3.5816 Y1.7535  
G01 X-3.5743 Y1.7512  
G01 X-3.5674 Y1.7477  
G01 X-3.5612 Y1.7432  
G01 X-3.5558 Y1.7378  
G01 X-3.5513 Y1.7316  
G01 X-3.5478 Y1.7247  
G01 X-3.5455 Y1.7174  
G01 X-3.5442 Y1.7098  
G01 X-3.5442 Y1.7022  
G01 X-3.5455 Y1.6946  
G01 X-3.5478 Y1.6873  
G01 X-3.5513 Y1.6804  
G01 X-3.5558 Y1.6742  
G01 X-3.5612 Y1.6688  
G01 X-3.5674 Y1.6643  
G01 X-3.5743 Y1.6608  
G01 X-3.5816 Y1.6585  
G01 X-3.5892 Y1.6572  
G01 X-3.5968 Y1.6572  
G01 X-3.6044 Y1.6585  
G01 X-3.6117 Y1.6608  
G01 X-3.6186 Y1.6643  
G01 X-3.6248 Y1.6688  
G01 X-3.6302 Y1.6742  
G01 X-3.6347 Y1.6804  
G01 X-3.6382 Y1.6873  
G01 X-3.6405 Y1.6946  
G01 X-3.6417 Y1.7022  
G00 Z0.1000  
G00 X-3.5263 Y1.5585  
G01 Z-0.0070 F10    
G01 X-3.5189 Y1.5609  F20    
G01 X-3.5119 Y1.5645  
G01 X-3.5056 Y1.5691  
G01 X-3.5001 Y1.5746  
G01 X-3.4955 Y1.5809  
G01 X-3.4919 Y1.5879  
G01 X-3.4895 Y1.5953  
G01 X-3.4893 Y1.5965  
G01 X-3.4903 Y1.5965  
G01 X-3.4905 Y1.5956  
G01 X-3.4928 Y1.5883  
G01 X-3.4963 Y1.5814  
G01 X-3.5008 Y1.5752  
G01 X-3.5062 Y1.5698  
G01 X-3.5124 Y1.5653  
G01 X-3.5193 Y1.5618  
G01 X-3.5266 Y1.5595  
G01 X-3.5275 Y1.5593  
G01 X-3.5275 Y1.5583  
G01 X-3.5263 Y1.5585  
G00 Z0.1000  
G00 X-0.5685 Y0.9130  
G01 Z-0.0070 F10    
G01 X-0.5870 Y0.9315  F20    
G01 X-0.5895 Y0.9315  
G01 X-0.5895 Y0.9305  
G01 X-0.5874 Y0.9305  
G01 X-0.5695 Y0.9126  
G01 X-0.5695 Y0.9105  
G01 X-0.5685 Y0.9105  
G01 X-0.5685 Y0.9130  
G00 Z0.1000  
G00 X-0.6305 Y0.9126  
G01 Z-0.0070 F10    
G01 X-0.6126 Y0.9305  F20    
G01 X-0.6105 Y0.9305  
G01 X-0.6105 Y0.9315  
G01 X-0.6130 Y0.9315  
G01 X-0.6315 Y0.9130  
G01 X-0.6315 Y0.9105  
G01 X-0.6305 Y0.9105  
G01 X-0.6305 Y0.9126  
G00 Z0.1000  
G00 X-0.6305 Y0.8874  
G01 Z-0.0070 F10    
G01 X-0.6305 Y0.8895  F20    
G01 X-0.6315 Y0.8895  
G01 X-0.6315 Y0.8870  
G01 X-0.6130 Y0.8685  
G01 X-0.6105 Y0.8685  
G01 X-0.6105 Y0.8695  
G01 X-0.6126 Y0.8695  
G01 X-0.6305 Y0.8874  
G00 Z0.1000  
G00 X-0.5870 Y0.8685  
G01 Z-0.0070 F10    
G01 X-0.5685 Y0.8870  F20    
G01 X-0.5685 Y0.8895  
G01 X-0.5695 Y0.8895  
G01 X-0.5695 Y0.8874  
G01 X-0.5874 Y0.8695  
G01 X-0.5895 Y0.8695  
G01 X-0.5895 Y0.8685  
G01 X-0.5870 Y0.8685  
G00 Z0.1000  
G00 X-1.1685 Y0.9130  
G01 Z-0.0070 F10    
G01 X-1.1870 Y0.9315  F20    
G01 X-1.1895 Y0.9315  
G01 X-1.1895 Y0.9305  
G01 X-1.1874 Y0.9305  
G01 X-1.1695 Y0.9126  
G01 X-1.1695 Y0.9105  
G01 X-1.1685 Y0.9105  
G01 X-1.1685 Y0.9130  
G00 Z0.1000  
G00 X-1.2305 Y0.9126  
G01 Z-0.0070 F10    
G01 X-1.2126 Y0.9305  F20    
G01 X-1.2105 Y0.9305  
G01 X-1.2105 Y0.9315  
G01 X-1.2130 Y0.9315  
G01 X-1.2315 Y0.9130  
G01 X-1.2315 Y0.9105  
G01 X-1.2305 Y0.9105  
G01 X-1.2305 Y0.9126  
G00 Z0.1000  
G00 X-1.2305 Y0.8874  
G01 Z-0.0070 F10    
G01 X-1.2305 Y0.8895  F20    
G01 X-1.2315 Y0.8895  
G01 X-1.2315 Y0.8870  
G01 X-1.2130 Y0.8685  
G01 X-1.2105 Y0.8685  
G01 X-1.2105 Y0.8695  
G01 X-1.2126 Y0.8695  
G01 X-1.2305 Y0.8874  
G00 Z0.1000  
G00 X-1.1870 Y0.8685  
G01 Z-0.0070 F10    
G01 X-1.1685 Y0.8870  F20    
G01 X-1.1685 Y0.8895  
G01 X-1.1695 Y0.8895  
G01 X-1.1695 Y0.8874  
G01 X-1.1874 Y0.8695  
G01 X-1.1895 Y0.8695  
G01 X-1.1895 Y0.8685  
G01 X-1.1870 Y0.8685  
G00 Z0.1000  
G00 X-1.7685 Y0.9130  
G01 Z-0.0070 F10    
G01 X-1.7870 Y0.9315  F20    
G01 X-1.7895 Y0.9315  
G01 X-1.7895 Y0.9305  
G01 X-1.7874 Y0.9305  
G01 X-1.7695 Y0.9126  
G01 X-1.7695 Y0.9105  
G01 X-1.7685 Y0.9105  
G01 X-1.7685 Y0.9130  
G00 Z0.1000  
G00 X-1.8305 Y0.9126  
G01 Z-0.0070 F10    
G01 X-1.8126 Y0.9305  F20    
G01 X-1.8105 Y0.9305  
G01 X-1.8105 Y0.9315  
G01 X-1.8130 Y0.9315  
G01 X-1.8315 Y0.9130  
G01 X-1.8315 Y0.9105  
G01 X-1.8305 Y0.9105  
G01 X-1.8305 Y0.9126  
G00 Z0.1000  
G00 X-1.8305 Y0.8874  
G01 Z-0.0070 F10    
G01 X-1.8305 Y0.8895  F20    
G01 X-1.8315 Y0.8895  
G01 X-1.8315 Y0.8870  
G01 X-1.8130 Y0.8685  
G01 X-1.8105 Y0.8685  
G01 X-1.8105 Y0.8695  
G01 X-1.8126 Y0.8695  
G01 X-1.8305 Y0.8874  
G00 Z0.1000  
G00 X-1.7870 Y0.8685  
G01 Z-0.0070 F10    
G01 X-1.7685 Y0.8870  F20    
G01 X-1.7685 Y0.8895  
G01 X-1.7695 Y0.8895  
G01 X-1.7695 Y0.8874  
G01 X-1.7874 Y0.8695  
G01 X-1.7895 Y0.8695  
G01 X-1.7895 Y0.8685  
G01 X-1.7870 Y0.8685  
G00 Z0.1000  
G00 X-2.3685 Y0.9130  
G01 Z-0.0070 F10    
G01 X-2.3870 Y0.9315  F20    
G01 X-2.3895 Y0.9315  
G01 X-2.3895 Y0.9305  
G01 X-2.3874 Y0.9305  
G01 X-2.3695 Y0.9126  
G01 X-2.3695 Y0.9105  
G01 X-2.3685 Y0.9105  
G01 X-2.3685 Y0.9130  
G00 Z0.1000  
G00 X-2.4305 Y0.9126  
G01 Z-0.0070 F10    
G01 X-2.4126 Y0.9305  F20    
G01 X-2.4105 Y0.9305  
G01 X-2.4105 Y0.9315  
G01 X-2.4130 Y0.9315  
G01 X-2.4315 Y0.9130  
G01 X-2.4315 Y0.9105  
G01 X-2.4305 Y0.9105  
G01 X-2.4305 Y0.9126  
G00 Z0.1000  
G00 X-2.4305 Y0.8874  
G01 Z-0.0070 F10    
G01 X-2.4305 Y0.8895  F20    
G01 X-2.4315 Y0.8895  
G01 X-2.4315 Y0.8870  
G01 X-2.4130 Y0.8685  
G01 X-2.4105 Y0.8685  
G01 X-2.4105 Y0.8695  
G01 X-2.4126 Y0.8695  
G01 X-2.4305 Y0.8874  
G00 Z0.1000  
G00 X-2.3870 Y0.8685  
G01 Z-0.0070 F10    
G01 X-2.3685 Y0.8870  F20    
G01 X-2.3685 Y0.8895  
G01 X-2.3695 Y0.8895  
G01 X-2.3695 Y0.8874  
G01 X-2.3874 Y0.8695  
G01 X-2.3895 Y0.8695  
G01 X-2.3895 Y0.8685  
G01 X-2.3870 Y0.8685  
G00 Z0.1000  
G00 X-2.9870 Y0.8685  
G01 Z-0.0070 F10    
G01 X-2.9685 Y0.8870  F20    
G01 X-2.9685 Y0.8895  
G01 X-2.9695 Y0.8895  
G01 X-2.9695 Y0.8874  
G01 X-2.9874 Y0.8695  
G01 X-2.9895 Y0.8695  
G01 X-2.9895 Y0.8685  
G01 X-2.9870 Y0.8685  
G00 Z0.1000  
G00 X-3.0305 Y0.8874  
G01 Z-0.0070 F10    
G01 X-3.0305 Y0.8895  F20    
G01 X-3.0315 Y0.8895  
G01 X-3.0315 Y0.8870  
G01 X-3.0130 Y0.8685  
G01 X-3.0105 Y0.8685  
G01 X-3.0105 Y0.8695  
G01 X-3.0126 Y0.8695  
G01 X-3.0305 Y0.8874  
G00 Z0.1000  
G00 X-3.0305 Y0.9126  
G01 Z-0.0070 F10    
G01 X-3.0126 Y0.9305  F20    
G01 X-3.0105 Y0.9305  
G01 X-3.0105 Y0.9315  
G01 X-3.0130 Y0.9315  
G01 X-3.0315 Y0.9130  
G01 X-3.0315 Y0.9105  
G01 X-3.0305 Y0.9105  
G01 X-3.0305 Y0.9126  
G00 Z0.1000  
G00 X-2.9685 Y0.9130  
G01 Z-0.0070 F10    
G01 X-2.9870 Y0.9315  F20    
G01 X-2.9895 Y0.9315  
G01 X-2.9895 Y0.9305  
G01 X-2.9874 Y0.9305  
G01 X-2.9695 Y0.9126  
G01 X-2.9695 Y0.9105  
G01 X-2.9685 Y0.9105  
G01 X-2.9685 Y0.9130  
G00 Z0.1000  
G00 X-3.2351 Y0.9961  
G01 Z-0.0070 F10    
G01 X-3.2299 Y0.9995  F20    
G01 X-3.2255 Y1.0039  
G01 X-3.2221 Y1.0091  
G01 X-3.2197 Y1.0148  
G01 X-3.2185 Y1.0209  
G01 X-3.2185 Y1.0395  
G01 X-3.2195 Y1.0395  
G01 X-3.2195 Y1.0210  
G01 X-3.2207 Y1.0151  
G01 X-3.2230 Y1.0096  
G01 X-3.2263 Y1.0046  
G01 X-3.2306 Y1.0003  
G01 X-3.2356 Y0.9970  
G01 X-3.2395 Y0.9953  
G01 X-3.2395 Y0.9943  
G01 X-3.2351 Y0.9961  
G00 Z0.1000  
G00 X-3.2815 Y1.0209  
G01 Z-0.0070 F10    
G01 X-3.2803 Y1.0148  F20    
G01 X-3.2779 Y1.0091  
G01 X-3.2745 Y1.0039  
G01 X-3.2701 Y0.9995  
G01 X-3.2649 Y0.9961  
G01 X-3.2605 Y0.9943  
G01 X-3.2605 Y0.9953  
G01 X-3.2644 Y0.9970  
G01 X-3.2694 Y1.0003  
G01 X-3.2737 Y1.0046  
G01 X-3.2770 Y1.0096  
G01 X-3.2793 Y1.0151  
G01 X-3.2805 Y1.0210  
G01 X-3.2805 Y1.0395  
G01 X-3.2815 Y1.0395  
G01 X-3.2815 Y1.0209  
G00 Z0.1000  
G00 X-1.3723 Y2.0648  
G01 Z-0.0070 F10    
G01 X-1.3757 Y2.0699  F20    
G01 X-1.3801 Y2.0743  
G01 X-1.3852 Y2.0777  
G01 X-1.3895 Y2.0795  
G01 X-1.3895 Y2.0784  
G01 X-1.3857 Y2.0768  
G01 X-1.3807 Y2.0735  
G01 X-1.3765 Y2.0693  
G01 X-1.3732 Y2.0643  
G01 X-1.3716 Y2.0605  
G01 X-1.3705 Y2.0605  
G01 X-1.3723 Y2.0648  
G00 Z0.1000  
G00 X-1.4277 Y2.0352  
G01 Z-0.0070 F10    
G01 X-1.4243 Y2.0301  F20    
G01 X-1.4199 Y2.0257  
G01 X-1.4148 Y2.0223  
G01 X-1.4105 Y2.0205  
G01 X-1.4105 Y2.0216  
G01 X-1.4143 Y2.0232  
G01 X-1.4193 Y2.0265  
G01 X-1.4235 Y2.0307  
G01 X-1.4268 Y2.0357  
G01 X-1.4284 Y2.0395  
G01 X-1.4295 Y2.0395  
G01 X-1.4277 Y2.0352  
G00 Z0.1000  
G00 X-1.4268 Y2.0643  
G01 Z-0.0070 F10    
G01 X-1.4235 Y2.0693  F20    
G01 X-1.4193 Y2.0735  
G01 X-1.4143 Y2.0768  
G01 X-1.4105 Y2.0784  
G01 X-1.4105 Y2.0795  
G01 X-1.4148 Y2.0777  
G01 X-1.4199 Y2.0743  
G01 X-1.4243 Y2.0699  
G01 X-1.4277 Y2.0648  
G01 X-1.4295 Y2.0605  
G01 X-1.4284 Y2.0605  
G01 X-1.4268 Y2.0643  
G00 Z0.1000  
G00 X-1.3852 Y2.0223  
G01 Z-0.0070 F10    
G01 X-1.3801 Y2.0257  F20    
G01 X-1.3757 Y2.0301  
G01 X-1.3723 Y2.0352  
G01 X-1.3705 Y2.0395  
G01 X-1.3716 Y2.0395  
G01 X-1.3732 Y2.0357  
G01 X-1.3765 Y2.0307  
G01 X-1.3807 Y2.0265  
G01 X-1.3857 Y2.0232  
G01 X-1.3895 Y2.0216  
G01 X-1.3895 Y2.0205  
G01 X-1.3852 Y2.0223  
G00 Z0.1000  
G00 X-1.5723 Y1.4648  
G01 Z-0.0070 F10    
G01 X-1.5757 Y1.4699  F20    
G01 X-1.5801 Y1.4743  
G01 X-1.5852 Y1.4777  
G01 X-1.5895 Y1.4795  
G01 X-1.5895 Y1.4784  
G01 X-1.5857 Y1.4768  
G01 X-1.5807 Y1.4735  
G01 X-1.5765 Y1.4693  
G01 X-1.5732 Y1.4643  
G01 X-1.5716 Y1.4605  
G01 X-1.5705 Y1.4605  
G01 X-1.5723 Y1.4648  
G00 Z0.1000  
G00 X-1.6277 Y1.4352  
G01 Z-0.0070 F10    
G01 X-1.6243 Y1.4301  F20    
G01 X-1.6199 Y1.4257  
G01 X-1.6148 Y1.4223  
G01 X-1.6105 Y1.4205  
G01 X-1.6105 Y1.4216  
G01 X-1.6143 Y1.4232  
G01 X-1.6193 Y1.4265  
G01 X-1.6235 Y1.4307  
G01 X-1.6268 Y1.4357  
G01 X-1.6284 Y1.4395  
G01 X-1.6295 Y1.4395  
G01 X-1.6277 Y1.4352  
G00 Z0.1000  
G00 X-1.6268 Y1.4643  
G01 Z-0.0070 F10    
G01 X-1.6235 Y1.4693  F20    
G01 X-1.6193 Y1.4735  
G01 X-1.6143 Y1.4768  
G01 X-1.6105 Y1.4784  
G01 X-1.6105 Y1.4795  
G01 X-1.6148 Y1.4777  
G01 X-1.6199 Y1.4743  
G01 X-1.6243 Y1.4699  
G01 X-1.6277 Y1.4648  
G01 X-1.6295 Y1.4605  
G01 X-1.6284 Y1.4605  
G01 X-1.6268 Y1.4643  
G00 Z0.1000  
G00 X-1.5852 Y1.4223  
G01 Z-0.0070 F10    
G01 X-1.5801 Y1.4257  F20    
G01 X-1.5757 Y1.4301  
G01 X-1.5723 Y1.4352  
G01 X-1.5705 Y1.4395  
G01 X-1.5716 Y1.4395  
G01 X-1.5732 Y1.4357  
G01 X-1.5765 Y1.4307  
G01 X-1.5807 Y1.4265  
G01 X-1.5857 Y1.4232  
G01 X-1.5895 Y1.4216  
G01 X-1.5895 Y1.4205  
G01 X-1.5852 Y1.4223  
G00 Z0.1000  
G00 X-1.1302 Y1.4470  
G01 Z-0.0070 F10    
G01 X-1.1302 Y1.4530  F20    
G01 X-1.1291 Y1.4588  
G01 X-1.1268 Y1.4643  
G01 X-1.1235 Y1.4693  
G01 X-1.1193 Y1.4735  
G01 X-1.1143 Y1.4768  
G01 X-1.1088 Y1.4791  
G01 X-1.1030 Y1.4802  
G01 X-1.0970 Y1.4802  
G01 X-1.0912 Y1.4791  
G01 X-1.0857 Y1.4768  
G01 X-1.0807 Y1.4735  
G01 X-1.0765 Y1.4693  
G01 X-1.0732 Y1.4643  
G01 X-1.0709 Y1.4588  
G01 X-1.0698 Y1.4530  
G01 X-1.0698 Y1.4470  
G01 X-1.0709 Y1.4412  
G01 X-1.0732 Y1.4357  
G01 X-1.0755 Y1.4322  
G01 X-1.0755 Y1.3976  
G01 X-1.0764 Y1.3929  
G01 X-1.0783 Y1.3884  
G01 X-1.0810 Y1.3844  
G01 X-1.0844 Y1.3810  
G01 X-1.1790 Y1.2864  
G01 X-1.1824 Y1.2830  
G01 X-1.1864 Y1.2803  
G01 X-1.1909 Y1.2784  
G01 X-1.1956 Y1.2775  
G01 X-2.7379 Y1.2775  
G01 X-2.8344 Y1.1810  
G01 X-2.8384 Y1.1783  
G01 X-2.8429 Y1.1764  
G01 X-2.8476 Y1.1755  
G01 X-3.1899 Y1.1755  
G01 X-3.2608 Y1.1045  
G01 X-3.2589 Y1.1053  
G01 X-3.2530 Y1.1065  
G01 X-3.2470 Y1.1065  
G01 X-3.2411 Y1.1053  
G01 X-3.2356 Y1.1030  
G01 X-3.2306 Y1.0997  
G01 X-3.2263 Y1.0954  
G01 X-3.2230 Y1.0904  
G01 X-3.2207 Y1.0849  
G01 X-3.2195 Y1.0790  
G01 X-3.2195 Y1.0605  
G01 X-3.2185 Y1.0605  
G01 X-3.2185 Y1.0791  
G01 X-3.2197 Y1.0852  
G01 X-3.2221 Y1.0909  
G01 X-3.2255 Y1.0961  
G01 X-3.2299 Y1.1005  
G01 X-3.2351 Y1.1039  
G01 X-3.2406 Y1.1062  
G01 X-3.2411 Y1.1062  
G01 X-3.2418 Y1.1065  
G01 X-3.2426 Y1.1066  
G01 X-3.2432 Y1.1071  
G01 X-3.2439 Y1.1073  
G01 X-3.2444 Y1.1079  
G01 X-3.2450 Y1.1083  
G01 X-3.2455 Y1.1089  
G01 X-3.2460 Y1.1095  
G01 X-3.2463 Y1.1101  
G01 X-3.2467 Y1.1108  
G01 X-3.2468 Y1.1115  
G01 X-3.2471 Y1.1122  
G01 X-3.2471 Y1.1130  
G01 X-3.2473 Y1.1137  
G01 X-3.2471 Y1.1144  
G01 X-3.2471 Y1.1152  
G01 X-3.2468 Y1.1159  
G01 X-3.2467 Y1.1166  
G01 X-3.2463 Y1.1173  
G01 X-3.2460 Y1.1179  
G01 X-3.2455 Y1.1185  
G01 X-3.2450 Y1.1191  
G01 X-3.2444 Y1.1195  
G01 X-3.1906 Y1.1734  
G01 X-3.1878 Y1.1745  
G01 X-2.8449 Y1.1745  
G01 X-2.8356 Y1.1784  
G01 X-2.7386 Y1.2754  
G01 X-2.7358 Y1.2765  
G01 X-1.1929 Y1.2765  
G01 X-1.1836 Y1.2804  
G01 X-1.1764 Y1.2876  
G01 X-1.0856 Y1.3784  
G01 X-1.0784 Y1.3856  
G01 X-1.0745 Y1.3949  
G01 X-1.0745 Y1.4299  
G01 X-1.0688 Y1.4438  
G01 X-1.0688 Y1.4562  
G01 X-1.0735 Y1.4677  
G01 X-1.0823 Y1.4765  
G01 X-1.0938 Y1.4812  
G01 X-1.1062 Y1.4812  
G01 X-1.1177 Y1.4765  
G01 X-1.1265 Y1.4677  
G01 X-1.1312 Y1.4562  
G01 X-1.1312 Y1.4438  
G01 X-1.1255 Y1.4299  
G01 X-1.1255 Y1.4122  
G01 X-1.1266 Y1.4094  
G01 X-1.1288 Y1.4073  
G01 X-1.2074 Y1.3286  
G01 X-1.2102 Y1.3275  
G01 X-2.7531 Y1.3275  
G01 X-2.7624 Y1.3236  
G01 X-2.7696 Y1.3164  
G01 X-2.8594 Y1.2266  
G01 X-2.8622 Y1.2255  
G01 X-3.2051 Y1.2255  
G01 X-3.2144 Y1.2216  
G01 X-3.2216 Y1.2144  
G01 X-3.4216 Y1.0144  
G01 X-3.4255 Y1.0051  
G01 X-3.4255 Y0.9207  
G01 X-3.4266 Y0.9179  
G01 X-3.4288 Y0.9158  
G01 X-3.4315 Y0.9130  
G01 X-3.4315 Y0.8870  
G01 X-3.4266 Y0.8821  
G01 X-3.4255 Y0.8793  
G01 X-3.4255 Y0.7949  
G01 X-3.4216 Y0.7856  
G01 X-3.4055 Y0.7695  
G01 X-3.4044 Y0.7667  
G01 X-3.4044 Y0.7637  
G01 X-3.4050 Y0.7623  
G01 X-3.4055 Y0.7610  
G01 X-3.4075 Y0.7563  
G01 X-3.4075 Y0.7437  
G01 X-3.4027 Y0.7322  
G01 X-3.3938 Y0.7233  
G01 X-3.3823 Y0.7185  
G01 X-3.3562 Y0.7185  
G01 X-3.3534 Y0.7174  
G01 X-3.3513 Y0.7152  
G01 X-3.2766 Y0.6406  
G01 X-3.2755 Y0.6378  
G01 X-3.2755 Y0.5152  
G01 X-3.2766 Y0.5124  
G01 X-3.2788 Y0.5103  
G01 X-3.3742 Y0.4149  
G01 X-3.3769 Y0.4137  
G01 X-3.4096 Y0.4137  
G01 X-3.4387 Y0.3846  
G01 X-3.4387 Y0.3434  
G01 X-3.4096 Y0.3142  
G01 X-3.3684 Y0.3142  
G01 X-3.3392 Y0.3434  
G01 X-3.3392 Y0.3761  
G01 X-3.3381 Y0.3788  
G01 X-3.3360 Y0.3809  
G01 X-3.2356 Y0.4814  
G01 X-3.2284 Y0.4886  
G01 X-3.2245 Y0.4979  
G01 X-3.2245 Y0.6551  
G01 X-3.2284 Y0.6644  
G01 X-3.2945 Y0.7305  
G01 X-3.2956 Y0.7333  
G01 X-3.2956 Y0.7363  
G01 X-3.2950 Y0.7377  
G01 X-3.2945 Y0.7390  
G01 X-3.2925 Y0.7437  
G01 X-3.2925 Y0.7563  
G01 X-3.2973 Y0.7678  
G01 X-3.3062 Y0.7767  
G01 X-3.3177 Y0.7815  
G01 X-3.3438 Y0.7815  
G01 X-3.3466 Y0.7826  
G01 X-3.3487 Y0.7848  
G01 X-3.3734 Y0.8094  
G01 X-3.3745 Y0.8122  
G01 X-3.3745 Y0.8793  
G01 X-3.3734 Y0.8821  
G01 X-3.3712 Y0.8842  
G01 X-3.3685 Y0.8870  
G01 X-3.3685 Y0.9130  
G01 X-3.3734 Y0.9179  
G01 X-3.3745 Y0.9207  
G01 X-3.3745 Y0.9878  
G01 X-3.3734 Y0.9906  
G01 X-3.3727 Y0.9912  
G01 X-3.2932 Y1.0707  
G01 X-3.2905 Y1.0718  
G01 X-3.2875 Y1.0718  
G01 X-3.2848 Y1.0707  
G01 X-3.2826 Y1.0686  
G01 X-3.2815 Y1.0658  
G01 X-3.2815 Y1.0605  
G01 X-3.2805 Y1.0605  
G01 X-3.2805 Y1.0790  
G01 X-3.2793 Y1.0849  
G01 X-3.2785 Y1.0868  
G01 X-3.3755 Y0.9899  
G01 X-3.3755 Y0.9186  
G01 X-3.3695 Y0.9126  
G01 X-3.3695 Y0.8874  
G01 X-3.3755 Y0.8814  
G01 X-3.3755 Y0.8101  
G01 X-3.3459 Y0.7805  
G01 X-3.3210 Y0.7805  
G01 X-3.3151 Y0.7793  
G01 X-3.3096 Y0.7770  
G01 X-3.3046 Y0.7737  
G01 X-3.3003 Y0.7694  
G01 X-3.2970 Y0.7644  
G01 X-3.2947 Y0.7589  
G01 X-3.2935 Y0.7530  
G01 X-3.2935 Y0.7470  
G01 X-3.2947 Y0.7411  
G01 X-3.2970 Y0.7356  
G01 X-3.2985 Y0.7332  
G01 X-3.2310 Y0.6656  
G01 X-3.2283 Y0.6616  
G01 X-3.2264 Y0.6571  
G01 X-3.2255 Y0.6524  
G01 X-3.2255 Y0.5006  
G01 X-3.2264 Y0.4959  
G01 X-3.2283 Y0.4914  
G01 X-3.2310 Y0.4874  
G01 X-3.2344 Y0.4840  
G01 X-3.3403 Y0.3781  
G01 X-3.3403 Y0.3438  
G01 X-3.3688 Y0.3152  
G01 X-3.4092 Y0.3152  
G01 X-3.4377 Y0.3438  
G01 X-3.4377 Y0.3842  
G01 X-3.4092 Y0.4127  
G01 X-3.3749 Y0.4127  
G01 X-3.2745 Y0.5131  
G01 X-3.2745 Y0.6399  
G01 X-3.3541 Y0.7195  
G01 X-3.3790 Y0.7195  
G01 X-3.3849 Y0.7207  
G01 X-3.3904 Y0.7230  
G01 X-3.3954 Y0.7263  
G01 X-3.3997 Y0.7306  
G01 X-3.4030 Y0.7356  
G01 X-3.4053 Y0.7411  
G01 X-3.4065 Y0.7470  
G01 X-3.4065 Y0.7530  
G01 X-3.4053 Y0.7589  
G01 X-3.4030 Y0.7644  
G01 X-3.4015 Y0.7668  
G01 X-3.4156 Y0.7810  
G01 X-3.4190 Y0.7844  
G01 X-3.4217 Y0.7884  
G01 X-3.4236 Y0.7929  
G01 X-3.4245 Y0.7976  
G01 X-3.4245 Y0.8814  
G01 X-3.4305 Y0.8874  
G01 X-3.4305 Y0.9126  
G01 X-3.4245 Y0.9186  
G01 X-3.4245 Y1.0024  
G01 X-3.4236 Y1.0071  
G01 X-3.4217 Y1.0116  
G01 X-3.4190 Y1.0156  
G01 X-3.2190 Y1.2156  
G01 X-3.2156 Y1.2190  
G01 X-3.2116 Y1.2217  
G01 X-3.2071 Y1.2236  
G01 X-3.2024 Y1.2245  
G01 X-2.8601 Y1.2245  
G01 X-2.7670 Y1.3176  
G01 X-2.7636 Y1.3210  
G01 X-2.7596 Y1.3237  
G01 X-2.7551 Y1.3256  
G01 X-2.7504 Y1.3265  
G01 X-1.2081 Y1.3265  
G01 X-1.1245 Y1.4101  
G01 X-1.1245 Y1.4322  
G01 X-1.1268 Y1.4357  
G01 X-1.1291 Y1.4412  
G01 X-1.1302 Y1.4470  
G00 Z0.1000  
G00 X-3.1874 Y0.1532  
G01 Z-0.0070 F10    
G01 X-3.1582 Y0.1824  F20    
G01 X-3.1582 Y0.2236  
G01 X-3.1874 Y0.2527  
G01 X-3.2286 Y0.2527  
G01 X-3.2577 Y0.2236  
G01 X-3.2577 Y0.1824  
G01 X-3.2286 Y0.1532  
G01 X-3.1874 Y0.1532  
G00 Z0.1000  
G00 X-3.2567 Y0.1828  
G01 Z-0.0070 F10    
G01 X-3.2567 Y0.2232  F20    
G01 X-3.2282 Y0.2517  
G01 X-3.1878 Y0.2517  
G01 X-3.1593 Y0.2232  
G01 X-3.1593 Y0.1828  
G01 X-3.1878 Y0.1542  
G01 X-3.2282 Y0.1542  
G01 X-3.2567 Y0.1828  
G00 Z0.1000  
G00 X-2.5874 Y0.1532  
G01 Z-0.0070 F10    
G01 X-2.5582 Y0.1824  F20    
G01 X-2.5582 Y0.2236  
G01 X-2.5874 Y0.2527  
G01 X-2.6286 Y0.2527  
G01 X-2.6577 Y0.2236  
G01 X-2.6577 Y0.1824  
G01 X-2.6286 Y0.1532  
G01 X-2.5874 Y0.1532  
G00 Z0.1000  
G00 X-2.6567 Y0.1828  
G01 Z-0.0070 F10    
G01 X-2.6567 Y0.2232  F20    
G01 X-2.6282 Y0.2517  
G01 X-2.5878 Y0.2517  
G01 X-2.5593 Y0.2232  
G01 X-2.5593 Y0.1828  
G01 X-2.5878 Y0.1542  
G01 X-2.6282 Y0.1542  
G01 X-2.6567 Y0.1828  
G00 Z0.1000  
G00 X-1.9874 Y0.1532  
G01 Z-0.0070 F10    
G01 X-1.9582 Y0.1824  F20    
G01 X-1.9582 Y0.2236  
G01 X-1.9874 Y0.2527  
G01 X-2.0286 Y0.2527  
G01 X-2.0577 Y0.2236  
G01 X-2.0577 Y0.1824  
G01 X-2.0286 Y0.1532  
G01 X-1.9874 Y0.1532  
G00 Z0.1000  
G00 X-2.0567 Y0.1828  
G01 Z-0.0070 F10    
G01 X-2.0567 Y0.2232  F20    
G01 X-2.0282 Y0.2517  
G01 X-1.9878 Y0.2517  
G01 X-1.9592 Y0.2232  
G01 X-1.9592 Y0.1828  
G01 X-1.9878 Y0.1542  
G01 X-2.0282 Y0.1542  
G01 X-2.0567 Y0.1828  
G00 Z0.1000  
G00 X-1.3874 Y0.1532  
G01 Z-0.0070 F10    
G01 X-1.3582 Y0.1824  F20    
G01 X-1.3582 Y0.2236  
G01 X-1.3874 Y0.2527  
G01 X-1.4286 Y0.2527  
G01 X-1.4577 Y0.2236  
G01 X-1.4577 Y0.1824  
G01 X-1.4286 Y0.1532  
G01 X-1.3874 Y0.1532  
G00 Z0.1000  
G00 X-1.4567 Y0.1828  
G01 Z-0.0070 F10    
G01 X-1.4567 Y0.2232  F20    
G01 X-1.4282 Y0.2517  
G01 X-1.3878 Y0.2517  
G01 X-1.3593 Y0.2232  
G01 X-1.3593 Y0.1828  
G01 X-1.3878 Y0.1542  
G01 X-1.4282 Y0.1542  
G01 X-1.4567 Y0.1828  
G00 Z0.1000  
G00 X-0.9684 Y0.3142  
G01 Z-0.0070 F10    
G01 X-0.9392 Y0.3434  F20    
G01 X-0.9392 Y0.3761  
G01 X-0.9381 Y0.3788  
G01 X-0.9360 Y0.3809  
G01 X-0.8284 Y0.4886  
G01 X-0.8245 Y0.4979  
G01 X-0.8245 Y0.6551  
G01 X-0.8284 Y0.6644  
G01 X-0.8945 Y0.7305  
G01 X-0.8956 Y0.7333  
G01 X-0.8956 Y0.7363  
G01 X-0.8949 Y0.7379  
G01 X-0.8945 Y0.7390  
G01 X-0.8925 Y0.7437  
G01 X-0.8925 Y0.7563  
G01 X-0.8973 Y0.7678  
G01 X-0.9062 Y0.7767  
G01 X-0.9177 Y0.7815  
G01 X-0.9438 Y0.7815  
G01 X-0.9466 Y0.7826  
G01 X-0.9487 Y0.7848  
G01 X-0.9734 Y0.8094  
G01 X-0.9745 Y0.8122  
G01 X-0.9745 Y0.8793  
G01 X-0.9734 Y0.8821  
G01 X-0.9712 Y0.8842  
G01 X-0.9685 Y0.8870  
G01 X-0.9685 Y0.9130  
G01 X-0.9712 Y0.9158  
G01 X-0.9732 Y0.9178  
G01 X-0.9734 Y0.9179  
G01 X-0.9740 Y0.9195  
G01 X-0.9745 Y0.9207  
G01 X-0.9745 Y0.9878  
G01 X-0.9734 Y0.9906  
G01 X-0.6856 Y1.2784  
G01 X-0.6784 Y1.2856  
G01 X-0.6745 Y1.2949  
G01 X-0.6745 Y1.4299  
G01 X-0.6688 Y1.4438  
G01 X-0.6688 Y1.4562  
G01 X-0.6735 Y1.4677  
G01 X-0.6823 Y1.4765  
G01 X-0.6938 Y1.4812  
G01 X-0.7062 Y1.4812  
G01 X-0.7177 Y1.4765  
G01 X-0.7265 Y1.4677  
G01 X-0.7312 Y1.4562  
G01 X-0.7312 Y1.4438  
G01 X-0.7255 Y1.4299  
G01 X-0.7255 Y1.3122  
G01 X-0.7266 Y1.3094  
G01 X-0.7288 Y1.3073  
G01 X-1.0144 Y1.0216  
G01 X-1.0216 Y1.0144  
G01 X-1.0255 Y1.0051  
G01 X-1.0255 Y0.9207  
G01 X-1.0260 Y0.9196  
G01 X-1.0266 Y0.9179  
G01 X-1.0288 Y0.9158  
G01 X-1.0315 Y0.9130  
G01 X-1.0315 Y0.8870  
G01 X-1.0266 Y0.8821  
G01 X-1.0255 Y0.8793  
G01 X-1.0255 Y0.7949  
G01 X-1.0216 Y0.7856  
G01 X-1.0144 Y0.7784  
G01 X-1.0123 Y0.7763  
G01 X-1.0077 Y0.7716  
G01 X-1.0055 Y0.7695  
G01 X-1.0044 Y0.7667  
G01 X-1.0044 Y0.7637  
G01 X-1.0075 Y0.7563  
G01 X-1.0075 Y0.7437  
G01 X-1.0027 Y0.7322  
G01 X-0.9938 Y0.7233  
G01 X-0.9823 Y0.7185  
G01 X-0.9562 Y0.7185  
G01 X-0.9534 Y0.7174  
G01 X-0.9513 Y0.7152  
G01 X-0.8766 Y0.6406  
G01 X-0.8755 Y0.6378  
G01 X-0.8755 Y0.5152  
G01 X-0.8766 Y0.5124  
G01 X-0.8788 Y0.5103  
G01 X-0.9742 Y0.4149  
G01 X-0.9769 Y0.4137  
G01 X-1.0096 Y0.4137  
G01 X-1.0387 Y0.3846  
G01 X-1.0387 Y0.3434  
G01 X-1.0096 Y0.3142  
G01 X-0.9684 Y0.3142  
G00 Z0.1000  
G00 X-0.9210 Y0.7805  
G01 Z-0.0070 F10    
G01 X-0.9151 Y0.7793  F20    
G01 X-0.9096 Y0.7770  
G01 X-0.9046 Y0.7737  
G01 X-0.9003 Y0.7694  
G01 X-0.8970 Y0.7644  
G01 X-0.8947 Y0.7589  
G01 X-0.8935 Y0.7530  
G01 X-0.8935 Y0.7470  
G01 X-0.8947 Y0.7411  
G01 X-0.8970 Y0.7356  
G01 X-0.8985 Y0.7332  
G01 X-0.8310 Y0.6656  
G01 X-0.8283 Y0.6616  
G01 X-0.8264 Y0.6571  
G01 X-0.8255 Y0.6524  
G01 X-0.8255 Y0.5006  
G01 X-0.8264 Y0.4959  
G01 X-0.8283 Y0.4914  
G01 X-0.8310 Y0.4874  
G01 X-0.8344 Y0.4840  
G01 X-0.9403 Y0.3781  
G01 X-0.9403 Y0.3438  
G01 X-0.9688 Y0.3152  
G01 X-1.0092 Y0.3152  
G01 X-1.0377 Y0.3438  
G01 X-1.0377 Y0.3842  
G01 X-1.0092 Y0.4127  
G01 X-0.9749 Y0.4127  
G01 X-0.8745 Y0.5131  
G01 X-0.8745 Y0.6399  
G01 X-0.9541 Y0.7195  
G01 X-0.9790 Y0.7195  
G01 X-0.9849 Y0.7207  
G01 X-0.9904 Y0.7230  
G01 X-0.9954 Y0.7263  
G01 X-0.9997 Y0.7306  
G01 X-1.0030 Y0.7356  
G01 X-1.0053 Y0.7411  
G01 X-1.0065 Y0.7470  
G01 X-1.0065 Y0.7530  
G01 X-1.0053 Y0.7589  
G01 X-1.0030 Y0.7644  
G01 X-1.0015 Y0.7668  
G01 X-1.0156 Y0.7810  
G01 X-1.0190 Y0.7844  
G01 X-1.0217 Y0.7884  
G01 X-1.0236 Y0.7929  
G01 X-1.0245 Y0.7976  
G01 X-1.0245 Y0.8814  
G01 X-1.0305 Y0.8874  
G01 X-1.0305 Y0.9126  
G01 X-1.0245 Y0.9186  
G01 X-1.0245 Y1.0024  
G01 X-1.0236 Y1.0071  
G01 X-1.0217 Y1.0116  
G01 X-1.0190 Y1.0156  
G01 X-1.0156 Y1.0190  
G01 X-0.7245 Y1.3101  
G01 X-0.7245 Y1.4322  
G01 X-0.7268 Y1.4357  
G01 X-0.7291 Y1.4412  
G01 X-0.7302 Y1.4470  
G01 X-0.7302 Y1.4530  
G01 X-0.7291 Y1.4588  
G01 X-0.7268 Y1.4643  
G01 X-0.7235 Y1.4693  
G01 X-0.7193 Y1.4735  
G01 X-0.7143 Y1.4768  
G01 X-0.7088 Y1.4791  
G01 X-0.7030 Y1.4802  
G01 X-0.6970 Y1.4802  
G01 X-0.6912 Y1.4791  
G01 X-0.6857 Y1.4768  
G01 X-0.6807 Y1.4735  
G01 X-0.6765 Y1.4693  
G01 X-0.6732 Y1.4643  
G01 X-0.6709 Y1.4588  
G01 X-0.6698 Y1.4530  
G01 X-0.6698 Y1.4470  
G01 X-0.6709 Y1.4412  
G01 X-0.6732 Y1.4357  
G01 X-0.6755 Y1.4322  
G01 X-0.6755 Y1.2976  
G01 X-0.6764 Y1.2929  
G01 X-0.6783 Y1.2884  
G01 X-0.6810 Y1.2844  
G01 X-0.6844 Y1.2810  
G01 X-0.9755 Y0.9899  
G01 X-0.9755 Y0.9186  
G01 X-0.9695 Y0.9126  
G01 X-0.9695 Y0.8874  
G01 X-0.9755 Y0.8814  
G01 X-0.9755 Y0.8101  
G01 X-0.9459 Y0.7805  
G01 X-0.9210 Y0.7805  
G00 Z0.1000  
G00 X-0.9514 Y0.5762  
G01 Z-0.0070 F10    
G01 X-0.9222 Y0.6054  F20    
G01 X-0.9222 Y0.6466  
G01 X-0.9514 Y0.6757  
G01 X-0.9926 Y0.6757  
G01 X-1.0217 Y0.6466  
G01 X-1.0217 Y0.6054  
G01 X-0.9926 Y0.5762  
G01 X-0.9514 Y0.5762  
G00 Z0.1000  
G00 X-1.0207 Y0.6058  
G01 Z-0.0070 F10    
G01 X-1.0207 Y0.6462  F20    
G01 X-0.9922 Y0.6747  
G01 X-0.9518 Y0.6747  
G01 X-0.9233 Y0.6462  
G01 X-0.9233 Y0.6058  
G01 X-0.9518 Y0.5773  
G01 X-0.9922 Y0.5773  
G01 X-1.0207 Y0.6058  
G00 Z0.1000  
G00 X-3.8264 Y1.1582  
G01 Z-0.0070 F10    
G01 X-3.7972 Y1.1874  F20    
G01 X-3.7972 Y1.2286  
G01 X-3.8264 Y1.2577  
G01 X-3.8676 Y1.2577  
G01 X-3.8967 Y1.2286  
G01 X-3.8967 Y1.1874  
G01 X-3.8676 Y1.1582  
G01 X-3.8264 Y1.1582  
G00 Z0.1000  
G00 X-3.8957 Y1.1878  
G01 Z-0.0070 F10    
G01 X-3.8957 Y1.2282  F20    
G01 X-3.8672 Y1.2567  
G01 X-3.8268 Y1.2567  
G01 X-3.7982 Y1.2282  
G01 X-3.7982 Y1.1878  
G01 X-3.8268 Y1.1592  
G01 X-3.8672 Y1.1592  
G01 X-3.8957 Y1.1878  
G00 Z0.1000  
G00 X-3.8264 Y1.7582  
G01 Z-0.0070 F10    
G01 X-3.7972 Y1.7874  F20    
G01 X-3.7972 Y1.8286  
G01 X-3.8264 Y1.8577  
G01 X-3.8676 Y1.8577  
G01 X-3.8967 Y1.8286  
G01 X-3.8967 Y1.7874  
G01 X-3.8676 Y1.7582  
G01 X-3.8264 Y1.7582  
G00 Z0.1000  
G00 X-3.8957 Y1.7878  
G01 Z-0.0070 F10    
G01 X-3.8957 Y1.8282  F20    
G01 X-3.8672 Y1.8567  
G01 X-3.8268 Y1.8567  
G01 X-3.7982 Y1.8282  
G01 X-3.7982 Y1.7878  
G01 X-3.8268 Y1.7592  
G01 X-3.8672 Y1.7592  
G01 X-3.8957 Y1.7878  
G00 Z0.1000  
G00 X-3.1130 Y1.0315  
G01 Z-0.0070 F10    
G01 X-3.1315 Y1.0130  F20    
G01 X-3.1315 Y1.0105  
G01 X-3.1305 Y1.0105  
G01 X-3.1305 Y1.0126  
G01 X-3.1126 Y1.0305  
G01 X-3.1105 Y1.0305  
G01 X-3.1105 Y1.0315  
G01 X-3.1130 Y1.0315  
G00 Z0.1000  
G00 X-3.0685 Y0.9895  
G01 Z-0.0070 F10    
G01 X-3.0695 Y0.9895  F20    
G01 X-3.0695 Y0.9874  
G01 X-3.0874 Y0.9695  
G01 X-3.0895 Y0.9695  
G01 X-3.0895 Y0.9685  
G01 X-3.0870 Y0.9685  
G01 X-3.0685 Y0.9870  
G01 X-3.0685 Y0.9895  
G00 Z0.1000  
G00 X-3.0685 Y1.0130  
G01 Z-0.0070 F10    
G01 X-3.0870 Y1.0315  F20    
G01 X-3.0895 Y1.0315  
G01 X-3.0895 Y1.0305  
G01 X-3.0874 Y1.0305  
G01 X-3.0695 Y1.0126  
G01 X-3.0695 Y1.0105  
G01 X-3.0685 Y1.0105  
G01 X-3.0685 Y1.0130  
G00 Z0.1000  
G00 X-3.1315 Y0.9870  
G01 Z-0.0070 F10    
G01 X-3.1130 Y0.9685  F20    
G01 X-3.1105 Y0.9685  
G01 X-3.1105 Y0.9695  
G01 X-3.1126 Y0.9695  
G01 X-3.1305 Y0.9874  
G01 X-3.1305 Y0.9895  
G01 X-3.1315 Y0.9895  
G01 X-3.1315 Y0.9870  
G00 Z0.1000  
G00 X-0.5961 Y0.7649  
G01 Z-0.0070 F10    
G01 X-0.5995 Y0.7701  F20    
G01 X-0.6039 Y0.7745  
G01 X-0.6091 Y0.7779  
G01 X-0.6148 Y0.7803  
G01 X-0.6209 Y0.7815  
G01 X-0.6395 Y0.7815  
G01 X-0.6395 Y0.7805  
G01 X-0.6210 Y0.7805  
G01 X-0.6151 Y0.7793  
G01 X-0.6096 Y0.7770  
G01 X-0.6046 Y0.7737  
G01 X-0.6003 Y0.7694  
G01 X-0.5970 Y0.7644  
G01 X-0.5953 Y0.7605  
G01 X-0.5943 Y0.7605  
G01 X-0.5961 Y0.7649  
G00 Z0.1000  
G00 X-0.7005 Y0.7299  
G01 Z-0.0070 F10    
G01 X-0.6961 Y0.7255  F20    
G01 X-0.6909 Y0.7221  
G01 X-0.6852 Y0.7197  
G01 X-0.6791 Y0.7185  
G01 X-0.6605 Y0.7185  
G01 X-0.6605 Y0.7195  
G01 X-0.6790 Y0.7195  
G01 X-0.6849 Y0.7207  
G01 X-0.6904 Y0.7230  
G01 X-0.6954 Y0.7263  
G01 X-0.6997 Y0.7306  
G01 X-0.7030 Y0.7356  
G01 X-0.7047 Y0.7395  
G01 X-0.7057 Y0.7395  
G01 X-0.7039 Y0.7351  
G01 X-0.7005 Y0.7299  
G00 Z0.1000  
G00 X-0.6209 Y0.7185  
G01 Z-0.0070 F10    
G01 X-0.6148 Y0.7197  F20    
G01 X-0.6091 Y0.7221  
G01 X-0.6039 Y0.7255  
G01 X-0.5995 Y0.7299  
G01 X-0.5961 Y0.7351  
G01 X-0.5943 Y0.7395  
G01 X-0.5953 Y0.7395  
G01 X-0.5970 Y0.7356  
G01 X-0.6003 Y0.7306  
G01 X-0.6046 Y0.7263  
G01 X-0.6096 Y0.7230  
G01 X-0.6151 Y0.7207  
G01 X-0.6210 Y0.7195  
G01 X-0.6395 Y0.7195  
G01 X-0.6395 Y0.7185  
G01 X-0.6209 Y0.7185  
G00 Z0.1000  
G00 X-0.6791 Y0.7815  
G01 Z-0.0070 F10    
G01 X-0.6852 Y0.7803  F20    
G01 X-0.6909 Y0.7779  
G01 X-0.6961 Y0.7745  
G01 X-0.7005 Y0.7701  
G01 X-0.7039 Y0.7649  
G01 X-0.7057 Y0.7605  
G01 X-0.7047 Y0.7605  
G01 X-0.7030 Y0.7644  
G01 X-0.6997 Y0.7694  
G01 X-0.6954 Y0.7737  
G01 X-0.6904 Y0.7770  
G01 X-0.6849 Y0.7793  
G01 X-0.6790 Y0.7805  
G01 X-0.6605 Y0.7805  
G01 X-0.6605 Y0.7815  
G01 X-0.6791 Y0.7815  
G00 Z0.1000  
G00 X-2.9961 Y0.7649  
G01 Z-0.0070 F10    
G01 X-2.9995 Y0.7701  F20    
G01 X-3.0039 Y0.7745  
G01 X-3.0091 Y0.7779  
G01 X-3.0148 Y0.7803  
G01 X-3.0209 Y0.7815  
G01 X-3.0395 Y0.7815  
G01 X-3.0395 Y0.7805  
G01 X-3.0210 Y0.7805  
G01 X-3.0151 Y0.7793  
G01 X-3.0096 Y0.7770  
G01 X-3.0046 Y0.7737  
G01 X-3.0003 Y0.7694  
G01 X-2.9970 Y0.7644  
G01 X-2.9953 Y0.7605  
G01 X-2.9943 Y0.7605  
G01 X-2.9961 Y0.7649  
G00 Z0.1000  
G00 X-3.1005 Y0.7299  
G01 Z-0.0070 F10    
G01 X-3.0961 Y0.7255  F20    
G01 X-3.0909 Y0.7221  
G01 X-3.0852 Y0.7197  
G01 X-3.0791 Y0.7185  
G01 X-3.0605 Y0.7185  
G01 X-3.0605 Y0.7195  
G01 X-3.0790 Y0.7195  
G01 X-3.0849 Y0.7207  
G01 X-3.0904 Y0.7230  
G01 X-3.0954 Y0.7263  
G01 X-3.0997 Y0.7306  
G01 X-3.1030 Y0.7356  
G01 X-3.1047 Y0.7395  
G01 X-3.1057 Y0.7395  
G01 X-3.1039 Y0.7351  
G01 X-3.1005 Y0.7299  
G00 Z0.1000  
G00 X-3.0209 Y0.7185  
G01 Z-0.0070 F10    
G01 X-3.0148 Y0.7197  F20    
G01 X-3.0091 Y0.7221  
G01 X-3.0039 Y0.7255  
G01 X-2.9995 Y0.7299  
G01 X-2.9961 Y0.7351  
G01 X-2.9943 Y0.7395  
G01 X-2.9953 Y0.7395  
G01 X-2.9970 Y0.7356  
G01 X-3.0003 Y0.7306  
G01 X-3.0046 Y0.7263  
G01 X-3.0096 Y0.7230  
G01 X-3.0151 Y0.7207  
G01 X-3.0210 Y0.7195  
G01 X-3.0395 Y0.7195  
G01 X-3.0395 Y0.7185  
G01 X-3.0209 Y0.7185  
G00 Z0.1000  
G00 X-3.0791 Y0.7815  
G01 Z-0.0070 F10    
G01 X-3.0852 Y0.7803  F20    
G01 X-3.0909 Y0.7779  
G01 X-3.0961 Y0.7745  
G01 X-3.1005 Y0.7701  
G01 X-3.1039 Y0.7649  
G01 X-3.1057 Y0.7605  
G01 X-3.1047 Y0.7605  
G01 X-3.1030 Y0.7644  
G01 X-3.0997 Y0.7694  
G01 X-3.0954 Y0.7737  
G01 X-3.0904 Y0.7770  
G01 X-3.0849 Y0.7793  
G01 X-3.0790 Y0.7805  
G01 X-3.0605 Y0.7805  
G01 X-3.0605 Y0.7815  
G01 X-3.0791 Y0.7815  
G00 Z0.1000  
G00 X-1.6177 Y2.0235  
G01 Z-0.0070 F10    
G01 X-1.6062 Y2.0188  F20    
G01 X-1.5938 Y2.0188  
G01 X-1.5823 Y2.0235  
G01 X-1.5735 Y2.0323  
G01 X-1.5688 Y2.0438  
G01 X-1.5688 Y2.0562  
G01 X-1.5735 Y2.0677  
G01 X-1.5823 Y2.0765  
G01 X-1.5938 Y2.0812  
G01 X-1.6062 Y2.0812  
G01 X-1.6177 Y2.0765  
G01 X-1.6265 Y2.0677  
G01 X-1.6312 Y2.0562  
G01 X-1.6312 Y2.0438  
G01 X-1.6265 Y2.0323  
G01 X-1.6177 Y2.0235  
G00 Z0.1000  
G00 X-1.6302 Y2.0470  
G01 Z-0.0070 F10    
G01 X-1.6302 Y2.0530  F20    
G01 X-1.6291 Y2.0588  
G01 X-1.6268 Y2.0643  
G01 X-1.6235 Y2.0693  
G01 X-1.6193 Y2.0735  
G01 X-1.6143 Y2.0768  
G01 X-1.6088 Y2.0791  
G01 X-1.6030 Y2.0802  
G01 X-1.5970 Y2.0802  
G01 X-1.5912 Y2.0791  
G01 X-1.5857 Y2.0768  
G01 X-1.5807 Y2.0735  
G01 X-1.5765 Y2.0693  
G01 X-1.5732 Y2.0643  
G01 X-1.5709 Y2.0588  
G01 X-1.5698 Y2.0530  
G01 X-1.5698 Y2.0470  
G01 X-1.5709 Y2.0412  
G01 X-1.5732 Y2.0357  
G01 X-1.5765 Y2.0307  
G01 X-1.5807 Y2.0265  
G01 X-1.5857 Y2.0232  
G01 X-1.5912 Y2.0209  
G01 X-1.5970 Y2.0198  
G01 X-1.6030 Y2.0198  
G01 X-1.6088 Y2.0209  
G01 X-1.6143 Y2.0232  
G01 X-1.6193 Y2.0265  
G01 X-1.6235 Y2.0307  
G01 X-1.6268 Y2.0357  
G01 X-1.6291 Y2.0412  
G01 X-1.6302 Y2.0470  
G00 Z0.1000  
G00 X-1.7601 Y2.1098  
G01 Z-0.0070 F10    
G01 X-1.7860 Y2.1205  F20    
G01 X-1.8140 Y2.1205  
G01 X-1.8399 Y2.1098  
G01 X-1.8598 Y2.0899  
G01 X-1.8705 Y2.0640  
G01 X-1.8705 Y2.0360  
G01 X-1.8598 Y2.0101  
G01 X-1.8399 Y1.9902  
G01 X-1.8140 Y1.9795  
G01 X-1.7860 Y1.9795  
G01 X-1.7601 Y1.9902  
G01 X-1.7402 Y2.0101  
G01 X-1.7346 Y2.0238  
G01 X-1.7343 Y2.0243  
G01 X-1.7334 Y2.0265  
G01 X-1.7313 Y2.0286  
G01 X-1.7297 Y2.0293  
G01 X-1.7286 Y2.0298  
G01 X-1.7256 Y2.0298  
G01 X-1.7245 Y2.0293  
G01 X-1.7228 Y2.0286  
G01 X-1.7207 Y2.0265  
G01 X-1.7177 Y2.0235  
G01 X-1.7062 Y2.0188  
G01 X-1.6938 Y2.0188  
G01 X-1.6823 Y2.0235  
G01 X-1.6735 Y2.0323  
G01 X-1.6688 Y2.0438  
G01 X-1.6688 Y2.0562  
G01 X-1.6735 Y2.0677  
G01 X-1.6823 Y2.0765  
G01 X-1.6938 Y2.0812  
G01 X-1.7062 Y2.0812  
G01 X-1.7177 Y2.0765  
G01 X-1.7207 Y2.0735  
G01 X-1.7227 Y2.0715  
G01 X-1.7228 Y2.0714  
G01 X-1.7244 Y2.0707  
G01 X-1.7256 Y2.0702  
G01 X-1.7286 Y2.0702  
G01 X-1.7297 Y2.0707  
G01 X-1.7313 Y2.0714  
G01 X-1.7334 Y2.0735  
G01 X-1.7343 Y2.0756  
G01 X-1.7346 Y2.0762  
G01 X-1.7402 Y2.0899  
G01 X-1.7601 Y2.1098  
G00 Z0.1000  
G00 X-1.7302 Y2.0470  
G01 Z-0.0070 F10    
G01 X-1.7302 Y2.0530  F20    
G01 X-1.7291 Y2.0588  
G01 X-1.7268 Y2.0643  
G01 X-1.7235 Y2.0693  
G01 X-1.7193 Y2.0735  
G01 X-1.7143 Y2.0768  
G01 X-1.7088 Y2.0791  
G01 X-1.7030 Y2.0802  
G01 X-1.6970 Y2.0802  
G01 X-1.6912 Y2.0791  
G01 X-1.6857 Y2.0768  
G01 X-1.6807 Y2.0735  
G01 X-1.6765 Y2.0693  
G01 X-1.6732 Y2.0643  
G01 X-1.6709 Y2.0588  
G01 X-1.6698 Y2.0530  
G01 X-1.6698 Y2.0470  
G01 X-1.6709 Y2.0412  
G01 X-1.6732 Y2.0357  
G01 X-1.6765 Y2.0307  
G01 X-1.6807 Y2.0265  
G01 X-1.6857 Y2.0232  
G01 X-1.6912 Y2.0209  
G01 X-1.6970 Y2.0198  
G01 X-1.7030 Y2.0198  
G01 X-1.7088 Y2.0209  
G01 X-1.7143 Y2.0232  
G01 X-1.7193 Y2.0265  
G01 X-1.7235 Y2.0307  
G01 X-1.7268 Y2.0357  
G01 X-1.7291 Y2.0412  
G01 X-1.7302 Y2.0470  
G00 Z0.1000  
G00 X-1.7601 Y1.5098  
G01 Z-0.0070 F10    
G01 X-1.7860 Y1.5205  F20    
G01 X-1.8140 Y1.5205  
G01 X-1.8399 Y1.5098  
G01 X-1.8598 Y1.4899  
G01 X-1.8705 Y1.4640  
G01 X-1.8705 Y1.4360  
G01 X-1.8598 Y1.4101  
G01 X-1.8399 Y1.3902  
G01 X-1.8140 Y1.3795  
G01 X-1.7860 Y1.3795  
G01 X-1.7601 Y1.3902  
G01 X-1.7402 Y1.4101  
G01 X-1.7346 Y1.4238  
G01 X-1.7343 Y1.4243  
G01 X-1.7334 Y1.4265  
G01 X-1.7313 Y1.4286  
G01 X-1.7297 Y1.4293  
G01 X-1.7286 Y1.4298  
G01 X-1.7256 Y1.4298  
G01 X-1.7245 Y1.4293  
G01 X-1.7228 Y1.4286  
G01 X-1.7207 Y1.4265  
G01 X-1.7177 Y1.4235  
G01 X-1.7062 Y1.4188  
G01 X-1.6938 Y1.4188  
G01 X-1.6823 Y1.4235  
G01 X-1.6735 Y1.4323  
G01 X-1.6688 Y1.4438  
G01 X-1.6688 Y1.4562  
G01 X-1.6735 Y1.4677  
G01 X-1.6823 Y1.4765  
G01 X-1.6938 Y1.4812  
G01 X-1.7062 Y1.4812  
G01 X-1.7177 Y1.4765  
G01 X-1.7207 Y1.4735  
G01 X-1.7227 Y1.4715  
G01 X-1.7228 Y1.4714  
G01 X-1.7244 Y1.4707  
G01 X-1.7256 Y1.4702  
G01 X-1.7286 Y1.4702  
G01 X-1.7297 Y1.4707  
G01 X-1.7313 Y1.4714  
G01 X-1.7334 Y1.4735  
G01 X-1.7343 Y1.4756  
G01 X-1.7346 Y1.4762  
G01 X-1.7402 Y1.4899  
G01 X-1.7601 Y1.5098  
G00 Z0.1000  
G00 X-1.7302 Y1.4470  
G01 Z-0.0070 F10    
G01 X-1.7302 Y1.4530  F20    
G01 X-1.7291 Y1.4588  
G01 X-1.7268 Y1.4643  
G01 X-1.7235 Y1.4693  
G01 X-1.7193 Y1.4735  
G01 X-1.7143 Y1.4768  
G01 X-1.7088 Y1.4791  
G01 X-1.7030 Y1.4802  
G01 X-1.6970 Y1.4802  
G01 X-1.6912 Y1.4791  
G01 X-1.6857 Y1.4768  
G01 X-1.6807 Y1.4735  
G01 X-1.6765 Y1.4693  
G01 X-1.6732 Y1.4643  
G01 X-1.6709 Y1.4588  
G01 X-1.6698 Y1.4530  
G01 X-1.6698 Y1.4470  
G01 X-1.6709 Y1.4412  
G01 X-1.6732 Y1.4357  
G01 X-1.6765 Y1.4307  
G01 X-1.6807 Y1.4265  
G01 X-1.6857 Y1.4232  
G01 X-1.6912 Y1.4209  
G01 X-1.6970 Y1.4198  
G01 X-1.7030 Y1.4198  
G01 X-1.7088 Y1.4209  
G01 X-1.7143 Y1.4232  
G01 X-1.7193 Y1.4265  
G01 X-1.7235 Y1.4307  
G01 X-1.7268 Y1.4357  
G01 X-1.7291 Y1.4412  
G01 X-1.7302 Y1.4470  
G00 Z0.1000  
G00 X-0.4177 Y1.4235  
G01 Z-0.0070 F10    
G01 X-0.4062 Y1.4188  F20    
G01 X-0.3938 Y1.4188  
G01 X-0.3823 Y1.4235  
G01 X-0.3735 Y1.4323  
G01 X-0.3688 Y1.4438  
G01 X-0.3688 Y1.4562  
G01 X-0.3735 Y1.4677  
G01 X-0.3823 Y1.4765  
G01 X-0.3938 Y1.4812  
G01 X-0.4062 Y1.4812  
G01 X-0.4177 Y1.4765  
G01 X-0.4265 Y1.4677  
G01 X-0.4312 Y1.4562  
G01 X-0.4312 Y1.4438  
G01 X-0.4265 Y1.4323  
G01 X-0.4177 Y1.4235  
G00 Z0.1000  
G00 X-0.4302 Y1.4470  
G01 Z-0.0070 F10    
G01 X-0.4302 Y1.4530  F20    
G01 X-0.4291 Y1.4588  
G01 X-0.4268 Y1.4643  
G01 X-0.4235 Y1.4693  
G01 X-0.4193 Y1.4735  
G01 X-0.4143 Y1.4768  
G01 X-0.4088 Y1.4791  
G01 X-0.4030 Y1.4802  
G01 X-0.3970 Y1.4802  
G01 X-0.3912 Y1.4791  
G01 X-0.3857 Y1.4768  
G01 X-0.3807 Y1.4735  
G01 X-0.3765 Y1.4693  
G01 X-0.3732 Y1.4643  
G01 X-0.3709 Y1.4588  
G01 X-0.3698 Y1.4530  
G01 X-0.3698 Y1.4470  
G01 X-0.3709 Y1.4412  
G01 X-0.3732 Y1.4357  
G01 X-0.3765 Y1.4307  
G01 X-0.3807 Y1.4265  
G01 X-0.3857 Y1.4232  
G01 X-0.3912 Y1.4209  
G01 X-0.3970 Y1.4198  
G01 X-0.4030 Y1.4198  
G01 X-0.4088 Y1.4209  
G01 X-0.4143 Y1.4232  
G01 X-0.4193 Y1.4265  
G01 X-0.4235 Y1.4307  
G01 X-0.4268 Y1.4357  
G01 X-0.4291 Y1.4412  
G01 X-0.4302 Y1.4470  
G00 Z0.1000  
G00 X-0.6177 Y1.4235  
G01 Z-0.0070 F10    
G01 X-0.6062 Y1.4188  F20    
G01 X-0.5938 Y1.4188  
G01 X-0.5823 Y1.4235  
G01 X-0.5735 Y1.4323  
G01 X-0.5688 Y1.4438  
G01 X-0.5688 Y1.4562  
G01 X-0.5735 Y1.4677  
G01 X-0.5823 Y1.4765  
G01 X-0.5938 Y1.4812  
G01 X-0.6062 Y1.4812  
G01 X-0.6177 Y1.4765  
G01 X-0.6265 Y1.4677  
G01 X-0.6312 Y1.4562  
G01 X-0.6312 Y1.4438  
G01 X-0.6265 Y1.4323  
G01 X-0.6177 Y1.4235  
G00 Z0.1000  
G00 X-0.6302 Y1.4470  
G01 Z-0.0070 F10    
G01 X-0.6302 Y1.4530  F20    
G01 X-0.6291 Y1.4588  
G01 X-0.6268 Y1.4643  
G01 X-0.6235 Y1.4693  
G01 X-0.6193 Y1.4735  
G01 X-0.6143 Y1.4768  
G01 X-0.6088 Y1.4791  
G01 X-0.6030 Y1.4802  
G01 X-0.5970 Y1.4802  
G01 X-0.5912 Y1.4791  
G01 X-0.5857 Y1.4768  
G01 X-0.5807 Y1.4735  
G01 X-0.5765 Y1.4693  
G01 X-0.5732 Y1.4643  
G01 X-0.5709 Y1.4588  
G01 X-0.5698 Y1.4530  
G01 X-0.5698 Y1.4470  
G01 X-0.5709 Y1.4412  
G01 X-0.5732 Y1.4357  
G01 X-0.5765 Y1.4307  
G01 X-0.5807 Y1.4265  
G01 X-0.5857 Y1.4232  
G01 X-0.5912 Y1.4209  
G01 X-0.5970 Y1.4198  
G01 X-0.6030 Y1.4198  
G01 X-0.6088 Y1.4209  
G01 X-0.6143 Y1.4232  
G01 X-0.6193 Y1.4265  
G01 X-0.6235 Y1.4307  
G01 X-0.6268 Y1.4357  
G01 X-0.6291 Y1.4412  
G01 X-0.6302 Y1.4470  
G00 Z0.1000  
G00 X-1.2177 Y1.4235  
G01 Z-0.0070 F10    
G01 X-1.2062 Y1.4188  F20    
G01 X-1.1938 Y1.4188  
G01 X-1.1823 Y1.4235  
G01 X-1.1735 Y1.4323  
G01 X-1.1688 Y1.4438  
G01 X-1.1688 Y1.4562  
G01 X-1.1745 Y1.4701  
G01 X-1.1745 Y1.5631  
G01 X-1.1784 Y1.5724  
G01 X-1.4704 Y1.8644  
G01 X-1.4776 Y1.8716  
G01 X-1.4869 Y1.8755  
G01 X-2.6878 Y1.8755  
G01 X-2.6906 Y1.8766  
G01 X-2.6927 Y1.8788  
G01 X-2.8284 Y2.0144  
G01 X-2.8356 Y2.0216  
G01 X-2.8449 Y2.0255  
G01 X-3.0793 Y2.0255  
G01 X-3.0821 Y2.0266  
G01 X-3.0842 Y2.0288  
G01 X-3.0870 Y2.0315  
G01 X-3.1130 Y2.0315  
G01 X-3.1158 Y2.0288  
G01 X-3.1178 Y2.0268  
G01 X-3.1179 Y2.0266  
G01 X-3.1195 Y2.0260  
G01 X-3.1207 Y2.0255  
G01 X-3.2051 Y2.0255  
G01 X-3.2144 Y2.0216  
G01 X-3.2284 Y2.0077  
G01 X-3.2302 Y2.0058  
G01 X-3.2305 Y2.0055  
G01 X-3.2321 Y2.0049  
G01 X-3.2333 Y2.0044  
G01 X-3.2363 Y2.0044  
G01 X-3.2379 Y2.0051  
G01 X-3.2390 Y2.0055  
G01 X-3.2437 Y2.0075  
G01 X-3.2563 Y2.0075  
G01 X-3.2678 Y2.0027  
G01 X-3.2767 Y1.9938  
G01 X-3.2815 Y1.9823  
G01 X-3.2815 Y1.9562  
G01 X-3.2826 Y1.9534  
G01 X-3.2848 Y1.9513  
G01 X-3.3594 Y1.8766  
G01 X-3.3622 Y1.8755  
G01 X-3.5378 Y1.8755  
G01 X-3.5406 Y1.8766  
G01 X-3.5427 Y1.8788  
G01 X-3.6351 Y1.9712  
G01 X-3.6362 Y1.9739  
G01 X-3.6362 Y2.0096  
G01 X-3.6654 Y2.0387  
G01 X-3.7066 Y2.0387  
G01 X-3.7357 Y2.0096  
G01 X-3.7357 Y1.9684  
G01 X-3.7066 Y1.9392  
G01 X-3.6769 Y1.9392  
G01 X-3.6742 Y1.9381  
G01 X-3.6721 Y1.9360  
G01 X-3.5644 Y1.8284  
G01 X-3.5551 Y1.8245  
G01 X-3.3449 Y1.8245  
G01 X-3.3356 Y1.8284  
G01 X-3.3284 Y1.8356  
G01 X-3.2695 Y1.8945  
G01 X-3.2667 Y1.8956  
G01 X-3.2637 Y1.8956  
G01 X-3.2621 Y1.8949  
G01 X-3.2610 Y1.8945  
G01 X-3.2563 Y1.8925  
G01 X-3.2437 Y1.8925  
G01 X-3.2322 Y1.8973  
G01 X-3.2233 Y1.9062  
G01 X-3.2185 Y1.9177  
G01 X-3.2185 Y1.9438  
G01 X-3.2174 Y1.9466  
G01 X-3.2152 Y1.9487  
G01 X-3.1906 Y1.9734  
G01 X-3.1878 Y1.9745  
G01 X-3.1207 Y1.9745  
G01 X-3.1196 Y1.9740  
G01 X-3.1179 Y1.9734  
G01 X-3.1158 Y1.9712  
G01 X-3.1130 Y1.9685  
G01 X-3.0870 Y1.9685  
G01 X-3.0821 Y1.9734  
G01 X-3.0793 Y1.9745  
G01 X-2.8622 Y1.9745  
G01 X-2.8594 Y1.9734  
G01 X-2.8573 Y1.9712  
G01 X-2.7144 Y1.8284  
G01 X-2.7051 Y1.8245  
G01 X-1.5042 Y1.8245  
G01 X-1.5014 Y1.8234  
G01 X-1.4993 Y1.8212  
G01 X-1.2266 Y1.5486  
G01 X-1.2255 Y1.5458  
G01 X-1.2255 Y1.4701  
G01 X-1.2312 Y1.4562  
G01 X-1.2312 Y1.4438  
G01 X-1.2265 Y1.4323  
G01 X-1.2177 Y1.4235  
G00 Z0.1000  
G00 X-1.2302 Y1.4470  
G01 Z-0.0070 F10    
G01 X-1.2302 Y1.4530  F20    
G01 X-1.2291 Y1.4588  
G01 X-1.2268 Y1.4643  
G01 X-1.2245 Y1.4678  
G01 X-1.2245 Y1.5479  
G01 X-1.5021 Y1.8255  
G01 X-2.7024 Y1.8255  
G01 X-2.7071 Y1.8264  
G01 X-2.7116 Y1.8283  
G01 X-2.7156 Y1.8310  
G01 X-2.8601 Y1.9755  
G01 X-3.0814 Y1.9755  
G01 X-3.0874 Y1.9695  
G01 X-3.1126 Y1.9695  
G01 X-3.1186 Y1.9755  
G01 X-3.1899 Y1.9755  
G01 X-3.2195 Y1.9459  
G01 X-3.2195 Y1.9210  
G01 X-3.2207 Y1.9151  
G01 X-3.2230 Y1.9096  
G01 X-3.2263 Y1.9046  
G01 X-3.2306 Y1.9003  
G01 X-3.2356 Y1.8970  
G01 X-3.2411 Y1.8947  
G01 X-3.2470 Y1.8935  
G01 X-3.2530 Y1.8935  
G01 X-3.2589 Y1.8947  
G01 X-3.2644 Y1.8970  
G01 X-3.2668 Y1.8985  
G01 X-3.3310 Y1.8344  
G01 X-3.3344 Y1.8310  
G01 X-3.3384 Y1.8283  
G01 X-3.3429 Y1.8264  
G01 X-3.3476 Y1.8255  
G01 X-3.5524 Y1.8255  
G01 X-3.5571 Y1.8264  
G01 X-3.5616 Y1.8283  
G01 X-3.5656 Y1.8310  
G01 X-3.6749 Y1.9403  
G01 X-3.7062 Y1.9403  
G01 X-3.7347 Y1.9688  
G01 X-3.7347 Y2.0092  
G01 X-3.7062 Y2.0377  
G01 X-3.6658 Y2.0377  
G01 X-3.6372 Y2.0092  
G01 X-3.6372 Y1.9719  
G01 X-3.5399 Y1.8745  
G01 X-3.3601 Y1.8745  
G01 X-3.2805 Y1.9541  
G01 X-3.2805 Y1.9790  
G01 X-3.2793 Y1.9849  
G01 X-3.2770 Y1.9904  
G01 X-3.2737 Y1.9954  
G01 X-3.2694 Y1.9997  
G01 X-3.2644 Y2.0030  
G01 X-3.2589 Y2.0053  
G01 X-3.2530 Y2.0065  
G01 X-3.2470 Y2.0065  
G01 X-3.2411 Y2.0053  
G01 X-3.2356 Y2.0030  
G01 X-3.2332 Y2.0015  
G01 X-3.2156 Y2.0190  
G01 X-3.2116 Y2.0217  
G01 X-3.2071 Y2.0236  
G01 X-3.2024 Y2.0245  
G01 X-3.1186 Y2.0245  
G01 X-3.1126 Y2.0305  
G01 X-3.0874 Y2.0305  
G01 X-3.0814 Y2.0245  
G01 X-2.8476 Y2.0245  
G01 X-2.8429 Y2.0236  
G01 X-2.8384 Y2.0217  
G01 X-2.8344 Y2.0190  
G01 X-2.8310 Y2.0156  
G01 X-2.6899 Y1.8745  
G01 X-1.4896 Y1.8745  
G01 X-1.4849 Y1.8736  
G01 X-1.4804 Y1.8717  
G01 X-1.4764 Y1.8690  
G01 X-1.4730 Y1.8656  
G01 X-1.1810 Y1.5736  
G01 X-1.1783 Y1.5696  
G01 X-1.1764 Y1.5651  
G01 X-1.1755 Y1.5604  
G01 X-1.1755 Y1.4678  
G01 X-1.1732 Y1.4643  
G01 X-1.1709 Y1.4588  
G01 X-1.1698 Y1.4530  
G01 X-1.1698 Y1.4470  
G01 X-1.1709 Y1.4412  
G01 X-1.1732 Y1.4357  
G01 X-1.1765 Y1.4307  
G01 X-1.1807 Y1.4265  
G01 X-1.1857 Y1.4232  
G01 X-1.1912 Y1.4209  
G01 X-1.1970 Y1.4198  
G01 X-1.2030 Y1.4198  
G01 X-1.2088 Y1.4209  
G01 X-1.2143 Y1.4232  
G01 X-1.2193 Y1.4265  
G01 X-1.2235 Y1.4307  
G01 X-1.2268 Y1.4357  
G01 X-1.2291 Y1.4412  
G01 X-1.2302 Y1.4470  
G00 Z0.1000  
G00 X-1.5177 Y1.4235  
G01 Z-0.0070 F10    
G01 X-1.5062 Y1.4188  F20    
G01 X-1.4938 Y1.4188  
G01 X-1.4823 Y1.4235  
G01 X-1.4735 Y1.4323  
G01 X-1.4688 Y1.4438  
G01 X-1.4688 Y1.4562  
G01 X-1.4735 Y1.4677  
G01 X-1.4823 Y1.4765  
G01 X-1.4938 Y1.4812  
G01 X-1.5062 Y1.4812  
G01 X-1.5177 Y1.4765  
G01 X-1.5265 Y1.4677  
G01 X-1.5312 Y1.4562  
G01 X-1.5312 Y1.4438  
G01 X-1.5265 Y1.4323  
G01 X-1.5177 Y1.4235  
G00 Z0.1000  
G00 X-1.5302 Y1.4470  
G01 Z-0.0070 F10    
G01 X-1.5302 Y1.4530  F20    
G01 X-1.5291 Y1.4588  
G01 X-1.5268 Y1.4643  
G01 X-1.5235 Y1.4693  
G01 X-1.5193 Y1.4735  
G01 X-1.5143 Y1.4768  
G01 X-1.5088 Y1.4791  
G01 X-1.5030 Y1.4802  
G01 X-1.4970 Y1.4802  
G01 X-1.4912 Y1.4791  
G01 X-1.4857 Y1.4768  
G01 X-1.4807 Y1.4735  
G01 X-1.4765 Y1.4693  
G01 X-1.4732 Y1.4643  
G01 X-1.4709 Y1.4588  
G01 X-1.4698 Y1.4530  
G01 X-1.4698 Y1.4470  
G01 X-1.4709 Y1.4412  
G01 X-1.4732 Y1.4357  
G01 X-1.4765 Y1.4307  
G01 X-1.4807 Y1.4265  
G01 X-1.4857 Y1.4232  
G01 X-1.4912 Y1.4209  
G01 X-1.4970 Y1.4198  
G01 X-1.5030 Y1.4198  
G01 X-1.5088 Y1.4209  
G01 X-1.5143 Y1.4232  
G01 X-1.5193 Y1.4265  
G01 X-1.5235 Y1.4307  
G01 X-1.5268 Y1.4357  
G01 X-1.5291 Y1.4412  
G01 X-1.5302 Y1.4470  
G00 Z0.1000  
G00 X-1.2177 Y2.0235  
G01 Z-0.0070 F10    
G01 X-1.2062 Y2.0188  F20    
G01 X-1.1938 Y2.0188  
G01 X-1.1823 Y2.0235  
G01 X-1.1735 Y2.0323  
G01 X-1.1688 Y2.0438  
G01 X-1.1688 Y2.0562  
G01 X-1.1735 Y2.0677  
G01 X-1.1823 Y2.0765  
G01 X-1.1938 Y2.0812  
G01 X-1.2062 Y2.0812  
G01 X-1.2177 Y2.0765  
G01 X-1.2265 Y2.0677  
G01 X-1.2312 Y2.0562  
G01 X-1.2312 Y2.0438  
G01 X-1.2265 Y2.0323  
G01 X-1.2177 Y2.0235  
G00 Z0.1000  
G00 X-1.2302 Y2.0470  
G01 Z-0.0070 F10    
G01 X-1.2302 Y2.0530  F20    
G01 X-1.2291 Y2.0588  
G01 X-1.2268 Y2.0643  
G01 X-1.2235 Y2.0693  
G01 X-1.2193 Y2.0735  
G01 X-1.2143 Y2.0768  
G01 X-1.2088 Y2.0791  
G01 X-1.2030 Y2.0802  
G01 X-1.1970 Y2.0802  
G01 X-1.1912 Y2.0791  
G01 X-1.1857 Y2.0768  
G01 X-1.1807 Y2.0735  
G01 X-1.1765 Y2.0693  
G01 X-1.1732 Y2.0643  
G01 X-1.1709 Y2.0588  
G01 X-1.1698 Y2.0530  
G01 X-1.1698 Y2.0470  
G01 X-1.1709 Y2.0412  
G01 X-1.1732 Y2.0357  
G01 X-1.1765 Y2.0307  
G01 X-1.1807 Y2.0265  
G01 X-1.1857 Y2.0232  
G01 X-1.1912 Y2.0209  
G01 X-1.1970 Y2.0198  
G01 X-1.2030 Y2.0198  
G01 X-1.2088 Y2.0209  
G01 X-1.2143 Y2.0232  
G01 X-1.2193 Y2.0265  
G01 X-1.2235 Y2.0307  
G01 X-1.2268 Y2.0357  
G01 X-1.2291 Y2.0412  
G01 X-1.2302 Y2.0470  
G00 Z0.1000  
G00 X-1.0177 Y2.0235  
G01 Z-0.0070 F10    
G01 X-1.0062 Y2.0188  F20    
G01 X-0.9938 Y2.0188  
G01 X-0.9823 Y2.0235  
G01 X-0.9735 Y2.0323  
G01 X-0.9688 Y2.0438  
G01 X-0.9688 Y2.0562  
G01 X-0.9735 Y2.0677  
G01 X-0.9823 Y2.0765  
G01 X-0.9938 Y2.0812  
G01 X-1.0062 Y2.0812  
G01 X-1.0177 Y2.0765  
G01 X-1.0265 Y2.0677  
G01 X-1.0312 Y2.0562  
G01 X-1.0312 Y2.0438  
G01 X-1.0265 Y2.0323  
G01 X-1.0177 Y2.0235  
G00 Z0.1000  
G00 X-1.0302 Y2.0470  
G01 Z-0.0070 F10    
G01 X-1.0302 Y2.0530  F20    
G01 X-1.0291 Y2.0588  
G01 X-1.0268 Y2.0643  
G01 X-1.0235 Y2.0693  
G01 X-1.0193 Y2.0735  
G01 X-1.0143 Y2.0768  
G01 X-1.0088 Y2.0791  
G01 X-1.0030 Y2.0802  
G01 X-0.9970 Y2.0802  
G01 X-0.9912 Y2.0791  
G01 X-0.9857 Y2.0768  
G01 X-0.9807 Y2.0735  
G01 X-0.9765 Y2.0693  
G01 X-0.9732 Y2.0643  
G01 X-0.9709 Y2.0588  
G01 X-0.9698 Y2.0530  
G01 X-0.9698 Y2.0470  
G01 X-0.9709 Y2.0412  
G01 X-0.9732 Y2.0357  
G01 X-0.9765 Y2.0307  
G01 X-0.9807 Y2.0265  
G01 X-0.9857 Y2.0232  
G01 X-0.9912 Y2.0209  
G01 X-0.9970 Y2.0198  
G01 X-1.0030 Y2.0198  
G01 X-1.0088 Y2.0209  
G01 X-1.0143 Y2.0232  
G01 X-1.0193 Y2.0265  
G01 X-1.0235 Y2.0307  
G01 X-1.0268 Y2.0357  
G01 X-1.0291 Y2.0412  
G01 X-1.0302 Y2.0470  
G00 Z0.1000  
G00 X-0.8177 Y2.0235  
G01 Z-0.0070 F10    
G01 X-0.8062 Y2.0188  F20    
G01 X-0.7938 Y2.0188  
G01 X-0.7823 Y2.0235  
G01 X-0.7735 Y2.0323  
G01 X-0.7688 Y2.0438  
G01 X-0.7688 Y2.0562  
G01 X-0.7735 Y2.0677  
G01 X-0.7823 Y2.0765  
G01 X-0.7938 Y2.0812  
G01 X-0.8062 Y2.0812  
G01 X-0.8177 Y2.0765  
G01 X-0.8265 Y2.0677  
G01 X-0.8312 Y2.0562  
G01 X-0.8312 Y2.0438  
G01 X-0.8265 Y2.0323  
G01 X-0.8177 Y2.0235  
G00 Z0.1000  
G00 X-0.8302 Y2.0470  
G01 Z-0.0070 F10    
G01 X-0.8302 Y2.0530  F20    
G01 X-0.8291 Y2.0588  
G01 X-0.8268 Y2.0643  
G01 X-0.8235 Y2.0693  
G01 X-0.8193 Y2.0735  
G01 X-0.8143 Y2.0768  
G01 X-0.8088 Y2.0791  
G01 X-0.8030 Y2.0802  
G01 X-0.7970 Y2.0802  
G01 X-0.7912 Y2.0791  
G01 X-0.7857 Y2.0768  
G01 X-0.7807 Y2.0735  
G01 X-0.7765 Y2.0693  
G01 X-0.7732 Y2.0643  
G01 X-0.7709 Y2.0588  
G01 X-0.7698 Y2.0530  
G01 X-0.7698 Y2.0470  
G01 X-0.7709 Y2.0412  
G01 X-0.7732 Y2.0357  
G01 X-0.7765 Y2.0307  
G01 X-0.7807 Y2.0265  
G01 X-0.7857 Y2.0232  
G01 X-0.7912 Y2.0209  
G01 X-0.7970 Y2.0198  
G01 X-0.8030 Y2.0198  
G01 X-0.8088 Y2.0209  
G01 X-0.8143 Y2.0232  
G01 X-0.8193 Y2.0265  
G01 X-0.8235 Y2.0307  
G01 X-0.8268 Y2.0357  
G01 X-0.8291 Y2.0412  
G01 X-0.8302 Y2.0470  
G00 Z0.1000  
G00 X-0.6177 Y2.0235  
G01 Z-0.0070 F10    
G01 X-0.6062 Y2.0188  F20    
G01 X-0.5938 Y2.0188  
G01 X-0.5823 Y2.0235  
G01 X-0.5735 Y2.0323  
G01 X-0.5688 Y2.0438  
G01 X-0.5688 Y2.0562  
G01 X-0.5735 Y2.0677  
G01 X-0.5823 Y2.0765  
G01 X-0.5938 Y2.0812  
G01 X-0.6062 Y2.0812  
G01 X-0.6177 Y2.0765  
G01 X-0.6265 Y2.0677  
G01 X-0.6312 Y2.0562  
G01 X-0.6312 Y2.0438  
G01 X-0.6265 Y2.0323  
G01 X-0.6177 Y2.0235  
G00 Z0.1000  
G00 X-0.6302 Y2.0470  
G01 Z-0.0070 F10    
G01 X-0.6302 Y2.0530  F20    
G01 X-0.6291 Y2.0588  
G01 X-0.6268 Y2.0643  
G01 X-0.6235 Y2.0693  
G01 X-0.6193 Y2.0735  
G01 X-0.6143 Y2.0768  
G01 X-0.6088 Y2.0791  
G01 X-0.6030 Y2.0802  
G01 X-0.5970 Y2.0802  
G01 X-0.5912 Y2.0791  
G01 X-0.5857 Y2.0768  
G01 X-0.5807 Y2.0735  
G01 X-0.5765 Y2.0693  
G01 X-0.5732 Y2.0643  
G01 X-0.5709 Y2.0588  
G01 X-0.5698 Y2.0530  
G01 X-0.5698 Y2.0470  
G01 X-0.5709 Y2.0412  
G01 X-0.5732 Y2.0357  
G01 X-0.5765 Y2.0307  
G01 X-0.5807 Y2.0265  
G01 X-0.5857 Y2.0232  
G01 X-0.5912 Y2.0209  
G01 X-0.5970 Y2.0198  
G01 X-0.6030 Y2.0198  
G01 X-0.6088 Y2.0209  
G01 X-0.6143 Y2.0232  
G01 X-0.6193 Y2.0265  
G01 X-0.6235 Y2.0307  
G01 X-0.6268 Y2.0357  
G01 X-0.6291 Y2.0412  
G01 X-0.6302 Y2.0470  
G00 Z0.1000  
G00 X-0.4177 Y2.0235  
G01 Z-0.0070 F10    
G01 X-0.4062 Y2.0188  F20    
G01 X-0.3938 Y2.0188  
G01 X-0.3823 Y2.0235  
G01 X-0.3735 Y2.0323  
G01 X-0.3688 Y2.0438  
G01 X-0.3688 Y2.0562  
G01 X-0.3735 Y2.0677  
G01 X-0.3823 Y2.0765  
G01 X-0.3938 Y2.0812  
G01 X-0.4062 Y2.0812  
G01 X-0.4177 Y2.0765  
G01 X-0.4265 Y2.0677  
G01 X-0.4312 Y2.0562  
G01 X-0.4312 Y2.0438  
G01 X-0.4265 Y2.0323  
G01 X-0.4177 Y2.0235  
G00 Z0.1000  
G00 X-0.4302 Y2.0470  
G01 Z-0.0070 F10    
G01 X-0.4302 Y2.0530  F20    
G01 X-0.4291 Y2.0588  
G01 X-0.4268 Y2.0643  
G01 X-0.4235 Y2.0693  
G01 X-0.4193 Y2.0735  
G01 X-0.4143 Y2.0768  
G01 X-0.4088 Y2.0791  
G01 X-0.4030 Y2.0802  
G01 X-0.3970 Y2.0802  
G01 X-0.3912 Y2.0791  
G01 X-0.3857 Y2.0768  
G01 X-0.3807 Y2.0735  
G01 X-0.3765 Y2.0693  
G01 X-0.3732 Y2.0643  
G01 X-0.3709 Y2.0588  
G01 X-0.3698 Y2.0530  
G01 X-0.3698 Y2.0470  
G01 X-0.3709 Y2.0412  
G01 X-0.3732 Y2.0357  
G01 X-0.3765 Y2.0307  
G01 X-0.3807 Y2.0265  
G01 X-0.3857 Y2.0232  
G01 X-0.3912 Y2.0209  
G01 X-0.3970 Y2.0198  
