(.../pcb-gcode-3_6_0_4/pcb-gcode.ulp)
(Copyright 2005 - 2012 by John Johnson)
(See readme.txt for licensing terms.)
(This file generated from the board:)
(.../projects/Piezo adapter/MainMCU.brd)
(Current profile is .../pcb-gcode-3_6_0_4/profiles/mach.pp  )
(This file generated 12/11/2024 05:02 p. m.)
(Settings from pcb-machine.h)
(  Tool Size)
(0.0070  )
(Z Axis Settings)
(  High     Up        Down     Drill)
(0.5000  	0.1000  	-0.0070 	-0.0320 )
(spindle on time = 3.0000)
(milling depth = -0.0100)
(text depth = -0.0050)
(tool change at 0.5000  0.6000  1.0000  )
(feed rate xy = F20    )
(feed rate z  = F10    )
(Settings from pcb-defaults.h)
(isolate min = 0.0010)
(isolate max = 0.0200)
(isolate step = 0.0050)
(Generated bottom outlines, bottom drill, )
(Unit of measure: inch)
( Tool|       Size       |  Min Sub |  Max Sub |   Count )
( T01 | 0.800mm 0.0315in | 0.0000in | 0.0000in |       0 )
( T02 | 0.813mm 0.0320in | 0.0000in | 0.0000in |       0 )
( T03 | 1.499mm 0.0590in | 0.0000in | 0.0000in |       0 )
( T04 | 1.778mm 0.0700in | 0.0000in | 0.0000in |       0 )
(Inch Mode)
G20
(Absolute Coordinates)
G90
M05
G00 Z1.0000  
G00 X0.5000  Y0.6000  
M06 T01  ; 0.0315  
G01 Z0.0000  F10    
M06 T01  ; 0.0315  
G00 Z0.1000  
M03
G04 P3.000000
G82 X-1.3000 Y1.4500  Z-0.0320 F10    R0.1000  P1.000000
G82 X-1.3000 Y2.0500  
G82 X-1.4000 Y1.4500  
G82 X-1.4000 Y2.0500  
G82 X-1.5000 Y1.4500  
G82 X-1.5000 Y2.0500  
G82 X-1.6000 Y1.4500  
G82 X-1.6000 Y2.0500  
G82 X-1.7000 Y1.4500  
G82 X-1.7000 Y2.0500  
G82 X-0.3000 Y1.4500  
G82 X-0.3000 Y2.0500  
G82 X-0.4000 Y1.4500  
G82 X-0.4000 Y2.0500  
G82 X-0.5000 Y1.4500  
G82 X-0.5000 Y2.0500  
G82 X-0.6000 Y1.4500  
G82 X-0.6000 Y2.0500  
G82 X-0.7000 Y1.4500  
G82 X-0.7000 Y2.0500  
G82 X-0.8000 Y1.4500  
G82 X-0.8000 Y2.0500  
G82 X-0.9000 Y1.4500  
G82 X-0.9000 Y2.0500  
G82 X-1.0000 Y1.4500  
G82 X-1.0000 Y2.0500  
G82 X-1.1000 Y1.4500  
G82 X-1.1000 Y2.0500  
G82 X-1.2000 Y1.4500  
G82 X-1.2000 Y2.0500  
M05
G00 Z1.0000  
M06 T02  ; 0.0320  
G01 Z0.0000  F10    
M06 T02  ; 0.0320  
G00 Z0.1000  
M03
G04 P3.000000
G82 X-1.2500 Y0.7500  Z-0.0320 F10    R0.1000  P1.000000
G82 X-1.5500 Y0.7500  
G82 X-1.6000 Y0.9000  
G82 X-1.8000 Y0.9000  
G82 X-1.8500 Y0.7500  
G82 X-2.1500 Y0.7500  
G82 X-2.2000 Y0.9000  
G82 X-2.4000 Y0.9000  
G82 X-2.4500 Y0.7500  
G82 X-2.7500 Y0.7500  
G82 X-2.8000 Y0.9000  
G82 X-3.0000 Y0.9000  
G82 X-3.0500 Y0.7500  
G82 X-3.1000 Y1.4000  
G82 X-3.1000 Y1.6000  
G82 X-3.1000 Y2.0000  
G82 X-3.1000 Y1.0000  
G82 X-3.2500 Y1.3500  
G82 X-3.2500 Y1.6500  
G82 X-3.2500 Y1.9500  
G82 X-3.2500 Y1.0500  
G82 X-3.3500 Y0.7500  
G82 X-3.4000 Y0.9000  
G82 X-0.6000 Y0.9000  
G82 X-0.6500 Y0.7500  
G82 X-0.9500 Y0.7500  
G82 X-1.0000 Y0.9000  
G82 X-1.2000 Y0.9000  
M05
G00 Z1.0000  
M06 T03  ; 0.0590  
G01 Z0.0000  F10    
M06 T03  ; 0.0590  
G00 Z0.1000  
M03
G04 P3.000000
G82 X-1.3060 Y0.4570  Z-0.0320 F10    R0.1000  P1.000000
G82 X-1.4080 Y0.2030  
G82 X-1.5720 Y0.6260  
G82 X-1.5890 Y0.3640  
G82 X-1.8070 Y0.5120  
G82 X-1.9060 Y0.4570  
G82 X-2.0080 Y0.2030  
G82 X-2.1720 Y0.6260  
G82 X-2.1890 Y0.3640  
G82 X-2.4070 Y0.5120  
G82 X-2.5060 Y0.4570  
G82 X-2.6080 Y0.2030  
G82 X-2.7720 Y0.6260  
G82 X-2.7890 Y0.3640  
G82 X-3.0070 Y0.5120  
G82 X-3.1060 Y0.4570  
G82 X-3.2080 Y0.2030  
G82 X-3.3720 Y0.6260  
G82 X-3.3890 Y0.3640  
G82 X-3.4240 Y1.3720  
G82 X-3.4240 Y1.9720  
G82 X-3.5380 Y1.6070  
G82 X-3.5380 Y1.0070  
G82 X-3.5930 Y1.7060  
G82 X-3.5930 Y1.1060  
G82 X-3.6860 Y1.3890  
G82 X-3.6860 Y1.9890  
G82 X-3.8470 Y1.8080  
G82 X-3.8470 Y1.2080  
G82 X-0.6070 Y0.5120  
G82 X-0.7060 Y0.4570  
G82 X-0.8080 Y0.2030  
G82 X-0.9720 Y0.6260  
G82 X-0.9890 Y0.3640  
G82 X-1.2070 Y0.5120  
M05
G00 Z1.0000  
M06 T04  ; 0.0700  
G01 Z0.0000  F10    
M06 T04  ; 0.0700  
G00 Z0.1000  
M03
G04 P3.000000
G82 X-1.8000 Y1.4500  Z-0.0320 F10    R0.1000  P1.000000
G82 X-1.8000 Y2.0500  
G82 X-0.2000 Y1.4500  
G82 X-0.2000 Y2.0500  
T01 
G00 Z0.5000  
M05
M02
