(.../pcb-gcode-3_6_0_4/pcb-gcode.ulp)
(Copyright 2005 - 2012 by John Johnson)
(See readme.txt for licensing terms.)
(This file generated from the board:)
(.../Piezo adapter/PiezoAdapter.brd)
(Current profile is .../pcb-gcode-3_6_0_4/profiles/mach.pp  )
(This file generated 01/11/2024 10:24 a. m.)
(Settings from pcb-machine.h)
(  Tool Size)
(0.0070  )
(Z Axis Settings)
(  High     Up        Down     Drill)
(0.5000  	0.1000  	-0.0070 	-0.0320 )
(spindle on time = 3.0000)
(milling depth = -0.0100)
(text depth = -0.0050)
(tool change at 0.5000  0.6000  1.0000  )
(feed rate xy = F20    )
(feed rate z  = F10    )
(Settings from pcb-defaults.h)
(isolate min = 0.0010)
(isolate max = 0.0200)
(isolate step = 0.0050)
(Generated bottom outlines, bottom drill, )
(Unit of measure: inch)
(Inch Mode)
G20
(Absolute Coordinates)
G90
G00 X0.0000  Y0.0000  
M03
G04 P3.000000
G00 Z0.1000  
G00 X-0.8989 Y0.5202  
G01 Z-0.0070 F10    
G01 X-0.8662 Y0.5529  F20    
G01 X-0.8662 Y0.5991  
G01 X-0.8989 Y0.6317  
G01 X-0.9451 Y0.6317  
G01 X-0.9777 Y0.5991  
G01 X-0.9777 Y0.5529  
G01 X-0.9451 Y0.5202  
G01 X-0.8989 Y0.5202  
G00 Z0.1000  
G00 X-0.9707 Y0.5558  
G01 Z-0.0070 F10    
G01 X-0.9707 Y0.5962  F20    
G01 X-0.9422 Y0.6247  
G01 X-0.9018 Y0.6247  
G01 X-0.8732 Y0.5962  
G01 X-0.8732 Y0.5558  
G01 X-0.9018 Y0.5272  
G01 X-0.9422 Y0.5272  
G01 X-0.9707 Y0.5558  
G00 Z0.1000  
G00 X-0.7349 Y0.0972  
G01 Z-0.0070 F10    
G01 X-0.7022 Y0.1299  F20    
G01 X-0.7022 Y0.1761  
G01 X-0.7349 Y0.2087  
G01 X-0.7811 Y0.2087  
G01 X-0.8137 Y0.1761  
G01 X-0.8137 Y0.1299  
G01 X-0.7811 Y0.0972  
G01 X-0.7349 Y0.0972  
G00 Z0.1000  
G00 X-0.8067 Y0.1328  
G01 Z-0.0070 F10    
G01 X-0.8067 Y0.1732  F20    
G01 X-0.7782 Y0.2017  
G01 X-0.7378 Y0.2017  
G01 X-0.7093 Y0.1732  
G01 X-0.7093 Y0.1328  
G01 X-0.7378 Y0.1042  
G01 X-0.7782 Y0.1042  
G01 X-0.8067 Y0.1328  
G00 Z0.1000  
G00 X-0.5384 Y1.0143  
G01 Z-0.0070 F10    
G01 X-0.5330 Y1.0171  F20    
G01 X-0.5281 Y1.0206  
G01 X-0.5238 Y1.0249  
G01 X-0.5202 Y1.0298  
G01 X-0.5175 Y1.0352  
G01 X-0.5161 Y1.0395  
G01 X-0.5170 Y1.0395  
G01 X-0.5171 Y1.0391  
G01 X-0.5199 Y1.0322  
G01 X-0.5240 Y1.0261  
G01 X-0.5292 Y1.0209  
G01 X-0.5354 Y1.0168  
G01 X-0.5422 Y1.0139  
G01 X-0.5426 Y1.0139  
G01 X-0.5426 Y1.0129  
G01 X-0.5384 Y1.0143  
G00 Z0.1000  
G00 X-0.5892 Y1.0609  
G01 Z-0.0070 F10    
G01 X-0.5864 Y1.0678  F20    
G01 X-0.5823 Y1.0739  
G01 X-0.5771 Y1.0791  
G01 X-0.5709 Y1.0832  
G01 X-0.5641 Y1.0861  
G01 X-0.5636 Y1.0861  
G01 X-0.5636 Y1.0871  
G01 X-0.5679 Y1.0857  
G01 X-0.5733 Y1.0829  
G01 X-0.5782 Y1.0794  
G01 X-0.5825 Y1.0751  
G01 X-0.5861 Y1.0702  
G01 X-0.5888 Y1.0648  
G01 X-0.5902 Y1.0605  
G01 X-0.5893 Y1.0605  
G01 X-0.5892 Y1.0609  
G00 Z0.1000  
G00 X-0.5888 Y1.0352  
G01 Z-0.0070 F10    
G01 X-0.5861 Y1.0298  F20    
G01 X-0.5825 Y1.0249  
G01 X-0.5782 Y1.0206  
G01 X-0.5733 Y1.0171  
G01 X-0.5679 Y1.0143  
G01 X-0.5636 Y1.0129  
G01 X-0.5636 Y1.0139  
G01 X-0.5641 Y1.0139  
G01 X-0.5709 Y1.0168  
G01 X-0.5771 Y1.0209  
G01 X-0.5823 Y1.0261  
G01 X-0.5864 Y1.0322  
G01 X-0.5892 Y1.0391  
G01 X-0.5893 Y1.0395  
G01 X-0.5902 Y1.0395  
G01 X-0.5888 Y1.0352  
G00 Z0.1000  
G00 X-0.5175 Y1.0648  
G01 Z-0.0070 F10    
G01 X-0.5202 Y1.0702  F20    
G01 X-0.5238 Y1.0751  
G01 X-0.5281 Y1.0794  
G01 X-0.5330 Y1.0829  
G01 X-0.5384 Y1.0857  
G01 X-0.5426 Y1.0871  
G01 X-0.5426 Y1.0861  
G01 X-0.5422 Y1.0861  
G01 X-0.5354 Y1.0832  
G01 X-0.5292 Y1.0791  
G01 X-0.5240 Y1.0739  
G01 X-0.5199 Y1.0678  
G01 X-0.5171 Y1.0609  
G01 X-0.5170 Y1.0605  
G01 X-0.5161 Y1.0605  
G01 X-0.5175 Y1.0648  
G00 Z0.1000  
G00 X-0.9268 Y0.2525  
G01 Z-0.0070 F10    
G01 X-0.9042 Y0.2619  F20    
G01 X-0.8869 Y0.2792  
G01 X-0.8775 Y0.3018  
G01 X-0.8775 Y0.3262  
G01 X-0.8869 Y0.3488  
G01 X-1.0874 Y0.5493  
G01 X-1.0885 Y0.5521  
G01 X-1.0885 Y0.8198  
G01 X-1.0874 Y0.8225  
G01 X-1.0852 Y0.8246  
G01 X-0.8947 Y1.0152  
G01 X-0.8854 Y1.0378  
G01 X-0.8854 Y1.0622  
G01 X-0.8947 Y1.0848  
G01 X-0.9120 Y1.1021  
G01 X-0.9346 Y1.1115  
G01 X-0.9591 Y1.1115  
G01 X-0.9817 Y1.1021  
G01 X-1.1848 Y0.8990  
G01 X-1.2021 Y0.8817  
G01 X-1.2115 Y0.8591  
G01 X-1.2115 Y0.5128  
G01 X-1.2021 Y0.4902  
G01 X-1.1827 Y0.4708  
G01 X-0.9738 Y0.2619  
G01 X-0.9512 Y0.2525  
G01 X-0.9268 Y0.2525  
G00 Z0.1000  
G00 X-0.9745 Y0.2724  
G01 Z-0.0070 F10    
G01 X-1.1855 Y0.4834  F20    
G01 X-1.1916 Y0.4895  
G01 X-1.1966 Y0.4964  
G01 X-1.2005 Y0.5041  
G01 X-1.2032 Y0.5122  
G01 X-1.2045 Y0.5207  
G01 X-1.2045 Y0.8511  
G01 X-1.2032 Y0.8596  
G01 X-1.2005 Y0.8678  
G01 X-1.1966 Y0.8754  
G01 X-1.1916 Y0.8824  
G01 X-1.1855 Y0.8884  
G01 X-0.9824 Y1.0916  
G01 X-0.9754 Y1.0966  
G01 X-0.9678 Y1.1005  
G01 X-0.9596 Y1.1032  
G01 X-0.9511 Y1.1045  
G01 X-0.9426 Y1.1045  
G01 X-0.9341 Y1.1032  
G01 X-0.9259 Y1.1005  
G01 X-0.9183 Y1.0966  
G01 X-0.9113 Y1.0916  
G01 X-0.9053 Y1.0855  
G01 X-0.9002 Y1.0786  
G01 X-0.8963 Y1.0709  
G01 X-0.8937 Y1.0628  
G01 X-0.8924 Y1.0543  
G01 X-0.8924 Y1.0457  
G01 X-0.8937 Y1.0372  
G01 X-0.8963 Y1.0291  
G01 X-0.9002 Y1.0214  
G01 X-0.9053 Y1.0145  
G01 X-1.0955 Y0.8243  
G01 X-1.0955 Y0.5476  
G01 X-0.8974 Y0.3495  
G01 X-0.8924 Y0.3426  
G01 X-0.8885 Y0.3349  
G01 X-0.8858 Y0.3268  
G01 X-0.8845 Y0.3183  
G01 X-0.8845 Y0.3097  
G01 X-0.8858 Y0.3012  
G01 X-0.8885 Y0.2931  
G01 X-0.8924 Y0.2854  
G01 X-0.8974 Y0.2785  
G01 X-0.9035 Y0.2724  
G01 X-0.9104 Y0.2674  
G01 X-0.9181 Y0.2635  
G01 X-0.9262 Y0.2608  
G01 X-0.9347 Y0.2595  
G01 X-0.9433 Y0.2595  
G01 X-0.9518 Y0.2608  
G01 X-0.9599 Y0.2635  
G01 X-0.9676 Y0.2674  
G01 X-0.9745 Y0.2724  
G00 Z0.1000  
G00 X-0.6068 Y0.4510  
G01 Z-0.0070 F10    
G01 X-0.6071 Y0.4505  F20    
G01 X-0.6074 Y0.4499  
G01 X-0.6080 Y0.4493  
G01 X-0.6085 Y0.4486  
G01 X-0.6090 Y0.4482  
G01 X-0.6095 Y0.4478  
G01 X-0.6103 Y0.4475  
G01 X-0.6111 Y0.4470  
G01 X-0.6117 Y0.4469  
G01 X-0.6122 Y0.4467  
G01 X-0.6131 Y0.4467  
G01 X-0.6140 Y0.4465  
G01 X-0.6146 Y0.4467  
G01 X-0.6152 Y0.4467  
G01 X-0.6160 Y0.4470  
G01 X-0.6169 Y0.4472  
G01 X-0.6174 Y0.4476  
G01 X-0.6180 Y0.4478  
G01 X-0.6186 Y0.4485  
G01 X-0.6193 Y0.4490  
G01 X-0.6197 Y0.4495  
G01 X-0.6244 Y0.4543  
G01 X-0.6449 Y0.4627  
G01 X-0.6671 Y0.4627  
G01 X-0.6876 Y0.4543  
G01 X-0.7033 Y0.4386  
G01 X-0.7117 Y0.4181  
G01 X-0.7117 Y0.3959  
G01 X-0.7033 Y0.3754  
G01 X-0.6876 Y0.3597  
G01 X-0.6671 Y0.3512  
G01 X-0.6449 Y0.3512  
G01 X-0.6244 Y0.3597  
G01 X-0.6087 Y0.3754  
G01 X-0.6002 Y0.3959  
G01 X-0.6002 Y0.4166  
G01 X-0.6004 Y0.4175  
G01 X-0.6002 Y0.4181  
G01 X-0.6002 Y0.4187  
G01 X-0.5999 Y0.4195  
G01 X-0.5997 Y0.4204  
G01 X-0.5993 Y0.4209  
G01 X-0.5991 Y0.4215  
G01 X-0.5985 Y0.4221  
G01 X-0.5979 Y0.4228  
G01 X-0.5974 Y0.4231  
G01 X-0.5970 Y0.4236  
G01 X-0.5962 Y0.4239  
G01 X-0.5954 Y0.4244  
G01 X-0.5948 Y0.4245  
G01 X-0.5942 Y0.4247  
G01 X-0.5933 Y0.4247  
G01 X-0.5924 Y0.4249  
G01 X-0.5919 Y0.4247  
G01 X-0.5913 Y0.4247  
G01 X-0.5904 Y0.4244  
G01 X-0.5895 Y0.4242  
G01 X-0.5891 Y0.4238  
G01 X-0.5885 Y0.4236  
G01 X-0.5879 Y0.4229  
G01 X-0.5831 Y0.4194  
G01 X-0.5761 Y0.4159  
G01 X-0.5686 Y0.4135  
G01 X-0.5675 Y0.4133  
G01 X-0.5675 Y0.4143  
G01 X-0.5684 Y0.4145  
G01 X-0.5757 Y0.4168  
G01 X-0.5826 Y0.4203  
G01 X-0.5888 Y0.4248  
G01 X-0.5942 Y0.4302  
G01 X-0.5987 Y0.4364  
G01 X-0.6022 Y0.4433  
G01 X-0.6045 Y0.4506  
G01 X-0.6047 Y0.4515  
G01 X-0.6067 Y0.4515  
G01 X-0.6068 Y0.4510  
G00 Z0.1000  
G00 X-0.7047 Y0.4032  
G01 Z-0.0070 F10    
G01 X-0.7047 Y0.4108  F20    
G01 X-0.7035 Y0.4184  
G01 X-0.7012 Y0.4257  
G01 X-0.6977 Y0.4326  
G01 X-0.6932 Y0.4388  
G01 X-0.6878 Y0.4442  
G01 X-0.6816 Y0.4487  
G01 X-0.6747 Y0.4522  
G01 X-0.6674 Y0.4545  
G01 X-0.6598 Y0.4557  
G01 X-0.6522 Y0.4557  
G01 X-0.6446 Y0.4545  
G01 X-0.6373 Y0.4522  
G01 X-0.6304 Y0.4487  
G01 X-0.6242 Y0.4442  
G01 X-0.6188 Y0.4388  
G01 X-0.6143 Y0.4326  
G01 X-0.6108 Y0.4257  
G01 X-0.6085 Y0.4184  
G01 X-0.6072 Y0.4108  
G01 X-0.6072 Y0.4032  
G01 X-0.6085 Y0.3956  
G01 X-0.6108 Y0.3883  
G01 X-0.6143 Y0.3814  
G01 X-0.6188 Y0.3752  
G01 X-0.6242 Y0.3698  
G01 X-0.6304 Y0.3653  
G01 X-0.6373 Y0.3618  
G01 X-0.6446 Y0.3595  
G01 X-0.6522 Y0.3583  
G01 X-0.6598 Y0.3583  
G01 X-0.6674 Y0.3595  
G01 X-0.6747 Y0.3618  
G01 X-0.6816 Y0.3653  
G01 X-0.6878 Y0.3698  
G01 X-0.6932 Y0.3752  
G01 X-0.6977 Y0.3814  
G01 X-0.7012 Y0.3883  
G01 X-0.7035 Y0.3956  
G01 X-0.7047 Y0.4032  
G00 Z0.1000  
G00 X-0.5085 Y0.4736  
G01 Z-0.0070 F10    
G01 X-0.5109 Y0.4811  F20    
G01 X-0.5145 Y0.4881  
G01 X-0.5191 Y0.4944  
G01 X-0.5246 Y0.4999  
G01 X-0.5309 Y0.5045  
G01 X-0.5379 Y0.5081  
G01 X-0.5453 Y0.5105  
G01 X-0.5465 Y0.5107  
G01 X-0.5465 Y0.5097  
G01 X-0.5456 Y0.5095  
G01 X-0.5383 Y0.5072  
G01 X-0.5314 Y0.5037  
G01 X-0.5252 Y0.4992  
G01 X-0.5198 Y0.4938  
G01 X-0.5153 Y0.4876  
G01 X-0.5118 Y0.4807  
G01 X-0.5095 Y0.4734  
G01 X-0.5093 Y0.4725  
G01 X-0.5083 Y0.4725  
G01 X-0.5085 Y0.4736  
G00 Z0.1000  
G00 X-0.5309 Y0.4195  
G01 Z-0.0070 F10    
G01 X-0.5246 Y0.4241  F20    
G01 X-0.5191 Y0.4296  
G01 X-0.5145 Y0.4359  
G01 X-0.5109 Y0.4429  
G01 X-0.5085 Y0.4503  
G01 X-0.5083 Y0.4515  
G01 X-0.5093 Y0.4515  
G01 X-0.5095 Y0.4506  
G01 X-0.5118 Y0.4433  
G01 X-0.5153 Y0.4364  
G01 X-0.5198 Y0.4302  
G01 X-0.5252 Y0.4248  
G01 X-0.5314 Y0.4203  
G01 X-0.5383 Y0.4168  
G01 X-0.5456 Y0.4145  
G01 X-0.5465 Y0.4143  
G01 X-0.5465 Y0.4133  
G01 X-0.5453 Y0.4135  
G01 X-0.5379 Y0.4159  
G01 X-0.5309 Y0.4195  
G00 Z0.1000  
G00 X-0.5686 Y0.5105  
G01 Z-0.0070 F10    
G01 X-0.5761 Y0.5081  F20    
G01 X-0.5831 Y0.5045  
G01 X-0.5894 Y0.4999  
G01 X-0.5949 Y0.4944  
G01 X-0.5995 Y0.4881  
G01 X-0.6031 Y0.4811  
G01 X-0.6055 Y0.4736  
G01 X-0.6057 Y0.4725  
G01 X-0.6047 Y0.4725  
G01 X-0.6045 Y0.4734  
G01 X-0.6022 Y0.4807  
G01 X-0.5987 Y0.4876  
G01 X-0.5942 Y0.4938  
G01 X-0.5888 Y0.4992  
G01 X-0.5826 Y0.5037  
G01 X-0.5757 Y0.5072  
G01 X-0.5684 Y0.5095  
G01 X-0.5675 Y0.5097  
G01 X-0.5675 Y0.5107  
G01 X-0.5686 Y0.5105  
G00 Z0.1000  
G00 X-0.0355 Y0.2555  
G01 Z-0.0070 F10    
G01 X-0.0366 Y0.2528  F20    
G01 X-0.0388 Y0.2506  
G01 X-0.2528 Y0.0366  
G01 X-0.2555 Y0.0355  
G01 X-1.0945 Y0.0355  
G01 X-1.0972 Y0.0366  
G01 X-1.0994 Y0.0388  
G01 X-1.3564 Y0.2958  
G01 X-1.3575 Y0.2985  
G01 X-1.3575 Y2.0515  
G01 X-1.3564 Y2.0542  
G01 X-1.3542 Y2.0564  
G01 X-1.1042 Y2.3064  
G01 X-1.1015 Y2.3075  
G01 X-0.2485 Y2.3075  
G01 X-0.2458 Y2.3064  
G01 X-0.0366 Y2.0972  
G01 X-0.0355 Y2.0945  
G01 X-0.0355 Y2.0915  
G01 X-0.0355 Y0.2555  
G00 Z0.1000  
G82 X-0.5531 Y1.0500  Z-0.0110 F10    R0.1000  P1.000000
G82 X-0.9469 Y1.0500  
G82 X-0.7580 Y0.1530  
G82 X-0.5570 Y0.4620  
G82 X-0.6560 Y0.4070  
G82 X-0.9220 Y0.5760  
G82 X-0.9390 Y0.3140  
G00 Z0.5000  
M05
M02
