(.../pcb-gcode-3_6_0_4/pcb-gcode.ulp)
(Copyright 2005 - 2012 by John Johnson)
(See readme.txt for licensing terms.)
(This file generated from the board:)
(.../Piezo adapter/PiezoAdapter.brd)
(Current profile is .../pcb-gcode-3_6_0_4/profiles/mach.pp  )
(This file generated 01/11/2024 10:24 a. m.)
(Settings from pcb-machine.h)
(  Tool Size)
(0.0070  )
(Z Axis Settings)
(  High     Up        Down     Drill)
(0.5000  	0.1000  	-0.0070 	-0.0320 )
(spindle on time = 3.0000)
(milling depth = -0.0100)
(text depth = -0.0050)
(tool change at 0.5000  0.6000  1.0000  )
(feed rate xy = F20    )
(feed rate z  = F10    )
(Settings from pcb-defaults.h)
(isolate min = 0.0010)
(isolate max = 0.0200)
(isolate step = 0.0050)
(Generated bottom outlines, bottom drill, )
(Unit of measure: inch)
( Tool|       Size       |  Min Sub |  Max Sub |   Count )
( T01 | 1.100mm 0.0433in | 0.0000in | 0.0000in |       0 )
( T02 | 1.499mm 0.0590in | 0.0000in | 0.0000in |       0 )
(Inch Mode)
G20
(Absolute Coordinates)
G90
M05
G00 Z1.0000  
G00 X0.5000  Y0.6000  
M06 T01  ; 0.0433  
G01 Z0.0000  F10    
M06 T01  ; 0.0433  
G00 Z0.1000  
M03
G04 P3.000000
G82 X-0.5531 Y1.0500  Z-0.0320 F10    R0.1000  P1.000000
G82 X-0.9469 Y1.0500  
M05
G00 Z1.0000  
M06 T02  ; 0.0590  
G01 Z0.0000  F10    
M06 T02  ; 0.0590  
G00 Z0.1000  
M03
G04 P3.000000
G82 X-0.5570 Y0.4620  Z-0.0320 F10    R0.1000  P1.000000
G82 X-0.6560 Y0.4070  
G82 X-0.7580 Y0.1530  
G82 X-0.9220 Y0.5760  
G82 X-0.9390 Y0.3140  
T01 
G00 Z0.5000  
M05
M02
